!!!!SEGMENT: pl-cz--iii-554--001-009_raszek-waclaw--missa-ex-c-et-resurrexit.krn
!!!cenid: 17xx:1030
!!!COM: Raszek, Wacław
!!!COM-rismID: pe30020314
!!!CDT: <1848->1848
!!!CNT:
!!!OPR: Missa ex C
!!!OTL: Et resurrexit
!!!OMV: 009
!!!PDT: 1780
!!!AGN: Sacred; Mass
!!!SMS-siglum: PL-CZ
!!!SMS-shelfmark: III-554
!!!SMS-shelfwork: 001-009 M
!!!SMS-variant:
!!!SMS-altvar:
!!!NIFC-rismSourceID: 300001043
!!!NIFC-rismChildID: 300001043
!!!NIFC-islandoraID: pl-cz:38848
!!!URL-pdf-islandora: https://repozytorium.nifc.pl/islandora/object/pl-cz%3A38848/datastream/PDF/view
!!!URL-scan: https://polish.musicsources.pl/pl/lokalizacje/galeria/rekopisy/6944/1 @EN{Scan on Polish Music Sources Website} @PL{Skany w portalu Dziedzictwo Muzyki Polskiej w otwartym dostępie}
!!!IIIF:
!!!ONB-nifc: UWAGA: części Mszy: Kyrie, Gloria, Laudamus, Qui tollis, Quoniam, Cum sancto spiritu, Credo, Et incarnatus, Et resurrexit, Sanctus, Benedictus, Agnus Dei, Dona nobis
!!!OMD: allo
!!!AIN: 1 alto 1 bass 2 oboe 1 soprn 1 tenor 2 tromp 1 viola 1 violb 2 violn
!!!key: C
!!!OMD:
!!!OMD-mod: Allegro
!!!filter-modern: sic -sq | shed -e "s/TX(.*):t=P:/tx$1:t=P:/LG" | shed -e "s/^custos:/Xcustos:/I" | shed -e "s/^(\d+[\/\\]right)/$1yy/I;s/^(\d+[\/\\]left)/$1yy/I" | shed -k -e "s/LO:N:vis/LO:n:vis:/L" | shed -e "s/:rj/:RJ/L" | shed -e "s/LO:DY:(a|b|rj)/LO:dy:$1/L" | shed -e "s/-//B" | modori -m | tie -s | autostem -r | humtr -p
**kern	**dynam	**kern	**dynam	**kern	**dynam	**kern	**dynam	**kern	**text	**dynam	**kern	**text	**dynam	**kern	**text	**dynam	**kern	**text	**dynam	**kern	**dynam	**kern	**dynam	**kern	**dynam	**kern	**dynam
*part12	*part12	*part11	*part11	*part10	*part10	*part9	*part9	*part8	*part8	*part8	*part7	*part7	*part7	*part6	*part6	*part6	*part5	*part5	*part5	*part4	*part4	*part3	*part3	*part2	*	*part1	*part1
*staff12	*	*staff11	*	*staff10	*	*staff9	*	*staff8	*staff8	*	*staff7	*staff7	*	*staff6	*staff6	*	*staff5	*staff5	*	*staff4	*	*staff3	*	*staff2	*	*staff1	*
*I"Violone	*	*I"Viola di alto. oblig.	*	*I"Violino 2do.	*	*I"Violino I	*	*I"Basſo.	*	*	*I"Tenore.	*	*	*I"Alto.	*	*	*I"Canto.	*	*	*I"Clarino 2do. Ex C	*	*I"Clarino 1mo. Ex C.	*	*I"Oboe Secundo.	*	*I"Oboe Primo.	*
*	*	*mI"Viola obligato	*	*mI"Violino II	*	*	*	*mI"Basso	*	*	*mI"Tenore	*	*	*mI"Alto	*	*	*mI"Soprano	*	*	*mI"Clarino II in C	*	*mI"Clarino I in C	*	*mI"Oboe II	*	*mI"Oboe I	*
*I'vlne	*	*I'vla obl	*	*I'vl 2	*	*I'vl 1	*	*I'B	*	*	*I'T	*	*	*I'A	*	*	*I'S	*	*	*I'clno 2	*	*I'clno 1	*	*I'ob 2	*	*I'ob 1	*
*Iviolb	*	*Iviola	*	*Ivioln	*	*Ivioln	*	*Ibass	*	*	*Itenor	*	*	*Ialto	*	*	*Isoprn	*	*	*Itromp	*	*Itromp	*	*Ioboe	*	*Ioboe	*
*ICstr	*	*ICstr	*	*ICstr	*	*ICstr	*	*ICvox	*	*	*ICvox	*	*	*ICvox	*	*	*ICvox	*	*	*ICbras	*	*ICbras	*	*ICww	*	*ICww	*
*clefF4	*	*clefC3	*	*clefG2	*	*clefG2	*	*clefF4	*	*	*clefC4	*	*	*clefC3	*	*	*clefC1	*	*	*clefG2	*	*clefG2	*	*clefG2	*	*clefG2	*
*	*	*	*	*	*	*	*	*	*	*	*mclefGv2	*	*	*mclefG2	*	*	*mclefG2	*	*	*	*	*	*	*	*	*	*
*Trd0c0	*	*	*	*	*	*	*	*	*	*	*	*	*	*	*	*	*	*	*	*	*	*	*	*	*	*	*
*k[]	*	*k[]	*	*k[]	*	*k[]	*	*k[]	*	*	*k[]	*	*	*k[]	*	*	*k[]	*	*	*k[]	*	*k[]	*	*k[]	*	*k[]	*
*C:	*	*C:	*	*C:	*	*C:	*	*C:	*	*	*C:	*	*	*C:	*	*	*C:	*	*	*C:	*	*C:	*	*C:	*	*C:	*
*M4/4	*	*M4/4	*	*M4/4	*	*M4/4	*	*M4/4	*	*	*M4/4	*	*	*M4/4	*	*	*M4/4	*	*	*M4/4	*	*M4/4	*	*M4/4	*	*M4/4	*
*met(c)	*	*met(c)	*	*met(c)	*	*met(c)	*	*met(c)	*	*	*met(c)	*	*	*met(c)	*	*	*met(c)	*	*	*met(c)	*	*met(c)	*	*met(c)	*	*met(c)	*
*mmet(c)	*	*mmet(c)	*	*mmet(c)	*	*mmet(c)	*	*mmet(c)	*	*	*mmet(c)	*	*	*mmet(c)	*	*	*mmet(c)	*	*	*mmet(c)	*	*mmet(c)	*	*mmet(c)	*	*mmet(c)	*
*all\right	*	*all\right	*	*all\right	*	*all\right	*	*all\right	*	*	*all\right	*	*	*all\right	*	*	*all\right	*	*	*all\right	*	*all\right	*	*all\right	*	*all\right	*
=1	=1	=1	=1	=1	=1	=1	=1	=1	=1	=1	=1	=1	=1	=1	=1	=1	=1	=1	=1	=1	=1	=1	=1	=1	=1	=1	=1
*	*	*2\right	*	*	*	*	*	*	*	*	*	*	*	*2\right	*	*	*	*	*	*	*	*	*	*	*	*	*
!LO:MO:mod=!LO&colon;TX&colon;i&colon;t=Tutti	!	!	!	!	!	!	!	!	!	!	!	!	!	!LO:MO:mod=!LO&colon;TX&colon;i&colon;t=Tutti	!	!	!	!	!	!	!	!	!	!	!	!	!
!LO:TX:a:t=T.	!	!	!LO:MO:null:mod=!LO&colon;DY&colon;ed=brack	!	!	!	!	!LO:MO:mod=!LO&colon;TX&colon;i&colon;t=Tutti	!	!LO:MO:null:mod=!LO&colon;DY&colon;ed=brack	!LO:MO:mod=!LO&colon;TX&colon;i&colon;t=Tutti	!	!LO:MO:null:mod=!LO&colon;DY&colon;ed=brack	!LO:TX:a:t=T.	!	!LO:MO:null:mod=!LO&colon;DY&colon;ed=brack	!LO:MO:mod=!LO&colon;TX&colon;i&colon;t=Tutti	!	!	!	!LO:MO:null:mod=!LO&colon;DY&colon;ed=brack	!	!LO:MO:null:mod=!LO&colon;DY&colon;ed=brack	!	!	!	!
!LO:TX:a:t=allo.:mod=	!	!	!	!LO:TX:a:t=allo.:mod=	!	!	!	!LO:TX:a:t=t&colon;	!	!	!LO:TX:a:t=T.	!	!	!	!	!	!LO:TX:a:t=T.	!	!	!	!	!	!	!	!	!	!LO:DY:a:t=for&colon;
!	!LO:DY:a	!LO:TX:a:t=allo.:mod=	!LO:MO:null:mod=f	!	!LO:DY:a:t=for&colon;	!LO:TX:a:t=allo.:mod=	!LO:DY:a:t=for&colon;	!LO:TX:a:t=allo:mod=	!	!LO:MO:null:mod=f	!LO:TX:a:t=allo.:mod=	!	!LO:MO:null:mod=f	!LO:TX:a:t=allo:mod=	!	!LO:MO:null:mod=f	!	!	!LO:DY:a:t=f&colon;	!LO:TX:a:t=allo.:mod=	!LO:MO:null:mod=f	!LO:TX:a:t=allo.:mod=	!LO:MO:null:mod=f	!LO:TX:a:t=allo.:mod=	!	!LO:TX:a:t=allo.:mod=	!LO:MO:null:mod=.
2C/	f	2c\	.	2c/	f	2c/	f	2C/	Et	.	2C/	Et	.	2c\	Et	.	2c/	Et	f	2c/	.	2c/	.	1r	.	1r	f
4E\	.	4e\	.	4e/	.	4e/	.	4E\	re-	.	4E/	re-	.	4e\	re-	.	4e/	re-	.	4e/	.	4e/	.	.	.	.	.
4G\	.	4g\	.	4g/	.	4g/	.	4G\	-ſur-	.	4G/	-ſur-	.	4g\	-sur-	.	4g/	-sur-	.	4g/	.	4g/	.	.	.	.	.
=2	=2	=2	=2	=2	=2	=2	=2	=2	=2	=2	=2	=2	=2	=2	=2	=2	=2	=2	=2	=2	=2	=2	=2	=2	=2	=2	=2
!	!	!	!	!	!	!	!	!	!	!	!	!	!	!	!	!	!	!	!	!	!	!	!	!	!LO:MO:null:mod=!LO&colon;DY&colon;ed=brack	!	!LO:MO:null:mod=!LO&colon;DY&colon;ed=brack
!	!	!	!	!	!	!	!	!	!	!	!	!	!	!	!	!	!	!	!	!	!	!	!	!	!	!	!
!	!	!	!	!	!	!	!	!	!	!	!	!	!	!	!	!	!	!	!	!	!	!	!	!	!LO:MO:null:mod=f	!	!LO:MO:null:mod=f
4C/	.	4g\	.	8cc\L	.	8cc\L	.	4C/	-re-	.	4c\	-re-	.	4g\	-re-	.	4cc\	-re-	.	4cc\	.	4cc\	.	4e/	.	4cc\	.
.	.	.	.	16dd\L	.	16dd\L	.	.	.	.	.	.	.	.	.	.	.	.	.	.	.	.	.	.	.	.	.
.	.	.	.	16ee\JJ	.	16ee\JJ	.	.	.	.	.	.	.	.	.	.	.	.	.	.	.	.	.	.	.	.	.
!	!	!	!	!	!	!	!	!	!	!	!	!	!	!	!	!	!	!LO:MO:mod=-xit	!	!	!	!	!	!	!	!	!
4BB/	.	4g\	.	4dd\	.	4dd\	.	4BB/	-xit	.	4d\	-xit	.	4g\	-xit	.	4dd\	-xit,	.	4g/	.	4dd\	.	4g/	.	4dd\	.
8r	.	8r	.	8r	.	8r	.	8r	.	.	8r	.	.	8r	.	.	8r	.	.	8r	.	8r	.	8r	.	8r	.
*	*	*	*	*	*	*	*	*	*ij	*	*	*ij	*	*	*	*	*	*	*	*	*	*	*	*	*	*	*
!	!	!	!	!	!	!	!	!	!LO:MO:mod=et	!	!	!	!	!	!	!	!	!	!	!	!	!	!	!	!	!	!
8c\L	.	8g\L	.	8ee\	.	8ee\	.	8c\	Et	.	8c\	et	.	8g\	et	.	8ee\	ter-	.	8g/L	.	8ee\L	.	8g/L	.	8ee\L	.
.	.	.	.	8qgg/	.	8qgg/	.	.	.	.	.	.	.	.	.	.	.	.	.	.	.	.	.	.	.	.	.
8A\	.	8c\	.	8ff\L	.	8ff\L	.	8A\	re-	.	8c\	re-	.	8f\	re-	.	8ff\	-ti-	.	8cc/	.	8ff\	.	8f/	.	8ff\	.
8F\J	.	8a\J	.	16ee\L	.	16ee\L	.	8F\	-ſur-	.	8c\	-ſur-	.	8a\	-su-	.	8dd\	-a	.	8cc/J	.	8dd\J	.	8a/J	.	8dd\J	.
.	.	.	.	16dd\JJ	.	16dd\JJ	.	.	.	.	.	.	.	.	.	.	.	.	.	.	.	.	.	.	.	.	.
=3	=3	=3	=3	=3	=3	=3	=3	=3	=3	=3	=3	=3	=3	=3	=3	=3	=3	=3	=3	=3	=3	=3	=3	=3	=3	=3	=3
.	.	8qg/	.	8qcc/	.	8qcc/	.	.	.	.	.	.	.	.	.	.	.	.	.	.	.	.	.	.	.	.	.
!	!	!	!	!	!	!	!	!	!	!	!LO:TX:t=P:problem=mixed beam	!	!	!	!	!	!	!	!	!	!	!	!	!	!	!	!
8G\L	.	4f\	.	8b/L	.	8b\L	.	8G\L	-re-	.	8G/L	-re-	.	4g\	-re-	.	8cc\L	di-	.	4g/	.	4dd\	.	4d/	.	8cc\L	.
8F\	.	.	.	16a/L	.	16a\L	.	8F\J	.	.	8d\J	.	.	.	.	.	8b\J	.	.	.	.	.	.	.	.	8b\J	.
.	.	.	.	16b/JJ	.	16b\JJ	.	.	.	.	.	.	.	.	.	.	.	.	.	.	.	.	.	.	.	.	.
8E\	.	4e\	.	4cc/	.	4cc\	.	8E\	-xit	.	4c\	-xit	.	4g\	-xit	.	4cc\	-e	.	4c/	.	4cc\	.	8g/L	.	4cc\	.
*	*	*	*	*	*	*	*	*	*Xij	*	*	*Xij	*	*	*	*	*	*	*	*	*	*	*	*	*	*	*
8D\J	.	.	.	.	.	.	.	8r	.	.	.	.	.	.	.	.	.	.	.	.	.	.	.	8f/J	.	.	.
*tremolo	*	*	*	*	*	*	*	*	*	*	*	*	*	*	*	*	*	*	*	*	*	*	*	*	*	*	*
*	*	*tremolo	*	*	*	*	*	*	*	*	*2\right	*	*	*	*	*	*2\right	*	*	*	*	*	*	*	*	*2\right	*
8C/L	.	8e\L	.	2r	.	16cc\LL	.	2C/	ter-	.	2c\	ter-	.	2g\	ter-	.	2ee\	ter-	.	8e/L	.	8cc\L	.	4e/	.	2ee\	.
.	.	.	.	.	.	16ccc\	.	.	.	.	.	.	.	.	.	.	.	.	.	.	.	.	.	.	.	.	.
8C/	.	8e\	.	.	.	16bb\	.	.	.	.	.	.	.	.	.	.	.	.	.	16e/L	.	16cc\L	.	.	.	.	.
.	.	.	.	.	.	16ccc\JJ	.	.	.	.	.	.	.	.	.	.	.	.	.	16e/JJ	.	16cc\JJ	.	.	.	.	.
!	!	!	!	!	!	!	!	!	!	!	!	!	!	!	!	!	!	!	!	!	!	!LO:TX:a:t=c:mod=	!	!	!	!	!
8C/	.	8e\	.	.	.	16ddd\LL	.	.	.	.	.	.	.	.	.	.	.	.	.	8e/L	.	8cc\L	.	4g/	.	.	.
.	.	.	.	.	.	16ccc\	.	.	.	.	.	.	.	.	.	.	.	.	.	.	.	.	.	.	.	.	.
!	!	!	!	!	!	!	!	!	!	!	!	!	!	!	!	!	!	!	!	!	!	!LO:TX:a:t=c:mod=	!	!	!	!	!
8C/J	.	8e\J	.	.	.	16bb\	.	.	.	.	.	.	.	.	.	.	.	.	.	8e/J	.	8cc\J	.	.	.	.	.
.	.	.	.	.	.	16aa\JJ	.	.	.	.	.	.	.	.	.	.	.	.	.	.	.	.	.	.	.	.	.
=4	=4	=4	=4	=4	=4	=4	=4	=4	=4	=4	=4	=4	=4	=4	=4	=4	=4	=4	=4	=4	=4	=4	=4	=4	=4	=4	=4
8BB/L	.	8d\L	.	2r	.	8gg\L	.	4BB/	-ti-	.	4d\	-ti-	.	4g\	-ti-	.	4dd\	-ti-	.	8g/L	.	8dd\L	.	4g/	.	4dd\	.
8BB/	.	8d\	.	.	.	16aa\L	.	.	.	.	.	.	.	.	.	.	.	.	.	16g/L	.	16dd\L	.	.	.	.	.
.	.	.	.	.	.	16gg\JJ	.	.	.	.	.	.	.	.	.	.	.	.	.	16g/JJ	.	16dd\JJ	.	.	.	.	.
8BB/	.	8d\	.	.	.	16gg\LL	.	4B\	-a	.	4B\	-a	.	4g\	-a	.	4dd\	-a	.	8g/L	.	8dd\L	.	4dd\	.	8gg\L	.
.	.	.	.	.	.	16ff\	.	.	.	.	.	.	.	.	.	.	.	.	.	.	.	.	.	.	.	.	.
8BB/J	.	8d\J	.	.	.	16ee\	.	.	.	.	.	.	.	.	.	.	.	.	.	8g/J	.	8dd\J	.	.	.	8ff\J	.
.	.	.	.	.	.	16dd\JJ	.	.	.	.	.	.	.	.	.	.	.	.	.	.	.	.	.	.	.	.	.
*	*	*	*	*	*	*	*	*2\right	*ij	*	*	*ij	*	*	*ij	*	*	*ij	*	*	*	*	*	*	*	*	*
8C/L	.	8e\L	.	16ee\LL	.	4ee\	.	2c\	ter-	.	2c\	ter-	.	2g\	ter-	.	2ee\	ter-	.	4cc\	.	4ee\	.	4cc\	.	4ee\	.
.	.	.	.	16cc\	.	.	.	.	.	.	.	.	.	.	.	.	.	.	.	.	.	.	.	.	.	.	.
8C/	.	8e\	.	16b\	.	.	.	.	.	.	.	.	.	.	.	.	.	.	.	.	.	.	.	.	.	.	.
.	.	.	.	16cc\JJ	.	.	.	.	.	.	.	.	.	.	.	.	.	.	.	.	.	.	.	.	.	.	.
8C/	.	8e\	.	16dd\LL	.	4r	.	.	.	.	.	.	.	.	.	.	.	.	.	4r	.	4r	.	4r	.	4r	.
.	.	.	.	16cc\	.	.	.	.	.	.	.	.	.	.	.	.	.	.	.	.	.	.	.	.	.	.	.
8C/J	.	8e\J	.	16b\	.	.	.	.	.	.	.	.	.	.	.	.	.	.	.	.	.	.	.	.	.	.	.
.	.	.	.	16a\JJ	.	.	.	.	.	.	.	.	.	.	.	.	.	.	.	.	.	.	.	.	.	.	.
=5	=5	=5	=5	=5	=5	=5	=5	=5	=5	=5	=5	=5	=5	=5	=5	=5	=5	=5	=5	=5	=5	=5	=5	=5	=5	=5	=5
8BB/L	.	8d\L	.	8g/L	.	2r	.	4B\	-ti-	.	4d\	-ti-	.	4g\	-ti-	.	4dd\	-ti-	.	8g/L	.	8dd\L	.	4g/	.	4dd\	.
8BB/	.	8d\	.	16a/L	.	.	.	.	.	.	.	.	.	.	.	.	.	.	.	16g/L	.	16dd\L	.	.	.	.	.
.	.	.	.	16g/JJ	.	.	.	.	.	.	.	.	.	.	.	.	.	.	.	16g/JJ	.	16dd\JJ	.	.	.	.	.
8BB/	.	8d\	.	16g/LL	.	.	.	4BB/	-a	.	4B\	-a	.	4g\	-a	.	4dd\	-a	.	8g/L	.	8dd\L	.	4dd\	.	8gg\L	.
*	*	*	*	*	*	*	*	*	*Xij	*	*	*Xij	*	*	*	*	*	*Xij	*	*	*	*	*	*	*	*	*
.	.	.	.	16f/	.	.	.	.	.	.	.	.	.	.	.	.	.	.	.	.	.	.	.	.	.	.	.
8BB/J	.	8d\J	.	16e/	.	.	.	.	.	.	.	.	.	.	.	.	.	.	.	8g/J	.	8dd\J	.	.	.	8ff\J	.
.	.	.	.	16d/JJ	.	.	.	.	.	.	.	.	.	.	.	.	.	.	.	.	.	.	.	.	.	.	.
*	*	*	*	*	*	*	*	*	*	*	*	*	*	*	*	*	*	*	*	*	*	*	*	*2\right	*	*	*
!	!	!	!	!LO:MO:mod=4e	!	!	!	!	!LO:MO:mod=di-	!	!	!LO:MO:mod=di-	!	!	!	!	!	!	!	!	!	!	!	!	!	!	!
8C/L	.	8e\L	.	8e/	.	16ee\LL	.	2C/	Di-	.	2c\	Di-	.	2g\	ter-	.	2ee\	di-	.	8e/L	.	8cc\L	.	2cc\	.	2ee\	.
.	.	.	.	.	.	16ccc\	.	.	.	.	.	.	.	.	.	.	.	.	.	.	.	.	.	.	.	.	.
!	!	!	!	!LO:MO:null:mod=.	!	!	!	!	!	!	!	!	!	!	!	!	!	!	!	!	!	!	!	!	!	!	!
8C/	.	8e\	.	8r	.	16bb\	.	.	.	.	.	.	.	.	.	.	.	.	.	16e/L	.	16cc\L	.	.	.	.	.
.	.	.	.	.	.	16ccc\JJ	.	.	.	.	.	.	.	.	.	.	.	.	.	16e/JJ	.	16cc\JJ	.	.	.	.	.
8C/	.	8e\	.	4r	.	16ddd\LL	.	.	.	.	.	.	.	.	.	.	.	.	.	8e/L	.	8cc\L	.	.	.	.	.
.	.	.	.	.	.	16ccc\	.	.	.	.	.	.	.	.	.	.	.	.	.	.	.	.	.	.	.	.	.
8C/J	.	8e\J	.	.	.	16bb\	.	.	.	.	.	.	.	.	.	.	.	.	.	8e/J	.	8cc\J	.	.	.	.	.
.	.	.	.	.	.	16aa\JJ	.	.	.	.	.	.	.	.	.	.	.	.	.	.	.	.	.	.	.	.	.
!	!	!	!	!LO:LB:g=original	!	!LO:LB:g=original	!	!	!	!	!	!	!	!	!	!	!	!	!	!	!	!	!	!	!	!	!
=6	=6	=6	=6	=6	=6	=6	=6	=6	=6	=6	=6	=6	=6	=6	=6	=6	=6	=6	=6	=6	=6	=6	=6	=6	=6	=6	=6
8BB/L	.	8d\L	.	2r	.	8gg\L	.	4BB/	-e	.	4d\	-e	.	4g\	-ti-	.	4dd\	-e	.	8g/L	.	8dd\L	.	4g/	.	4dd\	.
8BB/	.	8d\	.	.	.	16aa\L	.	.	.	.	.	.	.	.	.	.	.	.	.	16g/L	.	16dd\L	.	.	.	.	.
.	.	.	.	.	.	16gg\JJ	.	.	.	.	.	.	.	.	.	.	.	.	.	16g/JJ	.	16dd\JJ	.	.	.	.	.
!	!	!	!	!	!	!	!	!	!	!	!	!	!	!	!	!	!	!	!	!LO:LB:g=original	!	!	!	!	!	!	!
8BB/	.	8d\	.	.	.	16gg\LL	.	4B\	ſe-	.	4B\	ſe-	.	4g\	-a	.	4dd\	se-	.	8g/L	.	8dd\L	.	4dd\	.	8gg\L	.
.	.	.	.	.	.	16ff\	.	.	.	.	.	.	.	.	.	.	.	.	.	.	.	.	.	.	.	.	.
8BB/J	.	8d\J	.	.	.	16ee\	.	.	.	.	.	.	.	.	.	.	.	.	.	8g/J	.	8dd\J	.	.	.	8ff\J	.
.	.	.	.	.	.	16dd\JJ	.	.	.	.	.	.	.	.	.	.	.	.	.	.	.	.	.	.	.	.	.
8C/L	.	8e\L	.	16ee\LL	.	4ee\	.	2c\	-cun-	.	2c\	-cun-	.	2g\	ter-	.	2ee\	-cun-	.	4cc\	.	4ee\	.	4cc\	.	4ee\	.
.	.	.	.	16cc\	.	.	.	.	.	.	.	.	.	.	.	.	.	.	.	.	.	.	.	.	.	.	.
8C/	.	8e\	.	16b\	.	.	.	.	.	.	.	.	.	.	.	.	.	.	.	.	.	.	.	.	.	.	.
.	.	.	.	16cc\JJ	.	.	.	.	.	.	.	.	.	.	.	.	.	.	.	.	.	.	.	.	.	.	.
8C/	.	8e\	.	16dd\LL	.	4r	.	.	.	.	.	.	.	.	.	.	.	.	.	4r	.	4r	.	4cc\	.	4ee\	.
.	.	.	.	16cc\	.	.	.	.	.	.	.	.	.	.	.	.	.	.	.	.	.	.	.	.	.	.	.
8C/J	.	8e\J	.	16b\	.	.	.	.	.	.	.	.	.	.	.	.	.	.	.	.	.	.	.	.	.	.	.
.	.	.	.	16a\JJ	.	.	.	.	.	.	.	.	.	.	.	.	.	.	.	.	.	.	.	.	.	.	.
!LO:LB:g=original	!	!	!	!	!	!	!	!	!	!	!	!	!	!	!	!	!	!	!	!	!	!LO:LB:g=original	!	!	!	!	!
=7	=7	=7	=7	=7	=7	=7	=7	=7	=7	=7	=7	=7	=7	=7	=7	=7	=7	=7	=7	=7	=7	=7	=7	=7	=7	=7	=7
8BB/L	.	8d\L	.	8g/L	.	2r	.	4B\	-dum	.	4d\	-dum	.	4g\	-ti-	.	4dd\	-dum	.	8g/L	.	8dd\L	.	4g/	.	4dd\	.
8BB/	.	8d\	.	16a/L	.	.	.	.	.	.	.	.	.	.	.	.	.	.	.	16g/L	.	16dd\L	.	.	.	.	.
.	.	.	.	16g/JJ	.	.	.	.	.	.	.	.	.	.	.	.	.	.	.	16g/JJ	.	16dd\JJ	.	.	.	.	.
*	*	*	*	*	*	*	*	*	*ij	*	*	*	*	*	*	*	*	*ij	*	*	*	*	*	*	*	*	*
8BB/	.	8d\	.	16g/LL	.	.	.	4B\	ſe-	.	4B\	se-	.	4g\	-a	.	4dd\	se-	.	8g/L	.	8dd\L	.	4dd\	.	8gg\L	.
.	.	.	.	16f/	.	.	.	.	.	.	.	.	.	.	.	.	.	.	.	.	.	.	.	.	.	.	.
8BB/J	.	8d\J	.	16e/	.	.	.	.	.	.	.	.	.	.	.	.	.	.	.	8g/J	.	8dd\J	.	.	.	8ff\J	.
.	.	.	.	16d/JJ	.	.	.	.	.	.	.	.	.	.	.	.	.	.	.	.	.	.	.	.	.	.	.
*Xtremolo	*	*	*	*2\right	*	*	*	*	*	*	*	*	*	*	*	*	*	*	*	*	*	*	*	*	*	*	*
*	*	*	*	*tremolo	*	*	*	*	*	*	*	*	*	*	*	*	*	*	*	*	*	*2\right	*	*	*	*	*
!LO:TX:t=P:problem=mixed beam	!	!	!	!	!	!	!	!	!	!	!	!	!	!	!	!	!	!	!	!	!	!	!	!	!	!	!
8C/L	.	8g\L	.	16cc\LL	.	16ee\LL	.	2c\	-cun-	.	2c\	-cun-	.	2g\	ter-	.	2ee\	-cun-	.	2c/	.	2cc\	.	2cc\	.	2ee\	.
.	.	.	.	16cc\	.	16ee\	.	.	.	.	.	.	.	.	.	.	.	.	.	.	.	.	.	.	.	.	.
8c\	.	8g\	.	16cc\	.	16ee\	.	.	.	.	.	.	.	.	.	.	.	.	.	.	.	.	.	.	.	.	.
.	.	.	.	16cc\	.	16ee\JJ	.	.	.	.	.	.	.	.	.	.	.	.	.	.	.	.	.	.	.	.	.
8c\	.	8g\	.	16cc\	.	16ee\LL	.	.	.	.	.	.	.	.	.	.	.	.	.	.	.	.	.	.	.	.	.
.	.	.	.	16cc\	.	16ee\	.	.	.	.	.	.	.	.	.	.	.	.	.	.	.	.	.	.	.	.	.
8c\J	.	8g\J	.	16cc\	.	16ee\	.	.	.	.	.	.	.	.	.	.	.	.	.	.	.	.	.	.	.	.	.
.	.	.	.	16cc\JJ	.	16ee\JJ	.	.	.	.	.	.	.	.	.	.	.	.	.	.	.	.	.	.	.	.	.
=8	=8	=8	=8	=8	=8	=8	=8	=8	=8	=8	=8	=8	=8	=8	=8	=8	=8	=8	=8	=8	=8	=8	=8	=8	=8	=8	=8
*2\right	*	*	*	*	*	*2\right	*	*	*	*	*	*	*	*	*	*	*	*	*	*	*	*	*	*	*	*	*
*tremolo	*	*	*	*	*	*tremolo	*	*	*	*	*	*	*	*	*	*	*	*	*	*	*	*	*	*	*	*	*
*	*	*	*	*	*	*	*	*	*	*	*	*	*	*custos:f	*	*	*	*	*	*	*	*	*	*	*	*	*
8A\L	.	8f\L	.	16cc\LL	.	16ff\LL	.	4A\	-dum	.	4c\	-dum	.	4f\	-ti-	.	4ff\	-dum	.	4c/	.	4cc\	.	2cc\	.	2ff\	.
.	.	.	.	16cc\	.	16ff\	.	.	.	.	.	.	.	.	.	.	.	.	.	.	.	.	.	.	.	.	.
8A\	.	8f\	.	16cc\	.	16ff\	.	.	.	.	.	.	.	.	.	.	.	.	.	.	.	.	.	.	.	.	.
.	.	.	.	16cc\	.	16ff\	.	.	.	.	.	.	.	.	.	.	.	.	.	.	.	.	.	.	.	.	.
!	!	!	!	!	!	!	!	!LO:LB:g=original	!	!	!LO:LB:g=original	!	!	!LO:LB:g=original	!	!	!	!	!	!	!	!	!	!	!	!	!
*	*	*	*	*	*	*	*	*	*	*	*	*ij	*	*	*	*	*	*	*	*	*	*	*	*	*	*	*
8A\	.	8f\	.	16cc\	.	16ff\	.	4A\	se-	.	4c\	ſe-	.	4f\	-a	.	4cc\	se-	.	8c/L	.	8cc\L	.	.	.	.	.
.	.	.	.	16cc\	.	16ff\	.	.	.	.	.	.	.	.	.	.	.	.	.	.	.	.	.	.	.	.	.
8A\J	.	8f\J	.	16cc\	.	16ff\	.	.	.	.	.	.	.	.	.	.	.	.	.	8c/J	.	8cc\J	.	.	.	.	.
.	.	.	.	16cc\JJ	.	16ff\JJ	.	.	.	.	.	.	.	.	.	.	.	.	.	.	.	.	.	.	.	.	.
*	*	*	*	*	*	*	*	*	*	*	*	*	*	*	*	*	*custos:cc	*	*	*	*	*	*	*	*	*	*
8E\L	.	8g\L	.	16cc\LL	.	16gg\LL	.	2E\	-cun-	.	2c\	-cun-	.	2g\	ter-	.	2cc\	-cun-	.	4c/	.	4cc\	.	2cc\	.	2gg\	.
.	.	.	.	16cc\	.	16gg\	.	.	.	.	.	.	.	.	.	.	.	.	.	.	.	.	.	.	.	.	.
8E\	.	8g\	.	16cc\	.	16gg\	.	.	.	.	.	.	.	.	.	.	.	.	.	.	.	.	.	.	.	.	.
.	.	.	.	16cc\	.	16gg\	.	.	.	.	.	.	.	.	.	.	.	.	.	.	.	.	.	.	.	.	.
8E\	.	8g\	.	16cc\	.	16gg\	.	.	.	.	.	.	.	.	.	.	.	.	.	4c/	.	4cc\	.	.	.	.	.
.	.	.	.	16cc\	.	16gg\	.	.	.	.	.	.	.	.	.	.	.	.	.	.	.	.	.	.	.	.	.
8E\J	.	8g\J	.	16cc\	.	16gg\	.	.	.	.	.	.	.	.	.	.	.	.	.	.	.	.	.	.	.	.	.
.	.	.	.	16cc\JJ	.	16gg\JJ	.	.	.	.	.	.	.	.	.	.	.	.	.	.	.	.	.	.	.	.	.
*Xtremolo	*	*Xtremolo	*	*Xtremolo	*	*Xtremolo	*	*	*	*	*	*	*	*	*	*	*	*	*	*	*	*	*	*	*	*	*
!	!	!	!	!	!	!	!	!	!	!	!	!	!	!	!	!	!LO:LB:g=original	!	!	!	!	!	!	!	!	!	!
=9	=9	=9	=9	=9	=9	=9	=9	=9	=9	=9	=9	=9	=9	=9	=9	=9	=9	=9	=9	=9	=9	=9	=9	=9	=9	=9	=9
8F\L	.	8f\L	.	16cc\LL	.	16aa\LL	.	4F\	-dum	.	4c\	-dum	.	4a\	-ti-	.	4cc\	-dum	.	4c/	.	4cc\	.	4cc\	.	4aa\	.
*	*	*	*	*	*	*	*	*	*Xij	*	*	*Xij	*	*	*	*	*	*Xij	*	*	*	*	*	*	*	*	*
.	.	.	.	16cc\	.	16aa\	.	.	.	.	.	.	.	.	.	.	.	.	.	.	.	.	.	.	.	.	.
8F\	.	8f\	.	16cc\	.	16aa\	.	.	.	.	.	.	.	.	.	.	.	.	.	.	.	.	.	.	.	.	.
.	.	.	.	16cc\JJ	.	16aa\JJ	.	.	.	.	.	.	.	.	.	.	.	.	.	.	.	.	.	.	.	.	.
8F#X\	.	8d\	.	16a/LL	.	16cc\LL	.	4F#X\	ſcri-	.	4d\	ſcri-	.	4a\	-a	.	4cc\	scri-	.	4r	.	4r	.	4cc\	.	4aa\	.
*	*	*	*	*	*	*	*	*	*	*	*	*	*	*	*Xij	*	*	*	*	*	*	*	*	*	*	*	*
.	.	.	.	16a/	.	16cc\	.	.	.	.	.	.	.	.	.	.	.	.	.	.	.	.	.	.	.	.	.
8F#\J	.	8d\J	.	16a/	.	16cc\	.	.	.	.	.	.	.	.	.	.	.	.	.	.	.	.	.	.	.	.	.
.	.	.	.	16a/JJ	.	16cc\JJ	.	.	.	.	.	.	.	.	.	.	.	.	.	.	.	.	.	.	.	.	.
!	!	!LO:LB:g=original	!	!	!	!	!	!	!	!	!	!	!	!	!	!	!	!	!	!	!	!	!	!	!	!	!
!	!	!LO:TX:t=P:problem=mixed beam	!	!	!	!	!	!	!	!	!	!	!	!	!	!	!	!	!	!	!	!	!	!	!	!	!
8G\L	.	8g\L	.	16b\LL	.	16b\LL	.	2G\	-ptu-	.	2d\	-ptu-	.	2g\	Di-	.	2b\	-ptu-	.	8g/L	.	8g/L	.	2b\	.	2gg\	.
.	.	.	.	16gg\	.	16gg\	.	.	.	.	.	.	.	.	.	.	.	.	.	.	.	.	.	.	.	.	.
8G\	.	8G/	.	16ff#X\	.	16ff#X\	.	.	.	.	.	.	.	.	.	.	.	.	.	16g/L	.	16g/L	.	.	.	.	.
.	.	.	.	16gg\JJ	.	16gg\JJ	.	.	.	.	.	.	.	.	.	.	.	.	.	16g/JJ	.	16g/JJ	.	.	.	.	.
8D\	.	8B/	.	16aa\LL	.	16aa\LL	.	.	.	.	.	.	.	.	.	.	.	.	.	8g/L	.	8g/L	.	.	.	.	.
.	.	.	.	16gg\	.	16gg\	.	.	.	.	.	.	.	.	.	.	.	.	.	.	.	.	.	.	.	.	.
8BB\J	.	8d/J	.	16ff#\	.	16ff#\	.	.	.	.	.	.	.	.	.	.	.	.	.	8g/J	.	8g/J	.	.	.	.	.
.	.	.	.	16gg\JJ	.	16gg\JJ	.	.	.	.	.	.	.	.	.	.	.	.	.	.	.	.	.	.	.	.	.
!	!	!	!	!	!	!	!	!	!	!	!	!	!	!	!	!	!	!	!	!	!	!	!	!	!	!LO:LB:g=original	!
=10	=10	=10	=10	=10	=10	=10	=10	=10	=10	=10	=10	=10	=10	=10	=10	=10	=10	=10	=10	=10	=10	=10	=10	=10	=10	=10	=10
8GG/L	.	8g\L	.	4g/	.	4g/	.	4G\	-ras	.	4d\	-ras	.	4g\	-e	.	4b\	-ras	.	4g/	.	4g/	.	4b\	.	4g/	.
8GG/	.	8g\	.	.	.	.	.	.	.	.	.	.	.	.	.	.	.	.	.	.	.	.	.	.	.	.	.
8BB/	.	8d\	.	4r	.	4r	.	4r	.	.	4r	.	.	4r	.	.	4r	.	.	8g/L	.	8g/L	.	4r	.	4r	.
8D/J	.	8B\J	.	.	.	.	.	.	.	.	.	.	.	.	.	.	.	.	.	8g/J	.	8g/J	.	.	.	.	.
*tremolo	*	*	*	*tremolo	*	*	*	*	*	*	*	*	*	*	*	*	*	*	*	*	*	*	*	*	*	*	*
!	!	!LO:TX:t=P:problem=mixed beam	!	!	!	!	!	!	!	!	!	!	!	!	!	!	!	!	!	!	!	!	!	!	!	!	!
8G\L	.	8G/L	.	16b\LL	.	16b\LL	.	2G\	et	.	2d\	et	.	2g\	et	.	2b\	et	.	8g/L	.	8g/L	.	2g/	.	2b\	.
.	.	.	.	16b\	.	16gg\	.	.	.	.	.	.	.	.	.	.	.	.	.	.	.	.	.	.	.	.	.
8G\	.	8g\	.	16b\	.	16ff#X\	.	.	.	.	.	.	.	.	.	.	.	.	.	16g/L	.	16g/L	.	.	.	.	.
.	.	.	.	16b\	.	16gg\JJ	.	.	.	.	.	.	.	.	.	.	.	.	.	16g/JJ	.	16g/JJ	.	.	.	.	.
8G\	.	8g\	.	16b\	.	16aa\LL	.	.	.	.	.	.	.	.	.	.	.	.	.	8g/L	.	8g/L	.	.	.	.	.
.	.	.	.	16b\	.	16gg\	.	.	.	.	.	.	.	.	.	.	.	.	.	.	.	.	.	.	.	.	.
8G\J	.	8g\J	.	16b\	.	16ff#X\	.	.	.	.	.	.	.	.	.	.	.	.	.	8g/J	.	8g/J	.	.	.	.	.
.	.	.	.	16b\JJ	.	16gg\JJ	.	.	.	.	.	.	.	.	.	.	.	.	.	.	.	.	.	.	.	.	.
=11	=11	=11	=11	=11	=11	=11	=11	=11	=11	=11	=11	=11	=11	=11	=11	=11	=11	=11	=11	=11	=11	=11	=11	=11	=11	=11	=11
*	*	*tremolo	*	*	*	*	*	*	*	*	*	*	*	*	*	*	*	*	*	*	*	*	*	*	*	*	*
8E\L	.	8g\L	.	16cc\LL	.	16cc\LL	.	2E\	aſ-	.	2c\	aſ-	.	2g\	aſ-	.	2cc\	as-	.	4g/	.	8cc\L	.	2g/	.	2cc\	.
.	.	.	.	16cc\	.	16gg\	.	.	.	.	.	.	.	.	.	.	.	.	.	.	.	.	.	.	.	.	.
8E\	.	8g\	.	16cc\	.	16ff#X\	.	.	.	.	.	.	.	.	.	.	.	.	.	.	.	16cc\L	.	.	.	.	.
.	.	.	.	16cc\	.	16gg\JJ	.	.	.	.	.	.	.	.	.	.	.	.	.	.	.	16cc\JJ	.	.	.	.	.
8E\	.	8g\	.	16cc\	.	16aa\LL	.	.	.	.	.	.	.	.	.	.	.	.	.	8g/L	.	8cc\L	.	.	.	.	.
.	.	.	.	16cc\	.	16gg\	.	.	.	.	.	.	.	.	.	.	.	.	.	.	.	.	.	.	.	.	.
8E\J	.	8g\J	.	16cc\	.	16ff#\	.	.	.	.	.	.	.	.	.	.	.	.	.	8g/J	.	8cc\J	.	.	.	.	.
*	*	*	*	*	*	*custos:dd	*	*	*	*	*	*	*	*	*	*	*	*	*	*	*	*	*	*	*	*	*
.	.	.	.	16cc\JJ	.	16gg\JJ	.	.	.	.	.	.	.	.	.	.	.	.	.	.	.	.	.	.	.	.	.
!	!	!	!	!	!	!LO:LB:g=original	!	!	!	!	!	!LO:MO:mod=-cen-	!	!	!	!	!	!	!	!	!	!	!	!	!	!	!
8BB/L	.	8g\L	.	16dd\LL	.	16dd\LL	.	2BB/	-cen-	.	2B\	-cend-	.	2g\	-cen-	.	2dd\	-cen-	.	8g/L	.	4dd\	.	2g/	.	2dd\	.
.	.	.	.	16dd\	.	16gg\	.	.	.	.	.	.	.	.	.	.	.	.	.	.	.	.	.	.	.	.	.
8BB/	.	8g\	.	16dd\	.	16ff#X\	.	.	.	.	.	.	.	.	.	.	.	.	.	16g/L	.	.	.	.	.	.	.
.	.	.	.	16dd\	.	16gg\JJ	.	.	.	.	.	.	.	.	.	.	.	.	.	16g/JJ	.	.	.	.	.	.	.
8BB/	.	8g\	.	16dd\	.	16aa\LL	.	.	.	.	.	.	.	.	.	.	.	.	.	8g/L	.	8dd\L	.	.	.	.	.
.	.	.	.	16dd\	.	16gg\	.	.	.	.	.	.	.	.	.	.	.	.	.	.	.	.	.	.	.	.	.
8BB/J	.	8g\J	.	16dd\	.	16ff#X\	.	.	.	.	.	.	.	.	.	.	.	.	.	8g/J	.	8dd\J	.	.	.	.	.
.	.	.	.	16dd\JJ	.	16gg\JJ	.	.	.	.	.	.	.	.	.	.	.	.	.	.	.	.	.	.	.	.	.
=12	=12	=12	=12	=12	=12	=12	=12	=12	=12	=12	=12	=12	=12	=12	=12	=12	=12	=12	=12	=12	=12	=12	=12	=12	=12	=12	=12
*	*	*	*	*^	*	*^	*	*	*	*	*	*	*	*	*	*	*	*	*	*	*	*	*	*	*	*	*
!	!	!	!	!	!	!	!	!	!	!	!	!	!	!LO:MO:mod=-dit	!	!	!	!	!	!	!	!	!	!	!	!	!	!	!
8C/L	.	8g\L	.	16ee\LL	2ryy	.	16ee\LL	2ryy	.	4C/	-dit	.	4c\	-it	.	4g\	-dit	.	4ee\	-dit	.	4cc\	.	4ee\	.	2g/	.	2ee\	.
.	.	.	.	16ee\	.	.	16gg\	.	.	.	.	.	.	.	.	.	.	.	.	.	.	.	.	.	.	.	.	.	.
8C/	.	8g\	.	16ee\	.	.	16ff#X\	.	.	.	.	.	.	.	.	.	.	.	.	.	.	.	.	.	.	.	.	.	.
.	.	.	.	16ee\	.	.	16gg\JJ	.	.	.	.	.	.	.	.	.	.	.	.	.	.	.	.	.	.	.	.	.	.
8C/	.	8g\	.	16ee\	.	.	16aa\LL	.	.	4C/	in	.	4c\	in	.	4g\	in	.	4ee\	in	.	4r	.	4r	.	.	.	.	.
.	.	.	.	16ee\	.	.	16gg\	.	.	.	.	.	.	.	.	.	.	.	.	.	.	.	.	.	.	.	.	.	.
8C/J	.	8g\J	.	16ee\	.	.	16ff#\	.	.	.	.	.	.	.	.	.	.	.	.	.	.	.	.	.	.	.	.	.	.
.	.	.	.	16ee\JJ	.	.	16gg\JJ	.	.	.	.	.	.	.	.	.	.	.	.	.	.	.	.	.	.	.	.	.	.
!	!	!	!	!	!	!	!	!	!	!	!	!	!	!	!	!	!	!	!	!	!	!	!	!	!	!LO:LB:g=original	!	!	!
*	*	*	*	*	*	*	*	*tremolo	*	*	*	*	*	*	*	*	*	*	*	*	*	*	*	*	*	*	*	*	*
8C#X/L	.	8e\L	.	16ee/LL	16a\LL	.	16gg/LL	16a\LL	.	2C#X/	coe-	.	2c#X\	coe-	.	2a\	coe-	.	2ee\	coe-	.	2r	.	2r	.	2a/	.	2gg\	.
.	.	.	.	16ee/	16a\	.	16gg/	16a\	.	.	.	.	.	.	.	.	.	.	.	.	.	.	.	.	.	.	.	.	.
8C#X/	.	8e\	.	16ee/	16a\	.	16gg/	16a\	.	.	.	.	.	.	.	.	.	.	.	.	.	.	.	.	.	.	.	.	.
.	.	.	.	16ee/	16a\	.	16gg/JJ	16a\	.	.	.	.	.	.	.	.	.	.	.	.	.	.	.	.	.	.	.	.	.
8C#X/	.	8e\	.	16ee/	16a\	.	16gg/LL	16a\	.	.	.	.	.	.	.	.	.	.	.	.	.	.	.	.	.	.	.	.	.
.	.	.	.	16ee/	16a\	.	16gg/	16a\	.	.	.	.	.	.	.	.	.	.	.	.	.	.	.	.	.	.	.	.	.
8C#X/J	.	8e\J	.	16ee/	16a\	.	16gg/	16a\	.	.	.	.	.	.	.	.	.	.	.	.	.	.	.	.	.	.	.	.	.
.	.	.	.	16ee/JJ	16a\JJ	.	16gg/JJ	16a\JJ	.	.	.	.	.	.	.	.	.	.	.	.	.	.	.	.	.	.	.	.	.
*	*	*	*	*Xtremolo	*Xtremolo	*	*	*Xtremolo	*	*	*	*	*	*	*	*	*	*	*	*	*	*	*	*	*	*	*	*	*
*	*	*	*	*v	*v	*	*	*	*	*	*	*	*	*	*	*	*	*	*	*	*	*	*	*	*	*	*	*	*
*	*	*	*	*	*	*v	*v	*	*	*	*	*	*	*	*	*	*	*	*	*	*	*	*	*	*	*	*	*
!	!	!	!	!LO:LB:g=original	!	!	!	!	!	!	!	!	!	!	!	!	!	!	!	!	!	!	!	!	!	!	!
=13	=13	=13	=13	=13	=13	=13	=13	=13	=13	=13	=13	=13	=13	=13	=13	=13	=13	=13	=13	=13	=13	=13	=13	=13	=13	=13	=13
8D\L	.	8d\L	.	4d/ 4a 4ff#X	.	4d/ 4a 4ff#X	.	4D\	-lum	.	4d\	-lum	.	4a\	-lum	.	4ff#X\	-lum	.	4dd\	.	4dd\	.	4a/	.	4ff#X\	.
8D\	.	8d\	.	.	.	.	.	.	.	.	.	.	.	.	.	.	.	.	.	.	.	.	.	.	.	.	.
8D\	.	8d\	.	16ff#\LL	.	16ff#\LL	.	4D\	ſe-	.	4d\	ſe-	.	4a\	se-	.	4dd\	se-	.	8dd\L	.	8dd\L	.	4cc/	.	4aa\	.
.	.	.	.	16gg\	.	16gg\	.	.	.	.	.	.	.	.	.	.	.	.	.	.	.	.	.	.	.	.	.
8D\J	.	8d\J	.	16ff#\	.	16ff#\	.	.	.	.	.	.	.	.	.	.	.	.	.	8dd\J	.	8dd\J	.	.	.	.	.
.	.	.	.	16gg\JJ	.	16gg\JJ	.	.	.	.	.	.	.	.	.	.	.	.	.	.	.	.	.	.	.	.	.
8F#X\L	.	8d\L	.	16aa\LL	.	16aa\LL	.	4F#X\	-det	.	4d\	-det	.	4a\	-det	.	4cc\	-det	.	4dd\	.	4dd\	.	4cc/	.	4ff#\	.
.	.	.	.	16gg\	.	16gg\	.	.	.	.	.	.	.	.	.	.	.	.	.	.	.	.	.	.	.	.	.
8F#X\	.	8d\	.	16ff#\	.	16ff#\	.	.	.	.	.	.	.	.	.	.	.	.	.	.	.	.	.	.	.	.	.
.	.	.	.	16ee\JJ	.	16ee\JJ	.	.	.	.	.	.	.	.	.	.	.	.	.	.	.	.	.	.	.	.	.
8F#X\	.	8d\	.	16dd\LL	.	16dd\LL	.	4F#\	ad	.	4d\	ad	.	4a\	a	.	4cc\	ad	.	4r	.	4dd\	.	4a/	.	4cc\	.
.	.	.	.	16cc\	.	16cc\	.	.	.	.	.	.	.	.	.	.	.	.	.	.	.	.	.	.	.	.	.
8F#X\J	.	8d\J	.	16b\	.	16b\	.	.	.	.	.	.	.	.	.	.	.	.	.	.	.	.	.	.	.	.	.
.	.	.	.	16a\JJ	.	16a\JJ	.	.	.	.	.	.	.	.	.	.	.	.	.	.	.	.	.	.	.	.	.
*Xtremolo	*	*Xtremolo	*	*	*	*	*	*	*	*	*	*	*	*	*	*	*	*	*	*	*	*	*	*	*	*	*
=14	=14	=14	=14	=14	=14	=14	=14	=14	=14	=14	=14	=14	=14	=14	=14	=14	=14	=14	=14	=14	=14	=14	=14	=14	=14	=14	=14
*	*	*	*	*tremolo	*	*	*	*	*	*	*	*	*	*	*	*	*	*	*	*	*	*	*	*	*	*	*
8G\L	.	8d\L	.	16b\LL	.	16b\LL	.	4G\	dex-	.	4d\	dex-	.	4g\	dex-	.	4b\	dex-	.	4g/	.	4dd\	.	4g/	.	4b/	.
.	.	.	.	16b\	.	16gg\	.	.	.	.	.	.	.	.	.	.	.	.	.	.	.	.	.	.	.	.	.
8G\	.	8d\	.	16b\	.	16gg\	.	.	.	.	.	.	.	.	.	.	.	.	.	.	.	.	.	.	.	.	.
.	.	.	.	16b\	.	16gg\JJ	.	.	.	.	.	.	.	.	.	.	.	.	.	.	.	.	.	.	.	.	.
8E\	.	8e\	.	16b\	.	16gg\LL	.	8E\	-te-	.	8e\	-te-	.	8g\	-te-	.	8b\	-te-	.	4r	.	4r	.	4b/	.	4gg\	.
.	.	.	.	16b\	.	16gg\	.	.	.	.	.	.	.	.	.	.	.	.	.	.	.	.	.	.	.	.	.
8E\J	.	8e\J	.	16b\	.	16gg\	.	8E\	-ram	.	8e\	-ram	.	8g\	-ram	.	8b\	-ram	.	.	.	.	.	.	.	.	.
.	.	.	.	16b\JJ	.	16gg\JJ	.	.	.	.	.	.	.	.	.	.	.	.	.	.	.	.	.	.	.	.	.
!LO:LB:g=original	!	!	!	!	!	!	!	!	!	!	!	!	!	!	!LO:MO:mod=Pa-	!	!	!LO:MO:mod=Pa-	!	!	!	!	!	!	!	!	!
8C/L	.	8c\L	.	16a/LL	.	16gg\LL	.	4C/	Pa-	.	(4e\	Pa-	.	(4g\	pa-	.	2a\	pa-	.	4r	.	4r	.	2a/	.	4gg\	.
.	.	.	.	16a/	.	16gg\	.	.	.	.	.	.	.	.	.	.	.	.	.	.	.	.	.	.	.	.	.
8C/	.	8c\	.	16a/	.	16gg\	.	.	.	.	.	.	.	.	.	.	.	.	.	.	.	.	.	.	.	.	.
.	.	.	.	16a/	.	16gg\JJ	.	.	.	.	.	.	.	.	.	.	.	.	.	.	.	.	.	.	.	.	.
8D/	.	8d\	.	16a/	.	16ff#X\LL	.	4D/	.	.	4d\)	.	.	4f#X\)	.	.	.	.	.	4dd\	.	4dd\	.	.	.	4ff#X\	.
.	.	.	.	16a/	.	16ff#\	.	.	.	.	.	.	.	.	.	.	.	.	.	.	.	.	.	.	.	.	.
8D/J	.	8d\J	.	16a/	.	16ff#\	.	.	.	.	.	.	.	.	.	.	.	.	.	.	.	.	.	.	.	.	.
.	.	.	.	16a/JJ	.	16ff#\JJ	.	.	.	.	.	.	.	.	.	.	.	.	.	.	.	.	.	.	.	.	.
*	*	*	*	*Xtremolo	*	*	*	*	*	*	*	*	*	*	*	*	*	*	*	*	*	*	*	*	*	*	*
=15	=15	=15	=15	=15	=15	=15	=15	=15	=15	=15	=15	=15	=15	=15	=15	=15	=15	=15	=15	=15	=15	=15	=15	=15	=15	=15	=15
4GG/	.	4G/	.	4b\	.	4gg\	.	4G\	-triſ.	.	4d\	-tris	.	4g\	-tris	.	4b\	-tris	.	4g/	.	4dd\	.	4b/	.	4gg\	.
!	!	!	!	!	!	!	!	!	!	!	!	!	!	!	!	!	!	!	!	!LO:LB:g=original	!	!	!	!	!	!	!
4r	.	4r	.	4r	.	4r	.	4r	.	.	4r	.	.	4r	.	.	4r	.	.	4r	.	4r	.	4r	.	4r	.
4r	.	2r	.	2r	.	2r	.	2r	.	.	2r	.	.	2r	.	.	2r	.	.	2r	.	2r	.	2r	.	2r	.
!	!LO:DY:a:t=p&colon;	!	!	!	!	!	!	!	!	!	!	!	!	!	!	!	!	!	!	!	!	!	!	!	!	!	!
4B\	p	.	.	.	.	.	.	.	.	.	.	.	.	.	.	.	.	.	.	.	.	.	.	.	.	.	.
!	!	!	!	!	!	!	!	!	!	!	!	!	!	!	!	!	!	!	!	!	!	!LO:LB:g=original	!	!	!	!	!
=16	=16	=16	=16	=16	=16	=16	=16	=16	=16	=16	=16	=16	=16	=16	=16	=16	=16	=16	=16	=16	=16	=16	=16	=16	=16	=16	=16
!	!	!LO:TX:a:t=11:mod=	!	!LO:TX:a:t=11:mod=	!	!LO:TX:a:t=11.:mod=	!	!LO:TX:a:t=7.:mod=	!	!	!LO:TX:a:t=11:mod=	!	!	!LO:TX:a:t=11.:mod=	!	!	!	!	!LO:DY:a:t=p&colon;	!LO:TX:a:t=53:mod=	!	!LO:TX:a:t=53.:mod=	!	!LO:TX:a:t=16:mod=	!	!	!
!	!	!	!	!	!	!	!	!	!	!	!	!	!	!	!	!	!	!	!LO:MO:null:mod=.	!	!	!	!	!	!	!	!
4c\	.	00r	.	00r	.	00r	.	00r	.	.	00r	.	.	00r	.	.	00r	.	p	00r	.	00r	.	00r	.	00r	.
4B\	.	.	.	.	.	.	.	.	.	.	.	.	.	.	.	.	.	.	.	.	.	.	.	.	.	.	.
4A\	.	.	.	.	.	.	.	.	.	.	.	.	.	.	.	.	.	.	.	.	.	.	.	.	.	.	.
4G\	.	.	.	.	.	.	.	.	.	.	.	.	.	.	.	.	.	.	.	.	.	.	.	.	.	.	.
=17	=17	=17	=17	=17	=17	=17	=17	=17	=17	=17	=17	=17	=17	=17	=17	=17	=17	=17	=17	=17	=17	=17	=17	=17	=17	=17	=17
4C/	.	.	.	.	.	.	.	.	.	.	.	.	.	.	.	.	.	.	.	.	.	.	.	.	.	.	.
4C#X/	.	.	.	.	.	.	.	.	.	.	.	.	.	.	.	.	.	.	.	.	.	.	.	.	.	.	.
4D\	.	.	.	.	.	.	.	.	.	.	.	.	.	.	.	.	.	.	.	.	.	.	.	.	.	.	.
4r	.	.	.	.	.	.	.	.	.	.	.	.	.	.	.	.	.	.	.	.	.	.	.	.	.	.	.
=18	=18	=18	=18	=18	=18	=18	=18	=18	=18	=18	=18	=18	=18	=18	=18	=18	=18	=18	=18	=18	=18	=18	=18	=18	=18	=18	=18
4D\	.	.	.	.	.	.	.	.	.	.	.	.	.	.	.	.	.	.	.	.	.	.	.	.	.	.	.
4r	.	.	.	.	.	.	.	.	.	.	.	.	.	.	.	.	.	.	.	.	.	.	.	.	.	.	.
4D\	.	.	.	.	.	.	.	.	.	.	.	.	.	.	.	.	.	.	.	.	.	.	.	.	.	.	.
4F#X\	.	.	.	.	.	.	.	.	.	.	.	.	.	.	.	.	.	.	.	.	.	.	.	.	.	.	.
=19	=19	=19	=19	=19	=19	=19	=19	=19	=19	=19	=19	=19	=19	=19	=19	=19	=19	=19	=19	=19	=19	=19	=19	=19	=19	=19	=19
4G\	.	.	.	.	.	.	.	.	.	.	.	.	.	.	.	.	.	.	.	.	.	.	.	.	.	.	.
4r	.	.	.	.	.	.	.	.	.	.	.	.	.	.	.	.	.	.	.	.	.	.	.	.	.	.	.
4r	.	.	.	.	.	.	.	.	.	.	.	.	.	.	.	.	.	.	.	.	.	.	.	.	.	.	.
4G\	.	.	.	.	.	.	.	.	.	.	.	.	.	.	.	.	.	.	.	.	.	.	.	.	.	.	.
=20	=20	=20	=20	=20	=20	=20	=20	=20	=20	=20	=20	=20	=20	=20	=20	=20	=20	=20	=20	=20	=20	=20	=20	=20	=20	=20	=20
4A\	.	00r	.	00r	.	00r	.	0r	.	.	00r	.	.	00r	.	.	00r	.	.	00r	.	00r	.	00r	.	00r	.
4r	.	.	.	.	.	.	.	.	.	.	.	.	.	.	.	.	.	.	.	.	.	.	.	.	.	.	.
4D\	.	.	.	.	.	.	.	.	.	.	.	.	.	.	.	.	.	.	.	.	.	.	.	.	.	.	.
4r	.	.	.	.	.	.	.	.	.	.	.	.	.	.	.	.	.	.	.	.	.	.	.	.	.	.	.
=21	=21	=21	=21	=21	=21	=21	=21	=21	=21	=21	=21	=21	=21	=21	=21	=21	=21	=21	=21	=21	=21	=21	=21	=21	=21	=21	=21
4D\	.	.	.	.	.	.	.	.	.	.	.	.	.	.	.	.	.	.	.	.	.	.	.	.	.	.	.
4r	.	.	.	.	.	.	.	.	.	.	.	.	.	.	.	.	.	.	.	.	.	.	.	.	.	.	.
4D\	.	.	.	.	.	.	.	.	.	.	.	.	.	.	.	.	.	.	.	.	.	.	.	.	.	.	.
4F#X\	.	.	.	.	.	.	.	.	.	.	.	.	.	.	.	.	.	.	.	.	.	.	.	.	.	.	.
=22	=22	=22	=22	=22	=22	=22	=22	=22	=22	=22	=22	=22	=22	=22	=22	=22	=22	=22	=22	=22	=22	=22	=22	=22	=22	=22	=22
4G\	.	.	.	.	.	.	.	1r	.	.	.	.	.	.	.	.	.	.	.	.	.	.	.	.	.	.	.
4C/	.	.	.	.	.	.	.	.	.	.	.	.	.	.	.	.	.	.	.	.	.	.	.	.	.	.	.
4D/	.	.	.	.	.	.	.	.	.	.	.	.	.	.	.	.	.	.	.	.	.	.	.	.	.	.	.
4DD/	.	.	.	.	.	.	.	.	.	.	.	.	.	.	.	.	.	.	.	.	.	.	.	.	.	.	.
!LO:LB:g=original	!	!	!	!	!	!	!	!LO:LB:g=original	!	!	!	!	!	!	!	!	!	!	!	!	!	!	!	!	!	!	!
=23	=23	=23	=23	=23	=23	=23	=23	=23	=23	=23	=23	=23	=23	=23	=23	=23	=23	=23	=23	=23	=23	=23	=23	=23	=23	=23	=23
!	!	!	!	!	!	!	!	!LO:TX:a:i:t=Solo.:mod=Solo	!	!	!	!	!	!	!	!	!	!	!	!	!	!	!	!	!	!	!
4GG/	.	.	.	.	.	.	.	4r	.	.	.	.	.	.	.	.	.	.	.	.	.	.	.	.	.	.	.
4r	.	.	.	.	.	.	.	4G\	Et	.	.	.	.	.	.	.	.	.	.	.	.	.	.	.	.	.	.
4r	.	.	.	.	.	.	.	4D\	i-	.	.	.	.	.	.	.	.	.	.	.	.	.	.	.	.	.	.
4G\	.	.	.	.	.	.	.	4B\	-te-	.	.	.	.	.	.	.	.	.	.	.	.	.	.	.	.	.	.
=24	=24	=24	=24	=24	=24	=24	=24	=24	=24	=24	=24	=24	=24	=24	=24	=24	=24	=24	=24	=24	=24	=24	=24	=24	=24	=24	=24
2F#X\	.	0r	.	0r	.	0r	.	4A\	-rum	.	0r	.	.	0r	.	.	0r	.	.	00r	.	00r	.	00r	.	00r	.
.	.	.	.	.	.	.	.	4D\	ven-	.	.	.	.	.	.	.	.	.	.	.	.	.	.	.	.	.	.
2D\	.	.	.	.	.	.	.	4A\	-tu-	.	.	.	.	.	.	.	.	.	.	.	.	.	.	.	.	.	.
.	.	.	.	.	.	.	.	4c\	-ruſ	.	.	.	.	.	.	.	.	.	.	.	.	.	.	.	.	.	.
=25	=25	=25	=25	=25	=25	=25	=25	=25	=25	=25	=25	=25	=25	=25	=25	=25	=25	=25	=25	=25	=25	=25	=25	=25	=25	=25	=25
2G\	.	.	.	.	.	.	.	4B\	eſt	.	.	.	.	.	.	.	.	.	.	.	.	.	.	.	.	.	.
.	.	.	.	.	.	.	.	8d\L	cum	.	.	.	.	.	.	.	.	.	.	.	.	.	.	.	.	.	.
.	.	.	.	.	.	.	.	8c\J	.	.	.	.	.	.	.	.	.	.	.	.	.	.	.	.	.	.	.
2B\	.	.	.	.	.	.	.	8B\L	glo-	.	.	.	.	.	.	.	.	.	.	.	.	.	.	.	.	.	.
.	.	.	.	.	.	.	.	8A\J	.	.	.	.	.	.	.	.	.	.	.	.	.	.	.	.	.	.	.
.	.	.	.	.	.	.	.	8G\L	-ri-	.	.	.	.	.	.	.	.	.	.	.	.	.	.	.	.	.	.
.	.	.	.	.	.	.	.	8F\J	.	.	.	.	.	.	.	.	.	.	.	.	.	.	.	.	.	.	.
=26	=26	=26	=26	=26	=26	=26	=26	=26	=26	=26	=26	=26	=26	=26	=26	=26	=26	=26	=26	=26	=26	=26	=26	=26	=26	=26	=26
!LO:TX:t=P:problem=mixed beam	!	!	!	!	!	!	!	!	!	!	!	!	!	!	!	!	!	!	!	!	!	!	!	!	!	!	!
8c\L	.	1r	.	1r	.	1r	.	4E\	-a	.	1r	.	.	1r	.	.	1r	.	.	.	.	.	.	.	.	.	.
8C/	.	.	.	.	.	.	.	.	.	.	.	.	.	.	.	.	.	.	.	.	.	.	.	.	.	.	.
8D/	.	.	.	.	.	.	.	4r	.	.	.	.	.	.	.	.	.	.	.	.	.	.	.	.	.	.	.
8E/J	.	.	.	.	.	.	.	.	.	.	.	.	.	.	.	.	.	.	.	.	.	.	.	.	.	.	.
8F\L	.	.	.	.	.	.	.	2r	.	.	.	.	.	.	.	.	.	.	.	.	.	.	.	.	.	.	.
8G\	.	.	.	.	.	.	.	.	.	.	.	.	.	.	.	.	.	.	.	.	.	.	.	.	.	.	.
8A\	.	.	.	.	.	.	.	.	.	.	.	.	.	.	.	.	.	.	.	.	.	.	.	.	.	.	.
8B\J	.	.	.	.	.	.	.	.	.	.	.	.	.	.	.	.	.	.	.	.	.	.	.	.	.	.	.
!	!	!	!	!	!	!LO:LB:g=original	!	!	!	!	!LO:LB:g=original	!	!	!LO:LB:g=original	!	!	!	!	!	!	!	!	!	!	!	!	!
=27	=27	=27	=27	=27	=27	=27	=27	=27	=27	=27	=27	=27	=27	=27	=27	=27	=27	=27	=27	=27	=27	=27	=27	=27	=27	=27	=27
!	!	!	!LO:DY:a:t=p&colon;	!	!LO:DY:a:t=p&colon;	!	!LO:DY:a:t=pia&colon;	!	!	!LO:DY:a:t=p&colon;:rj	!	!	!LO:DY:a:t=p&colon;:rj	!	!	!LO:DY:a:t=p.	!	!	!LO:DY:a:t=p&colon;	!	!	!	!	!	!	!	!
!	!	!	!	!	!LO:MO:null:mod=.	!	!LO:MO:null:mod=.	!	!	!	!	!	!	!	!	!	!	!	!	!	!	!	!	!	!	!	!
4c\	.	4c/	p	8r	p	8r	p	2c\	Ju-	p	2c\	Ju-	p	2g\	Ju-	p	2ee\	Ju-	p	.	.	.	.	.	.	.	.
!	!	!	!	!	!LO:MO:null:mod=p	!	!LO:MO:null:mod=p	!	!	!	!	!	!	!	!	!	!	!	!	!	!	!	!	!	!	!	!
.	.	.	.	8g/L	.	8ee\L	.	.	.	.	.	.	.	.	.	.	.	.	.	.	.	.	.	.	.	.	.
4r	.	4r	.	8g/	.	8ee\	.	.	.	.	.	.	.	.	.	.	.	.	.	.	.	.	.	.	.	.	.
.	.	.	.	8g/J	.	8ee\J	.	.	.	.	.	.	.	.	.	.	.	.	.	.	.	.	.	.	.	.	.
4B-X\	.	4B-X/	.	8r	.	8r	.	2B-X\	-di-	.	2d\	-di-	.	2g\	-di-	.	2dd\	-di-	.	.	.	.	.	.	.	.	.
.	.	.	.	8g/L	.	8dd\L	.	.	.	.	.	.	.	.	.	.	.	.	.	.	.	.	.	.	.	.	.
4r	.	4r	.	8g/	.	8dd\	.	.	.	.	.	.	.	.	.	.	.	.	.	.	.	.	.	.	.	.	.
.	.	.	.	8g/J	.	8dd\J	.	.	.	.	.	.	.	.	.	.	.	.	.	.	.	.	.	.	.	.	.
!	!	!	!	!	!	!	!	!	!	!	!	!	!	!	!	!	!LO:LB:g=original	!	!	!	!	!	!	!	!	!	!
=28	=28	=28	=28	=28	=28	=28	=28	=28	=28	=28	=28	=28	=28	=28	=28	=28	=28	=28	=28	=28	=28	=28	=28	=28	=28	=28	=28
4A\	.	4A/	.	8r	.	8r	.	2A\	-ca-	.	2e\	-ca-	.	2g\	-ca-	.	2cc#X\	-ca-	.	00r	.	00r	.	00r	.	0r	.
.	.	.	.	8g/L	.	8cc#X\L	.	.	.	.	.	.	.	.	.	.	.	.	.	.	.	.	.	.	.	.	.
!	!	!LO:LB:g=original	!	!	!	!	!	!	!	!	!	!	!	!	!	!	!	!	!	!	!	!	!	!	!	!	!
4r	.	4r	.	8g/	.	8cc#\	.	.	.	.	.	.	.	.	.	.	.	.	.	.	.	.	.	.	.	.	.
.	.	.	.	8g/J	.	8cc#\J	.	.	.	.	.	.	.	.	.	.	.	.	.	.	.	.	.	.	.	.	.
4c#X\	.	4g\	.	8r	.	8r	.	2c#X\	-re	.	2G/	-re	.	2a\	-re	.	2ee\	-re	.	.	.	.	.	.	.	.	.
.	.	.	.	8a/L	.	8ee\L	.	.	.	.	.	.	.	.	.	.	.	.	.	.	.	.	.	.	.	.	.
4r	.	4r	.	8a/	.	8ee\	.	.	.	.	.	.	.	.	.	.	.	.	.	.	.	.	.	.	.	.	.
.	.	.	.	8a/J	.	8ee\J	.	.	.	.	.	.	.	.	.	.	.	.	.	.	.	.	.	.	.	.	.
=29	=29	=29	=29	=29	=29	=29	=29	=29	=29	=29	=29	=29	=29	=29	=29	=29	=29	=29	=29	=29	=29	=29	=29	=29	=29	=29	=29
4d\	.	4f\	.	8r	.	8r	.	2d\	vi-	.	2d\	vi-	.	2a\	vi-	.	2ff\	vi-	.	.	.	.	.	.	.	.	.
.	.	.	.	8a/L	.	8ff\L	.	.	.	.	.	.	.	.	.	.	.	.	.	.	.	.	.	.	.	.	.
4r	.	4r	.	8a/	.	8ff\	.	.	.	.	.	.	.	.	.	.	.	.	.	.	.	.	.	.	.	.	.
.	.	.	.	8a/J	.	8ff\J	.	.	.	.	.	.	.	.	.	.	.	.	.	.	.	.	.	.	.	.	.
4cn\	.	4c\	.	8r	.	8r	.	4cn\	-voſ	.	4e\	-voſ	.	4a\	-vos	.	4ee\	-vos	.	.	.	.	.	.	.	.	.
.	.	.	.	8a/L	.	8ee\L	.	.	.	.	.	.	.	.	.	.	.	.	.	.	.	.	.	.	.	.	.
4r	.	4r	.	8a/	.	8ee\	.	4c\	et	.	4e\	et	.	4a\	et	.	4ee\	et	.	.	.	.	.	.	.	.	.
.	.	.	.	8a/J	.	8ee\J	.	.	.	.	.	.	.	.	.	.	.	.	.	.	.	.	.	.	.	.	.
=30	=30	=30	=30	=30	=30	=30	=30	=30	=30	=30	=30	=30	=30	=30	=30	=30	=30	=30	=30	=30	=30	=30	=30	=30	=30	=30	=30
4Bn\	.	4f#X\	.	8r	.	8r	.	2B\	mor-	.	2f#X\	mor-	.	2a\	mor-	.	2dd#X\	mor-	.	.	.	.	.	.	.	1r	.
.	.	.	.	8a/L	.	8dd#X\L	.	.	.	.	.	.	.	.	.	.	.	.	.	.	.	.	.	.	.	.	.
4r	.	4r	.	8a/	.	8dd#\	.	.	.	.	.	.	.	.	.	.	.	.	.	.	.	.	.	.	.	.	.
.	.	.	.	8a/J	.	8dd#\J	.	.	.	.	.	.	.	.	.	.	.	.	.	.	.	.	.	.	.	.	.
!	!	!	!	!LO:LB:g=original	!	!	!	!	!	!	!	!	!	!	!	!	!	!	!	!	!	!	!	!	!	!	!
4d#X\	.	4a\	.	8r	.	8r	.	2d#X\	-tu-	.	2A\	-tu-	.	2a\	-tu-	.	2ff#X\	-tu-	.	.	.	.	.	.	.	.	.
.	.	.	.	8b/L	.	8ff#X\L	.	.	.	.	.	.	.	.	.	.	.	.	.	.	.	.	.	.	.	.	.
4r	.	4r	.	8b/	.	8ff#\	.	.	.	.	.	.	.	.	.	.	.	.	.	.	.	.	.	.	.	.	.
.	.	.	.	8b/J	.	8ff#\J	.	.	.	.	.	.	.	.	.	.	.	.	.	.	.	.	.	.	.	.	.
=31	=31	=31	=31	=31	=31	=31	=31	=31	=31	=31	=31	=31	=31	=31	=31	=31	=31	=31	=31	=31	=31	=31	=31	=31	=31	=31	=31
*tremolo	*	*tremolo	*	*	*	*	*	*	*	*	*	*	*	*	*	*	*	*	*	*	*	*	*	*	*	*	*
!	!	!	!	!	!	!	!	!	!	!	!	!	!	!	!	!	!	!	!	!	!	!	!	!	!	!	!LO:DY:a:t=p&colon;
!	!	!	!	!	!	!	!	!	!	!	!	!	!	!	!	!	!	!	!	!	!	!	!	!	!	!	!LO:MO:null:mod=.
8e\L	.	8g\L	.	8b\L	.	8gg\L	.	4e\	-oſ	.	4G/	-oſ	.	4g\	-os	.	4ee\	-os	.	.	.	.	.	.	.	4r	p
8e\	.	8g\	.	8b\	.	8gg\	.	.	.	.	.	.	.	.	.	.	.	.	.	.	.	.	.	.	.	.	.
*	*	*	*	*	*	*	*	*custos:A#	*	*	*	*	*	*	*	*	*	*	*	*	*	*	*	*	*	*	*
!	!	!	!	!	!	!	!	!	!	!	!	!	!	!	!	!	!	!	!	!	!	!	!	!	!	!	!LO:MO:null:mod=p
8e\	.	8g\	.	8b\	.	8gg\	.	4E\	et	.	4B\	et	.	4g\	et	.	4ee\	et	.	.	.	.	.	.	.	4gg\	.
8e\J	.	8g\J	.	8b\J	.	8gg\J	.	.	.	.	.	.	.	.	.	.	.	.	.	.	.	.	.	.	.	.	.
!	!	!	!	!	!	!	!	!LO:LB:g=original	!	!	!	!	!	!	!	!	!	!	!	!	!	!	!	!	!	!	!
8A#X\L	.	8c#X\L	.	8ee\L	.	8gg\L	.	4A#X\	mor-	.	4c#X\	mor-	.	4g\	mor-	.	4ee\	mor-	.	.	.	.	.	.	.	4gg\	.
8A#X\	.	8c#X\	.	8ee\	.	8gg\	.	.	.	.	.	.	.	.	.	.	.	.	.	.	.	.	.	.	.	.	.
8A#X\	.	8c#X\	.	8ee\	.	8gg\	.	4A#\	-tu-	.	4c#\	-tu-	.	4g\	-tu-	.	4ee\	-tu-	.	.	.	.	.	.	.	4gg\	.
8A#X\J	.	8c#X\J	.	8ee\J	.	8gg\J	.	.	.	.	.	.	.	.	.	.	.	.	.	.	.	.	.	.	.	.	.
!LO:LB:g=original	!	!	!	!	!	!	!	!	!	!	!	!	!	!	!	!	!	!	!	!	!	!	!	!	!	!	!
=32	=32	=32	=32	=32	=32	=32	=32	=32	=32	=32	=32	=32	=32	=32	=32	=32	=32	=32	=32	=32	=32	=32	=32	=32	=32	=32	=32
!	!	!	!	!	!	!	!	!	!	!LO:MO:null:mod=!LO&colon;DY&colon;ed=brack	!	!	!	!	!	!	!	!	!	!	!	!	!	!	!LO:MO:null:mod=!LO&colon;DY&colon;ed=brack	!	!
!	!	!	!	!	!	!	!	!	!	!	!	!	!	!	!	!	!	!	!	!	!	!	!	!	!	!	!
!	!LO:DY:a:t=for&colon;	!	!LO:DY:a:t=for&colon;	!	!LO:DY:a:t=for&colon;	!	!LO:DY:a:t=for&colon;	!	!	!LO:MO:null:mod=f	!	!	!LO:DY:a	!	!	!LO:DY:a:t=f&colon;	!	!	!LO:DY:a:t=f&colon;	!	!	!	!	!	!LO:MO:null:mod=f	!	!LO:DY:a:t=for.
8B\L	f	8f#X\L	f	16dd#X\LL	f	16ff#X\LL	f	2B\	-oſ	.	2d#X\	-oſ	f	2f#X\	-os	f	2dd#X\	-os	f	00r	.	00r	.	2dd#X\	.	2ff#X\	f
.	.	.	.	16b\	.	16b\	.	.	.	.	.	.	.	.	.	.	.	.	.	.	.	.	.	.	.	.	.
8B\	.	8f#X\	.	16cc#X\	.	16cc#X\	.	.	.	.	.	.	.	.	.	.	.	.	.	.	.	.	.	.	.	.	.
.	.	.	.	16dd#\JJ	.	16dd#X\JJ	.	.	.	.	.	.	.	.	.	.	.	.	.	.	.	.	.	.	.	.	.
8B\	.	8f#X\	.	16ee\LL	.	16ee\LL	.	.	.	.	.	.	.	.	.	.	.	.	.	.	.	.	.	.	.	.	.
.	.	.	.	16ff#X\	.	16ff#\	.	.	.	.	.	.	.	.	.	.	.	.	.	.	.	.	.	.	.	.	.
!	!	!	!	!LO:SIC:v:s=16gg#	!	!LO:SIC:v:s=16gg#	!	!	!	!	!	!	!	!	!	!	!	!	!	!	!	!	!	!	!	!	!
8B\J	.	8f#X\J	.	16gg\	.	16gg\	.	.	.	.	.	.	.	.	.	.	.	.	.	.	.	.	.	.	.	.	.
.	.	.	.	16aa#X\JJ	.	16aa#X\JJ	.	.	.	.	.	.	.	.	.	.	.	.	.	.	.	.	.	.	.	.	.
8B\L	.	8f#\L	.	8bb\L	.	8bb\L	.	4B\	cu-	.	4B\	cu-	.	4f#\	cu-	.	4dd#\	cu-	.	.	.	.	.	4dd#\	.	4bb\	.
8B\	.	8f#\	.	8ff#\	.	8ff#\	.	.	.	.	.	.	.	.	.	.	.	.	.	.	.	.	.	.	.	.	.
8B\	.	8f#\	.	8dd#\	.	8dd#\	.	4B\	-jus	.	4B\	-jus	.	4f#\	-jus	.	4dd#\	-jus	.	.	.	.	.	4b\	.	4ff#\	.
8B\J	.	8f#\J	.	8b\J	.	8b\J	.	.	.	.	.	.	.	.	.	.	.	.	.	.	.	.	.	.	.	.	.
=33	=33	=33	=33	=33	=33	=33	=33	=33	=33	=33	=33	=33	=33	=33	=33	=33	=33	=33	=33	=33	=33	=33	=33	=33	=33	=33	=33
!	!	!LO:SIC:v:s=8f#\L	!	!	!	!	!	!	!	!	!	!	!	!LO:SIC:v:s=2f#\	!	!	!LO:SIC:v:s=2dd#\	!	!	!	!	!	!	!	!	!	!
8A\L	.	8f\L	.	16dd#X\LL	.	16dd#X\LL	.	2An\	Re-	.	2B\	Re-	.	2f\	Re-	.	2dd\	Re-	.	.	.	.	.	2f#X/	.	2dd#X\	.
.	.	.	.	16b\	.	16b\	.	.	.	.	.	.	.	.	.	.	.	.	.	.	.	.	.	.	.	.	.
!	!	!LO:SIC:v:s=8f#\	!	!	!	!	!	!	!	!	!	!	!	!	!	!	!	!	!	!	!	!	!	!	!	!	!
8A\	.	8f\	.	16cc\	.	16cc\	.	.	.	.	.	.	.	.	.	.	.	.	.	.	.	.	.	.	.	.	.
*	*	*	*	*	*	*custos:ee	*	*	*	*	*	*	*	*	*	*	*	*	*	*	*	*	*	*	*	*	*
.	.	.	.	16dd#\JJ	.	16dd#\JJ	.	.	.	.	.	.	.	.	.	.	.	.	.	.	.	.	.	.	.	.	.
!	!	!	!	!	!	!LO:LB:g=original	!	!	!	!	!	!	!	!	!	!	!	!	!	!	!	!	!	!	!	!	!
!	!	!LO:SIC:v:s=8f#\	!	!	!	!	!	!	!	!	!	!	!	!	!	!	!	!	!	!	!	!	!	!	!	!	!
8A\	.	8f\	.	16ee\LL	.	16ee\LL	.	.	.	.	.	.	.	.	.	.	.	.	.	.	.	.	.	.	.	.	.
!	!	!	!	!LO:SIC:v:s=16ff#\	!	!LO:SIC:v:s=16ff#\	!	!	!	!	!	!	!	!	!	!	!	!	!	!	!	!	!	!	!	!	!
.	.	.	.	16ff\	.	16ff\	.	.	.	.	.	.	.	.	.	.	.	.	.	.	.	.	.	.	.	.	.
!	!	!LO:SIC:v:s=8f#\J	!	!LO:SIC:v:s=16gg#	!	!LO:SIC:v:s=16gg#	!	!	!	!	!	!	!	!	!	!	!	!	!	!	!	!	!	!	!	!	!
8A\J	.	8f\J	.	16gg\	.	16gg\	.	.	.	.	.	.	.	.	.	.	.	.	.	.	.	.	.	.	.	.	.
!	!	!	!	!LO:SIC:v:s=16aa#JJ	!	!LO:SIC:v:s=16aa#JJ	!	!	!	!	!	!	!	!	!	!	!	!	!	!	!	!	!	!	!	!	!
.	.	.	.	16aa\JJ	.	16aa\JJ	.	.	.	.	.	.	.	.	.	.	.	.	.	.	.	.	.	.	.	.	.
!	!	!LO:SIC:v:s=8f#\L	!	!	!	!	!	!	!	!	!	!	!	!LO:SIC:v:s=4f#\	!	!	!LO:SIC:v:s=4dd#\	!	!	!	!	!	!	!	!	!	!
8A\L	.	8f\L	.	8bb\L	.	8bb\L	.	4A\	-gni	.	4B\	-gni	.	4f\	-gni	.	4dd\	-gni	.	.	.	.	.	2b\	.	4bb\	.
!	!	!LO:SIC:v:s=8f#\	!	!LO:SIC:v:s=8ff#\	!	!LO:SIC:v:s=8ff#\	!	!	!	!	!	!	!	!	!	!	!	!	!	!	!	!	!	!	!	!	!
8A\	.	8f\	.	8ff\	.	8ff\	.	.	.	.	.	.	.	.	.	.	.	.	.	.	.	.	.	.	.	.	.
!	!	!LO:SIC:v:s=8f#\	!	!	!	!	!	!	!	!	!	!	!	!LO:SIC:v:s=4f#\	!	!	!LO:SIC:v:s=4dd#\	!	!	!	!	!	!	!	!	!	!
8A\	.	8f\	.	8dd#\	.	8dd#\	.	4A\	non	.	4B\	non	.	4f\	non	.	4dd\	non	.	.	.	.	.	.	.	4dd#\	.
!	!	!LO:SIC:v:s=8f#\J	!	!	!	!	!	!	!	!	!	!	!	!	!	!	!	!	!	!	!	!	!	!	!	!	!
8A\J	.	8f\J	.	8b\J	.	8b\J	.	.	.	.	.	.	.	.	.	.	.	.	.	.	.	.	.	.	.	.	.
*Xtremolo	*	*	*	*	*	*	*	*	*	*	*	*	*	*	*	*	*	*	*	*	*	*	*	*	*	*	*
=34	=34	=34	=34	=34	=34	=34	=34	=34	=34	=34	=34	=34	=34	=34	=34	=34	=34	=34	=34	=34	=34	=34	=34	=34	=34	=34	=34
8G\L	.	8g\L	.	16ee\LL	.	16ee\LL	.	4G\	e-	.	4B\	e-	.	4g\	e-	.	4ee\	e-	.	.	.	.	.	4b\	.	2ee\	.
.	.	.	.	16ee\	.	16ee\	.	.	.	.	.	.	.	.	.	.	.	.	.	.	.	.	.	.	.	.	.
8G\	.	8g\	.	16ee\	.	16ee\	.	.	.	.	.	.	.	.	.	.	.	.	.	.	.	.	.	.	.	.	.
.	.	.	.	16ee\JJ	.	16ee\JJ	.	.	.	.	.	.	.	.	.	.	.	.	.	.	.	.	.	.	.	.	.
*	*	*	*	*	*	*tremolo	*	*	*	*	*	*	*	*	*	*	*	*	*	*	*	*	*	*	*	*	*
8c\	.	8g\	.	16ee\LL	.	16ee\LL	.	4c\	-rit	.	4c\	-rit	.	4g\	-rit	.	4ee\	-rit	.	.	.	.	.	4g/	.	.	.
.	.	.	.	16ee\	.	16ee\	.	.	.	.	.	.	.	.	.	.	.	.	.	.	.	.	.	.	.	.	.
8c\J	.	8g\J	.	16ee\	.	16ee\	.	.	.	.	.	.	.	.	.	.	.	.	.	.	.	.	.	.	.	.	.
.	.	.	.	16ee\JJ	.	16ee\	.	.	.	.	.	.	.	.	.	.	.	.	.	.	.	.	.	.	.	.	.
8A\L	.	8f#X\L	.	16ee\LL	.	16ee\	.	4A\	fi-	.	(4c\	fi-	.	2f#X\	fi-	.	(4ee\	fi-	.	.	.	.	.	2f#X/	.	4ee\	.
.	.	.	.	16ee\	.	16ee\	.	.	.	.	.	.	.	.	.	.	.	.	.	.	.	.	.	.	.	.	.
8A\	.	8f#X\	.	16ee\	.	16ee\	.	.	.	.	.	.	.	.	.	.	.	.	.	.	.	.	.	.	.	.	.
.	.	.	.	16ee\JJ	.	16ee\JJ	.	.	.	.	.	.	.	.	.	.	.	.	.	.	.	.	.	.	.	.	.
*	*	*	*	*	*	*Xtremolo	*	*	*	*	*	*	*	*	*	*	*	*	*	*	*	*	*	*	*	*	*
8B\	.	8f#X\	.	16dd#X\LL	.	16dd#X\LL	.	4B\	.	.	4B\)	.	.	.	.	.	4dd#X\)	.	.	.	.	.	.	.	.	4dd#X\	.
.	.	.	.	16dd#\	.	16dd#\	.	.	.	.	.	.	.	.	.	.	.	.	.	.	.	.	.	.	.	.	.
8B\J	.	8f#X\J	.	16dd#\	.	16dd#\	.	.	.	.	.	.	.	.	.	.	.	.	.	.	.	.	.	.	.	.	.
.	.	.	.	16dd#\JJ	.	16dd#\JJ	.	.	.	.	.	.	.	.	.	.	.	.	.	.	.	.	.	.	.	.	.
*	*	*Xtremolo	*	*	*	*	*	*	*	*	*	*	*	*	*	*	*	*	*	*	*	*	*	*	*	*	*
=35	=35	=35	=35	=35	=35	=35	=35	=35	=35	=35	=35	=35	=35	=35	=35	=35	=35	=35	=35	=35	=35	=35	=35	=35	=35	=35	=35
4E\	.	4g\	.	4ee\	.	4ee\	.	4E\	-nis	.	4B\	-nis	.	4g\	-nis	.	4ee\	-nis	.	.	.	.	.	4g/	.	4ee\	.
4r	.	4r	.	4r	.	4r	.	4r	.	.	4r	.	.	4r	.	.	4r	.	.	.	.	.	.	4r	.	4r	.
4r	.	2r	.	2r	.	2r	.	2r	.	.	2r	.	.	2r	.	.	2r	.	.	.	.	.	.	2r	.	2r	.
!	!LO:DY:a:t=p&colon;	!	!	!	!	!	!	!	!	!	!	!	!	!	!	!	!	!	!	!	!	!	!	!	!	!	!
4G#X\	p	.	.	.	.	.	.	.	.	.	.	.	.	.	.	.	.	.	.	.	.	.	.	.	.	.	.
!	!	!	!	!	!	!	!	!	!	!	!LO:LB:g=original	!	!	!	!	!	!	!	!	!	!	!	!	!	!	!LO:LB:g=original	!
=36	=36	=36	=36	=36	=36	=36	=36	=36	=36	=36	=36	=36	=36	=36	=36	=36	=36	=36	=36	=36	=36	=36	=36	=36	=36	=36	=36
!	!	!LO:TX:a:t=33.:mod=	!	!LO:TX:a:t=14:mod=	!	!LO:TX:a:t=14:mod=	!	!	!	!	!	!	!	!LO:TX:a:t=8:mod=	!	!	!	!	!	!	!	!	!	!LO:TX:a:t=34:mod=	!	!LO:TX:a:t=34:mod=	!
4A\	.	00r	.	00r	.	00r	.	00r	.	.	00r	.	.	00r	.	.	00r	.	.	00r	.	00r	.	00r	.	00r	.
4B\	.	.	.	.	.	.	.	.	.	.	.	.	.	.	.	.	.	.	.	.	.	.	.	.	.	.	.
4c\	.	.	.	.	.	.	.	.	.	.	.	.	.	.	.	.	.	.	.	.	.	.	.	.	.	.	.
4c#X\	.	.	.	.	.	.	.	.	.	.	.	.	.	.	.	.	.	.	.	.	.	.	.	.	.	.	.
=37	=37	=37	=37	=37	=37	=37	=37	=37	=37	=37	=37	=37	=37	=37	=37	=37	=37	=37	=37	=37	=37	=37	=37	=37	=37	=37	=37
4d\	.	.	.	.	.	.	.	.	.	.	.	.	.	.	.	.	.	.	.	.	.	.	.	.	.	.	.
4D/	.	.	.	.	.	.	.	.	.	.	.	.	.	.	.	.	.	.	.	.	.	.	.	.	.	.	.
4r	.	.	.	.	.	.	.	.	.	.	.	.	.	.	.	.	.	.	.	.	.	.	.	.	.	.	.
4F#X\	.	.	.	.	.	.	.	.	.	.	.	.	.	.	.	.	.	.	.	.	.	.	.	.	.	.	.
=38	=38	=38	=38	=38	=38	=38	=38	=38	=38	=38	=38	=38	=38	=38	=38	=38	=38	=38	=38	=38	=38	=38	=38	=38	=38	=38	=38
4G\	.	.	.	.	.	.	.	.	.	.	.	.	.	.	.	.	.	.	.	.	.	.	.	.	.	.	.
4A\	.	.	.	.	.	.	.	.	.	.	.	.	.	.	.	.	.	.	.	.	.	.	.	.	.	.	.
4B\	.	.	.	.	.	.	.	.	.	.	.	.	.	.	.	.	.	.	.	.	.	.	.	.	.	.	.
4G\	.	.	.	.	.	.	.	.	.	.	.	.	.	.	.	.	.	.	.	.	.	.	.	.	.	.	.
=39	=39	=39	=39	=39	=39	=39	=39	=39	=39	=39	=39	=39	=39	=39	=39	=39	=39	=39	=39	=39	=39	=39	=39	=39	=39	=39	=39
4c\	.	.	.	.	.	.	.	.	.	.	.	.	.	.	.	.	.	.	.	.	.	.	.	.	.	.	.
4C/	.	.	.	.	.	.	.	.	.	.	.	.	.	.	.	.	.	.	.	.	.	.	.	.	.	.	.
4r	.	.	.	.	.	.	.	.	.	.	.	.	.	.	.	.	.	.	.	.	.	.	.	.	.	.	.
*custos:F	*	*	*	*	*	*	*	*	*	*	*	*	*	*	*	*	*	*	*	*	*	*	*	*	*	*	*
!LO:TX:b:t=verte.:mod=	!	!	!	!	!	!	!	!	!	!	!	!	!	!	!	!	!	!	!	!	!	!	!	!	!	!	!
4E\	.	.	.	.	.	.	.	.	.	.	.	.	.	.	.	.	.	.	.	.	.	.	.	.	.	.	.
!LO:PB:g=original	!	!	!	!	!	!	!	!	!	!	!	!	!	!	!	!	!	!	!	!	!	!	!	!	!	!	!
=40	=40	=40	=40	=40	=40	=40	=40	=40	=40	=40	=40	=40	=40	=40	=40	=40	=40	=40	=40	=40	=40	=40	=40	=40	=40	=40	=40
4F\	.	00r	.	00r	.	00r	.	00r	.	.	00r	.	.	00r	.	.	1r	.	.	00r	.	00r	.	00r	.	00r	.
4F\	.	.	.	.	.	.	.	.	.	.	.	.	.	.	.	.	.	.	.	.	.	.	.	.	.	.	.
4G\	.	.	.	.	.	.	.	.	.	.	.	.	.	.	.	.	.	.	.	.	.	.	.	.	.	.	.
4GG/	.	.	.	.	.	.	.	.	.	.	.	.	.	.	.	.	.	.	.	.	.	.	.	.	.	.	.
!	!	!	!	!	!	!	!	!	!	!	!	!	!	!	!	!	!LO:LB:g=original	!	!	!	!	!	!	!	!	!	!
=41	=41	=41	=41	=41	=41	=41	=41	=41	=41	=41	=41	=41	=41	=41	=41	=41	=41	=41	=41	=41	=41	=41	=41	=41	=41	=41	=41
!	!	!	!	!	!	!	!	!	!	!	!	!	!	!	!	!	!LO:TX:a:i:t=Solo.:mod=Solo	!	!	!	!	!	!	!	!	!	!
4C/	.	.	.	.	.	.	.	.	.	.	.	.	.	.	.	.	4r	.	.	.	.	.	.	.	.	.	.
4r	.	.	.	.	.	.	.	.	.	.	.	.	.	.	.	.	(4g\	Et	.	.	.	.	.	.	.	.	.
4r	.	.	.	.	.	.	.	.	.	.	.	.	.	.	.	.	4a\)	.	.	.	.	.	.	.	.	.	.
4G\	.	.	.	.	.	.	.	.	.	.	.	.	.	.	.	.	4b\	in	.	.	.	.	.	.	.	.	.
=42	=42	=42	=42	=42	=42	=42	=42	=42	=42	=42	=42	=42	=42	=42	=42	=42	=42	=42	=42	=42	=42	=42	=42	=42	=42	=42	=42
4E\	.	.	.	.	.	.	.	.	.	.	.	.	.	.	.	.	4.cc\	Spi-	.	.	.	.	.	.	.	.	.
4C/	.	.	.	.	.	.	.	.	.	.	.	.	.	.	.	.	.	.	.	.	.	.	.	.	.	.	.
.	.	.	.	.	.	.	.	.	.	.	.	.	.	.	.	.	8cc\	-ri-	.	.	.	.	.	.	.	.	.
4BB/	.	.	.	.	.	.	.	.	.	.	.	.	.	.	.	.	2dd\	-tus	.	.	.	.	.	.	.	.	.
4GG/	.	.	.	.	.	.	.	.	.	.	.	.	.	.	.	.	.	.	.	.	.	.	.	.	.	.	.
=43	=43	=43	=43	=43	=43	=43	=43	=43	=43	=43	=43	=43	=43	=43	=43	=43	=43	=43	=43	=43	=43	=43	=43	=43	=43	=43	=43
4C/	.	.	.	.	.	.	.	.	.	.	.	.	.	.	.	.	4ee\	san-	.	.	.	.	.	.	.	.	.
4c\	.	.	.	.	.	.	.	.	.	.	.	.	.	.	.	.	4ee\	-ctum	.	.	.	.	.	.	.	.	.
4A\	.	.	.	.	.	.	.	.	.	.	.	.	.	.	.	.	8ff\L	Do-	.	.	.	.	.	.	.	.	.
.	.	.	.	.	.	.	.	.	.	.	.	.	.	.	.	.	8ee\J	.	.	.	.	.	.	.	.	.	.
4F\	.	.	.	.	.	.	.	.	.	.	.	.	.	.	.	.	8dd\L	-mi-	.	.	.	.	.	.	.	.	.
.	.	.	.	.	.	.	.	.	.	.	.	.	.	.	.	.	8cc\J	.	.	.	.	.	.	.	.	.	.
!	!	!	!	!	!	!	!	!	!	!	!	!	!	!LO:LB:g=original	!	!	!	!	!	!	!	!	!	!	!	!	!
=44	=44	=44	=44	=44	=44	=44	=44	=44	=44	=44	=44	=44	=44	=44	=44	=44	=44	=44	=44	=44	=44	=44	=44	=44	=44	=44	=44
4G\	.	00r	.	00r	.	00r	.	00r	.	.	00r	.	.	4r	.	.	4b\	-num	.	00r	.	00r	.	00r	.	00r	.
4r	.	.	.	.	.	.	.	.	.	.	.	.	.	(4b\	et	.	(4dd\	et	.	.	.	.	.	.	.	.	.
4r	.	.	.	.	.	.	.	.	.	.	.	.	.	4cc\)	.	.	4ee\)	vi-	.	.	.	.	.	.	.	.	.
4G\	.	.	.	.	.	.	.	.	.	.	.	.	.	4b\	vi-	.	4dd\	.	.	.	.	.	.	.	.	.	.
=45	=45	=45	=45	=45	=45	=45	=45	=45	=45	=45	=45	=45	=45	=45	=45	=45	=45	=45	=45	=45	=45	=45	=45	=45	=45	=45	=45
*tremolo	*	*	*	*	*	*	*	*	*	*	*	*	*	*	*	*	*	*	*	*	*	*	*	*	*	*	*
8A\L	.	.	.	.	.	.	.	.	.	.	.	.	.	4a\	-vi-	.	4cc\	-vi-	.	.	.	.	.	.	.	.	.
8A\	.	.	.	.	.	.	.	.	.	.	.	.	.	.	.	.	.	.	.	.	.	.	.	.	.	.	.
8A\	.	.	.	.	.	.	.	.	.	.	.	.	.	4a\	-fi-	.	4cc\	-fi-	.	.	.	.	.	.	.	.	.
8A\J	.	.	.	.	.	.	.	.	.	.	.	.	.	.	.	.	.	.	.	.	.	.	.	.	.	.	.
8D\L	.	.	.	.	.	.	.	.	.	.	.	.	.	2a\	-can-	.	(4dd\	-can-	.	.	.	.	.	.	.	.	.
8D\	.	.	.	.	.	.	.	.	.	.	.	.	.	.	.	.	.	.	.	.	.	.	.	.	.	.	.
8D\	.	.	.	.	.	.	.	.	.	.	.	.	.	.	.	.	4cc\)	.	.	.	.	.	.	.	.	.	.
8D\J	.	.	.	.	.	.	.	.	.	.	.	.	.	.	.	.	.	.	.	.	.	.	.	.	.	.	.
*Xtremolo	*	*	*	*	*	*	*	*	*	*	*	*	*	*	*	*	*	*	*	*	*	*	*	*	*	*	*
=46	=46	=46	=46	=46	=46	=46	=46	=46	=46	=46	=46	=46	=46	=46	=46	=46	=46	=46	=46	=46	=46	=46	=46	=46	=46	=46	=46
4G\	.	.	.	.	.	.	.	.	.	.	.	.	.	4g\	-tem	.	4b\	-tem	.	.	.	.	.	.	.	.	.
4r	.	.	.	.	.	.	.	.	.	.	.	.	.	4r	.	.	(4b\	qui	.	.	.	.	.	.	.	.	.
4r	.	.	.	.	.	.	.	.	.	.	.	.	.	4r	.	.	4ee\)	.	.	.	.	.	.	.	.	.	.
4G\	.	.	.	.	.	.	.	.	.	.	.	.	.	4g\	ex	.	4dd\	ex	.	.	.	.	.	.	.	.	.
=47	=47	=47	=47	=47	=47	=47	=47	=47	=47	=47	=47	=47	=47	=47	=47	=47	=47	=47	=47	=47	=47	=47	=47	=47	=47	=47	=47
*tremolo	*	*	*	*	*	*	*	*	*	*	*	*	*	*	*	*	*	*	*	*	*	*	*	*	*	*	*
8A\L	.	.	.	.	.	.	.	.	.	.	.	.	.	2e\	pa-	.	2cc#X\	pa-	.	.	.	.	.	.	.	.	.
8A\	.	.	.	.	.	.	.	.	.	.	.	.	.	.	.	.	.	.	.	.	.	.	.	.	.	.	.
8A\	.	.	.	.	.	.	.	.	.	.	.	.	.	.	.	.	.	.	.	.	.	.	.	.	.	.	.
8A\J	.	.	.	.	.	.	.	.	.	.	.	.	.	.	.	.	.	.	.	.	.	.	.	.	.	.	.
8G\L	.	.	.	.	.	.	.	.	.	.	.	.	.	2e\	-tre	.	2cc#\	-tre	.	.	.	.	.	.	.	.	.
8G\	.	.	.	.	.	.	.	.	.	.	.	.	.	.	.	.	.	.	.	.	.	.	.	.	.	.	.
8G\	.	.	.	.	.	.	.	.	.	.	.	.	.	.	.	.	.	.	.	.	.	.	.	.	.	.	.
8G\J	.	.	.	.	.	.	.	.	.	.	.	.	.	.	.	.	.	.	.	.	.	.	.	.	.	.	.
*Xtremolo	*	*	*	*	*	*	*	*	*	*	*	*	*	*	*	*	*	*	*	*	*	*	*	*	*	*	*
!	!	!	!	!	!	!	!	!	!	!	!	!	!	!	!	!	!LO:LB:g=original	!	!	!	!	!	!	!	!	!	!
=48	=48	=48	=48	=48	=48	=48	=48	=48	=48	=48	=48	=48	=48	=48	=48	=48	=48	=48	=48	=48	=48	=48	=48	=48	=48	=48	=48
!	!	!	!	!LO:TX:b:t=Vertatur.:mod=	!	!	!	!	!	!	!	!	!	!	!	!	!	!	!	!	!	!	!	!	!	!	!
4F#X\	.	00r	.	0r	.	0r	.	00r	.	.	00r	.	.	4.a\	fi-	.	4.ccn\	fi-	.	00r	.	00r	.	00r	.	00r	.
4D\	.	.	.	.	.	.	.	.	.	.	.	.	.	.	.	.	.	.	.	.	.	.	.	.	.	.	.
.	.	.	.	.	.	.	.	.	.	.	.	.	.	8a\	-li-	.	8cc\	-li-	.	.	.	.	.	.	.	.	.
4G\	.	.	.	.	.	.	.	.	.	.	.	.	.	2g\	-o-	.	2b\	-o-	.	.	.	.	.	.	.	.	.
4E\	.	.	.	.	.	.	.	.	.	.	.	.	.	.	.	.	.	.	.	.	.	.	.	.	.	.	.
=49	=49	=49	=49	=49	=49	=49	=49	=49	=49	=49	=49	=49	=49	=49	=49	=49	=49	=49	=49	=49	=49	=49	=49	=49	=49	=49	=49
*tremolo	*	*	*	*	*	*	*	*	*	*	*	*	*	*	*	*	*	*	*	*	*	*	*	*	*	*	*
8C/L	.	.	.	.	.	.	.	.	.	.	.	.	.	4g\	-que	.	4a\	-que	.	.	.	.	.	.	.	.	.
8C/	.	.	.	.	.	.	.	.	.	.	.	.	.	.	.	.	.	.	.	.	.	.	.	.	.	.	.
8C/	.	.	.	.	.	.	.	.	.	.	.	.	.	4g\	pro-	.	4a\	pro-	.	.	.	.	.	.	.	.	.
8C/J	.	.	.	.	.	.	.	.	.	.	.	.	.	.	.	.	.	.	.	.	.	.	.	.	.	.	.
8D/L	.	.	.	.	.	.	.	.	.	.	.	.	.	(4g\	-ce-	.	2a\	-ce-	.	.	.	.	.	.	.	.	.
8D/	.	.	.	.	.	.	.	.	.	.	.	.	.	.	.	.	.	.	.	.	.	.	.	.	.	.	.
8D/	.	.	.	.	.	.	.	.	.	.	.	.	.	4f#X\)	.	.	.	.	.	.	.	.	.	.	.	.	.
8D/J	.	.	.	.	.	.	.	.	.	.	.	.	.	.	.	.	.	.	.	.	.	.	.	.	.	.	.
*Xtremolo	*	*	*	*	*	*	*	*	*	*	*	*	*	*	*	*	*	*	*	*	*	*	*	*	*	*	*
!LO:LB:g=original	!	!	!	!LO:PB:g=original	!	!	!	!	!	!	!	!	!	!	!	!	!	!	!	!	!	!	!	!	!	!	!
=50	=50	=50	=50	=50	=50	=50	=50	=50	=50	=50	=50	=50	=50	=50	=50	=50	=50	=50	=50	=50	=50	=50	=50	=50	=50	=50	=50
!	!	!	!	!	!LO:DY:a:t=pia&colon;	!	!LO:DY:a:t=p&colon;	!	!	!	!	!	!	!	!	!	!	!	!	!	!	!	!	!	!	!	!
!	!	!	!	!	!LO:MO:null:mod=.	!	!LO:MO:null:mod=.	!	!	!	!	!	!	!	!	!	!	!	!	!	!	!	!	!	!	!	!
4GG/	.	.	.	4r	p	4r	p	.	.	.	.	.	.	4g\	-dit	.	4g\	-dit.	.	.	.	.	.	.	.	.	.
!	!	!	!	!	!LO:MO:null:mod=p	!	!LO:MO:null:mod=p	!	!	!	!	!	!	!	!	!	!	!	!	!	!	!	!	!	!	!	!
4r	.	.	.	(8gg\L	.	(8bb\L	.	.	.	.	.	.	.	4r	.	.	4r	.	.	.	.	.	.	.	.	.	.
.	.	.	.	8ff#X\J)	.	8aa\J)	.	.	.	.	.	.	.	.	.	.	.	.	.	.	.	.	.	.	.	.	.
4r	.	.	.	(8ee\L	.	(8gg\L	.	.	.	.	.	.	.	2r	.	.	2r	.	.	.	.	.	.	.	.	.	.
.	.	.	.	8dd\J)	.	8ff#X\J)	.	.	.	.	.	.	.	.	.	.	.	.	.	.	.	.	.	.	.	.	.
4GG/	.	.	.	(8cc\L	.	(8ee\L	.	.	.	.	.	.	.	.	.	.	.	.	.	.	.	.	.	.	.	.	.
.	.	.	.	8b\J)	.	8dd\J)	.	.	.	.	.	.	.	.	.	.	.	.	.	.	.	.	.	.	.	.	.
=51	=51	=51	=51	=51	=51	=51	=51	=51	=51	=51	=51	=51	=51	=51	=51	=51	=51	=51	=51	=51	=51	=51	=51	=51	=51	=51	=51
*	*	*	*	*^	*	*	*	*	*	*	*	*	*	*	*	*	*	*	*	*	*	*	*	*	*	*	*
!	!	!	!	!	!	!	!	!	!	!	!	!	!	!	!	!	!	!LO:TX:a:t=19.:mod=	!	!	!	!	!	!	!	!	!	!
4D\	.	.	.	4a/	4f#X\	.	4cc\	.	.	.	.	.	.	.	00r	.	.	00r	.	.	.	.	.	.	.	.	.	.
4r	.	.	.	(8ff#X\L	4ryy	.	(8aa\L	.	.	.	.	.	.	.	.	.	.	.	.	.	.	.	.	.	.	.	.	.
.	.	.	.	8ee\J)	.	.	8gg\J)	.	.	.	.	.	.	.	.	.	.	.	.	.	.	.	.	.	.	.	.	.
4r	.	.	.	(8dd\L	2ryy	.	(8ff#X\L	.	.	.	.	.	.	.	.	.	.	.	.	.	.	.	.	.	.	.	.	.
.	.	.	.	8cc\J)	.	.	8ee\J)	.	.	.	.	.	.	.	.	.	.	.	.	.	.	.	.	.	.	.	.	.
4D\	.	.	.	(8b/L	.	.	(8dd\L	.	.	.	.	.	.	.	.	.	.	.	.	.	.	.	.	.	.	.	.	.
.	.	.	.	8a/J)	.	.	8cc\J)	.	.	.	.	.	.	.	.	.	.	.	.	.	.	.	.	.	.	.	.	.
*	*	*	*	*v	*v	*	*	*	*	*	*	*	*	*	*	*	*	*	*	*	*	*	*	*	*	*	*	*
=52	=52	=52	=52	=52	=52	=52	=52	=52	=52	=52	=52	=52	=52	=52	=52	=52	=52	=52	=52	=52	=52	=52	=52	=52	=52	=52	=52
!	!	!	!	!	!	!	!	!	!	!	!LO:TX:a:i:t=Solo.:mod=Solo	!	!	!	!	!	!	!	!	!	!	!	!	!	!	!	!
4G\	.	00r	.	4g/	.	4b\	.	0r	.	.	4r	.	.	.	.	.	.	.	.	00r	.	00r	.	00r	.	00r	.
4D\	.	.	.	4r	.	4r	.	.	.	.	2g\	Qui	.	.	.	.	.	.	.	.	.	.	.	.	.	.	.
4G\	.	.	.	2r	.	2r	.	.	.	.	.	.	.	.	.	.	.	.	.	.	.	.	.	.	.	.	.
4Fn\	.	.	.	.	.	.	.	.	.	.	4B\	cum	.	.	.	.	.	.	.	.	.	.	.	.	.	.	.
=53	=53	=53	=53	=53	=53	=53	=53	=53	=53	=53	=53	=53	=53	=53	=53	=53	=53	=53	=53	=53	=53	=53	=53	=53	=53	=53	=53
!	!	!	!	!LO:TX:a:t=4:mod=	!	!LO:TX:a:t=4:mod=	!	!	!	!	!	!	!	!	!	!	!	!	!	!	!	!	!	!	!	!	!
4E\	.	.	.	00r	.	00r	.	.	.	.	2c\	Pa-	.	.	.	.	.	.	.	.	.	.	.	.	.	.	.
4C/	.	.	.	.	.	.	.	.	.	.	.	.	.	.	.	.	.	.	.	.	.	.	.	.	.	.	.
4BB/	.	.	.	.	.	.	.	.	.	.	2d\	.	.	.	.	.	.	.	.	.	.	.	.	.	.	.	.
4GG/	.	.	.	.	.	.	.	.	.	.	.	.	.	.	.	.	.	.	.	.	.	.	.	.	.	.	.
=54	=54	=54	=54	=54	=54	=54	=54	=54	=54	=54	=54	=54	=54	=54	=54	=54	=54	=54	=54	=54	=54	=54	=54	=54	=54	=54	=54
!	!	!	!	!	!	!	!	!LO:TX:a:i:t=Solo	!	!	!	!	!	!	!	!	!	!	!	!	!	!	!	!	!	!	!
4C/	.	.	.	.	.	.	.	4r	.	.	4e\	-tre	.	.	.	.	.	.	.	.	.	.	.	.	.	.	.
4c\	.	.	.	.	.	.	.	4c\	et	.	4e\	et	.	.	.	.	.	.	.	.	.	.	.	.	.	.	.
4B\	.	.	.	.	.	.	.	4d\	Fi-	.	4f\	Fi-	.	.	.	.	.	.	.	.	.	.	.	.	.	.	.
4c\	.	.	.	.	.	.	.	4c\	-li-	.	4e\	-li-	.	.	.	.	.	.	.	.	.	.	.	.	.	.	.
=55	=55	=55	=55	=55	=55	=55	=55	=55	=55	=55	=55	=55	=55	=55	=55	=55	=55	=55	=55	=55	=55	=55	=55	=55	=55	=55	=55
2G\	.	.	.	.	.	.	.	4B\	-o	.	4d\	-o	.	00r	.	.	00r	.	.	.	.	.	.	.	.	.	.
.	.	.	.	.	.	.	.	(4B\	ſi-	.	(4d\	ſi-	.	.	.	.	.	.	.	.	.	.	.	.	.	.	.
*	*	*	*	*	*	*	*	*custos	*	*	*	*	*	*	*	*	*	*	*	*	*	*	*	*	*	*	*
2G#X\	.	.	.	.	.	.	.	4c\)	.	.	4e\)	.	.	.	.	.	.	.	.	.	.	.	.	.	.	.	.
!	!	!	!	!	!	!	!	!LO:LB:g=original	!	!	!	!	!	!	!	!	!	!	!	!	!	!	!	!	!	!	!
.	.	.	.	.	.	.	.	4B\	-mul	.	4d\	-mul	.	.	.	.	.	.	.	.	.	.	.	.	.	.	.
=56	=56	=56	=56	=56	=56	=56	=56	=56	=56	=56	=56	=56	=56	=56	=56	=56	=56	=56	=56	=56	=56	=56	=56	=56	=56	=56	=56
4A\	.	00r	.	.	.	.	.	4A\	a-	.	4c\	a-	.	.	.	.	.	.	.	00r	.	00r	.	00r	.	00r	.
4AA/	.	.	.	.	.	.	.	4A\	-do-	.	4c\	-do-	.	.	.	.	.	.	.	.	.	.	.	.	.	.	.
4C/	.	.	.	.	.	.	.	2A\	-ra-	.	2c\	-ra-	.	.	.	.	.	.	.	.	.	.	.	.	.	.	.
4AA/	.	.	.	.	.	.	.	.	.	.	.	.	.	.	.	.	.	.	.	.	.	.	.	.	.	.	.
=57	=57	=57	=57	=57	=57	=57	=57	=57	=57	=57	=57	=57	=57	=57	=57	=57	=57	=57	=57	=57	=57	=57	=57	=57	=57	=57	=57
!	!	!	!	!	!LO:DY:a:t=p&colon;	!	!	!	!	!	!	!	!	!	!	!	!	!	!	!	!	!	!	!	!	!	!
!	!	!	!	!	!LO:MO:null:mod=.	!	!	!	!	!	!	!	!	!	!	!	!	!	!	!	!	!	!	!	!	!	!
4E\	.	.	.	4r	p	4r	.	4G#X\	-tur	.	4B\	-tur	.	.	.	.	.	.	.	.	.	.	.	.	.	.	.
4r	.	.	.	(8bb\L	.	(8bb\L	.	4r	.	.	4r	.	.	.	.	.	.	.	.	.	.	.	.	.	.	.	.
.	.	.	.	8aa\J)	.	8aa\J)	.	.	.	.	.	.	.	.	.	.	.	.	.	.	.	.	.	.	.	.	.
4r	.	.	.	(8gg#X\L	.	(8gg#X\L	.	2r	.	.	2r	.	.	.	.	.	.	.	.	.	.	.	.	.	.	.	.
.	.	.	.	8ff#X\J)	.	8ff#X\J)	.	.	.	.	.	.	.	.	.	.	.	.	.	.	.	.	.	.	.	.	.
!	!	!	!	!	!	!LO:LB:g=original	!	!	!	!	!	!	!	!	!	!	!	!	!	!	!	!	!	!	!	!	!
4B\	.	.	.	(8ee\L	.	(8ee\L	.	.	.	.	.	.	.	.	.	.	.	.	.	.	.	.	.	.	.	.	.
.	.	.	.	8dd#X\J)	.	8dd#X\J)	.	.	.	.	.	.	.	.	.	.	.	.	.	.	.	.	.	.	.	.	.
=58	=58	=58	=58	=58	=58	=58	=58	=58	=58	=58	=58	=58	=58	=58	=58	=58	=58	=58	=58	=58	=58	=58	=58	=58	=58	=58	=58
4G#X\	.	.	.	4ee\	.	4ee\	.	4r	.	.	4r	.	.	.	.	.	.	.	.	.	.	.	.	.	.	.	.
4E\	.	.	.	4r	.	4r	.	4G#X\	et	.	4B\	et	.	.	.	.	.	.	.	.	.	.	.	.	.	.	.
2G#\	.	.	.	2r	.	2r	.	4E\	con-	.	4e\	con-	.	.	.	.	.	.	.	.	.	.	.	.	.	.	.
.	.	.	.	.	.	.	.	4G#\	-glo-	.	4d\	-glo-	.	.	.	.	.	.	.	.	.	.	.	.	.	.	.
=59	=59	=59	=59	=59	=59	=59	=59	=59	=59	=59	=59	=59	=59	=59	=59	=59	=59	=59	=59	=59	=59	=59	=59	=59	=59	=59	=59
*tremolo	*	*	*	*	*	*	*	*	*	*	*	*	*	*	*	*	*	*	*	*	*	*	*	*	*	*	*
!	!	!	!	!LO:TX:a:t=11:mod=	!	!LO:TX:a:t=11.:mod=	!	!	!	!	!	!	!	!	!	!	!	!	!	!	!	!	!	!	!	!	!
8A\L	.	.	.	00r	.	00r	.	2A\	-ri-	.	4c\	-ri-	.	00r	.	.	00r	.	.	.	.	.	.	.	.	.	.
8A\	.	.	.	.	.	.	.	.	.	.	.	.	.	.	.	.	.	.	.	.	.	.	.	.	.	.	.
8A\	.	.	.	.	.	.	.	.	.	.	4c\	-fi-	.	.	.	.	.	.	.	.	.	.	.	.	.	.	.
8A\J	.	.	.	.	.	.	.	.	.	.	.	.	.	.	.	.	.	.	.	.	.	.	.	.	.	.	.
!	!	!	!	!	!	!	!	!	!	!	!LO:LB:g=original	!	!	!	!	!	!	!	!	!	!	!	!	!	!	!	!
8D#X\L	.	.	.	.	.	.	.	2A\	-fi-	.	2c\	-ca-	.	.	.	.	.	.	.	.	.	.	.	.	.	.	.
8D#X\	.	.	.	.	.	.	.	.	.	.	.	.	.	.	.	.	.	.	.	.	.	.	.	.	.	.	.
8D#X\	.	.	.	.	.	.	.	.	.	.	.	.	.	.	.	.	.	.	.	.	.	.	.	.	.	.	.
8D#X\J	.	.	.	.	.	.	.	.	.	.	.	.	.	.	.	.	.	.	.	.	.	.	.	.	.	.	.
*Xtremolo	*	*	*	*	*	*	*	*	*	*	*	*	*	*	*	*	*	*	*	*	*	*	*	*	*	*	*
!LO:LB:g=original	!	!	!	!	!	!	!	!	!	!	!	!	!	!	!	!	!	!	!	!	!	!	!	!	!	!	!
=60	=60	=60	=60	=60	=60	=60	=60	=60	=60	=60	=60	=60	=60	=60	=60	=60	=60	=60	=60	=60	=60	=60	=60	=60	=60	=60	=60
4E\	.	00r	.	.	.	.	.	4A\	-ca-	.	2B\	-tur	.	.	.	.	.	.	.	00r	.	00r	.	00r	.	00r	.
4EE/	.	.	.	.	.	.	.	4G#X\	-tur	.	.	.	.	.	.	.	.	.	.	.	.	.	.	.	.	.	.
!	!	!	!	!	!	!	!	!	!	!	!	!LO:MO:mod=qui	!	!	!	!	!	!	!	!	!	!	!	!	!	!	!
4r	.	.	.	.	.	.	.	4r	.	.	8e\L	Qui	.	.	.	.	.	.	.	.	.	.	.	.	.	.	.
.	.	.	.	.	.	.	.	.	.	.	8d\J	.	.	.	.	.	.	.	.	.	.	.	.	.	.	.	.
!	!	!	!	!	!	!	!	!	!LO:MO:mod=lo-	!	!	!	!	!	!	!	!	!	!	!	!	!	!	!	!	!	!
4E\	.	.	.	.	.	.	.	4G#X\	Lo-	.	8c\L	lo-	.	.	.	.	.	.	.	.	.	.	.	.	.	.	.
.	.	.	.	.	.	.	.	.	.	.	8B\J	.	.	.	.	.	.	.	.	.	.	.	.	.	.	.	.
=61	=61	=61	=61	=61	=61	=61	=61	=61	=61	=61	=61	=61	=61	=61	=61	=61	=61	=61	=61	=61	=61	=61	=61	=61	=61	=61	=61
*tremolo	*	*	*	*	*	*	*	*	*	*	*	*	*	*	*	*	*	*	*	*	*	*	*	*	*	*	*
8A\L	.	.	.	.	.	.	.	4.A\	-cu-	.	4.c\	-cu-	.	.	.	.	.	.	.	.	.	.	.	.	.	.	.
8A\	.	.	.	.	.	.	.	.	.	.	.	.	.	.	.	.	.	.	.	.	.	.	.	.	.	.	.
8A\	.	.	.	.	.	.	.	.	.	.	.	.	.	.	.	.	.	.	.	.	.	.	.	.	.	.	.
8A\J	.	.	.	.	.	.	.	8A\	-tus	.	8c\	-tuſ	.	.	.	.	.	.	.	.	.	.	.	.	.	.	.
8F\L	.	.	.	.	.	.	.	2A\	eſt	.	2c\	eſt	.	.	.	.	.	.	.	.	.	.	.	.	.	.	.
8F\	.	.	.	.	.	.	.	.	.	.	.	.	.	.	.	.	.	.	.	.	.	.	.	.	.	.	.
8F\	.	.	.	.	.	.	.	.	.	.	.	.	.	.	.	.	.	.	.	.	.	.	.	.	.	.	.
8F\J	.	.	.	.	.	.	.	.	.	.	.	.	.	.	.	.	.	.	.	.	.	.	.	.	.	.	.
=62	=62	=62	=62	=62	=62	=62	=62	=62	=62	=62	=62	=62	=62	=62	=62	=62	=62	=62	=62	=62	=62	=62	=62	=62	=62	=62	=62
8D\L	.	.	.	.	.	.	.	4A\	per	.	4B\	per	.	.	.	.	.	.	.	.	.	.	.	.	.	.	.
8D\	.	.	.	.	.	.	.	.	.	.	.	.	.	.	.	.	.	.	.	.	.	.	.	.	.	.	.
8D\	.	.	.	.	.	.	.	4A\	Pro-	.	4B\	Pro-	.	.	.	.	.	.	.	.	.	.	.	.	.	.	.
8D\J	.	.	.	.	.	.	.	.	.	.	.	.	.	.	.	.	.	.	.	.	.	.	.	.	.	.	.
8E\L	.	.	.	.	.	.	.	4A\	-phe-	.	2B\	-phe-	.	.	.	.	.	.	.	.	.	.	.	.	.	.	.
8E\	.	.	.	.	.	.	.	.	.	.	.	.	.	.	.	.	.	.	.	.	.	.	.	.	.	.	.
8E\	.	.	.	.	.	.	.	4G#X\	.	.	.	.	.	.	.	.	.	.	.	.	.	.	.	.	.	.	.
8E\J	.	.	.	.	.	.	.	.	.	.	.	.	.	.	.	.	.	.	.	.	.	.	.	.	.	.	.
*Xtremolo	*	*	*	*	*	*	*	*	*	*	*	*	*	*	*	*	*	*	*	*	*	*	*	*	*	*	*
=63	=63	=63	=63	=63	=63	=63	=63	=63	=63	=63	=63	=63	=63	=63	=63	=63	=63	=63	=63	=63	=63	=63	=63	=63	=63	=63	=63
4AA/	.	.	.	00r	.	00r	.	4A\	-tas	.	4A\	-tas	.	00r	.	.	00r	.	.	.	.	.	.	.	.	.	.
4r	.	.	.	.	.	.	.	4r	.	.	4r	.	.	.	.	.	.	.	.	.	.	.	.	.	.	.	.
!	!	!	!	!	!	!	!	!LO:LB:g=original	!	!	!	!	!	!	!	!	!	!	!	!	!	!	!	!	!	!	!
4r	.	.	.	.	.	.	.	2r	.	.	2r	.	.	.	.	.	.	.	.	.	.	.	.	.	.	.	.
!	!LO:DY:a:t=p&colon;p.	!	!	!	!	!	!	!	!	!	!	!	!	!	!	!	!	!	!	!	!	!	!	!	!	!	!
4C#X/	pp	.	.	.	.	.	.	.	.	.	.	.	.	.	.	.	.	.	.	.	.	.	.	.	.	.	.
=64	=64	=64	=64	=64	=64	=64	=64	=64	=64	=64	=64	=64	=64	=64	=64	=64	=64	=64	=64	=64	=64	=64	=64	=64	=64	=64	=64
!	!	!	!	!	!	!	!	!LO:TX:a:t=6:mod=	!	!	!LO:TX:a:t=6:mod=	!	!	!	!	!	!	!	!	!	!	!	!	!	!	!	!
4D\	.	00r	.	.	.	.	.	00r	.	.	00r	.	.	.	.	.	.	.	.	00r	.	00r	.	00r	.	00r	.
4E\	.	.	.	.	.	.	.	.	.	.	.	.	.	.	.	.	.	.	.	.	.	.	.	.	.	.	.
4F\	.	.	.	.	.	.	.	.	.	.	.	.	.	.	.	.	.	.	.	.	.	.	.	.	.	.	.
4F#X\	.	.	.	.	.	.	.	.	.	.	.	.	.	.	.	.	.	.	.	.	.	.	.	.	.	.	.
=65	=65	=65	=65	=65	=65	=65	=65	=65	=65	=65	=65	=65	=65	=65	=65	=65	=65	=65	=65	=65	=65	=65	=65	=65	=65	=65	=65
4G\	.	.	.	.	.	.	.	.	.	.	.	.	.	.	.	.	.	.	.	.	.	.	.	.	.	.	.
4r	.	.	.	.	.	.	.	.	.	.	.	.	.	.	.	.	.	.	.	.	.	.	.	.	.	.	.
4r	.	.	.	.	.	.	.	.	.	.	.	.	.	.	.	.	.	.	.	.	.	.	.	.	.	.	.
4B\	.	.	.	.	.	.	.	.	.	.	.	.	.	.	.	.	.	.	.	.	.	.	.	.	.	.	.
=66	=66	=66	=66	=66	=66	=66	=66	=66	=66	=66	=66	=66	=66	=66	=66	=66	=66	=66	=66	=66	=66	=66	=66	=66	=66	=66	=66
4c\	.	.	.	.	.	.	.	.	.	.	.	.	.	.	.	.	.	.	.	.	.	.	.	.	.	.	.
4A\	.	.	.	.	.	.	.	.	.	.	.	.	.	.	.	.	.	.	.	.	.	.	.	.	.	.	.
4F\	.	.	.	.	.	.	.	.	.	.	.	.	.	.	.	.	.	.	.	.	.	.	.	.	.	.	.
4G\	.	.	.	.	.	.	.	.	.	.	.	.	.	.	.	.	.	.	.	.	.	.	.	.	.	.	.
=67	=67	=67	=67	=67	=67	=67	=67	=67	=67	=67	=67	=67	=67	=67	=67	=67	=67	=67	=67	=67	=67	=67	=67	=67	=67	=67	=67
4E/	.	.	.	0r	.	0r	.	.	.	.	.	.	.	0r	.	.	0r	.	.	.	.	.	.	.	.	.	.
4C/	.	.	.	.	.	.	.	.	.	.	.	.	.	.	.	.	.	.	.	.	.	.	.	.	.	.	.
4BB/	.	.	.	.	.	.	.	.	.	.	.	.	.	.	.	.	.	.	.	.	.	.	.	.	.	.	.
4GG/	.	.	.	.	.	.	.	.	.	.	.	.	.	.	.	.	.	.	.	.	.	.	.	.	.	.	.
=68	=68	=68	=68	=68	=68	=68	=68	=68	=68	=68	=68	=68	=68	=68	=68	=68	=68	=68	=68	=68	=68	=68	=68	=68	=68	=68	=68
4C/	.	1r	.	.	.	.	.	0r	.	.	0r	.	.	.	.	.	.	.	.	1r	.	1r	.	0r	.	0r	.
4A\	.	.	.	.	.	.	.	.	.	.	.	.	.	.	.	.	.	.	.	.	.	.	.	.	.	.	.
4F\	.	.	.	.	.	.	.	.	.	.	.	.	.	.	.	.	.	.	.	.	.	.	.	.	.	.	.
4G\	.	.	.	.	.	.	.	.	.	.	.	.	.	.	.	.	.	.	.	.	.	.	.	.	.	.	.
=69	=69	=69	=69	=69	=69	=69	=69	=69	=69	=69	=69	=69	=69	=69	=69	=69	=69	=69	=69	=69	=69	=69	=69	=69	=69	=69	=69
!LO:TX:t=P:problem=mixed beam	!LO:DY:a:t=f&colon;	!LO:TX:t=P:problem=brak 1 taktu pauzy	!	!	!	!	!	!	!	!	!	!	!	!	!	!	!	!	!	!LO:TX:t=P:pion:problem	!	!LO:TX:t=P:pion:problem	!	!	!	!	!
!	!	!LO:MO:mod=1r	!	!	!	!	!	!	!	!	!	!	!	!	!	!	!	!	!	!LO:MO:mod=1r	!	!LO:MO:mod=1r	!	!	!	!	!
8C/L	f	1ryy	.	1r	.	1r	.	.	.	.	.	.	.	1r	.	.	1r	.	.	1ryy	.	1ryy	.	.	.	.	.
8c\	.	.	.	.	.	.	.	.	.	.	.	.	.	.	.	.	.	.	.	.	.	.	.	.	.	.	.
8e\	.	.	.	.	.	.	.	.	.	.	.	.	.	.	.	.	.	.	.	.	.	.	.	.	.	.	.
*custos	*	*	*	*	*	*	*	*	*	*	*	*	*	*	*	*	*	*	*	*	*	*	*	*	*	*	*
8c\J	.	.	.	.	.	.	.	.	.	.	.	.	.	.	.	.	.	.	.	.	.	.	.	.	.	.	.
!LO:LB:g=original	!	!	!	!	!	!	!	!	!	!	!	!	!	!	!	!	!	!	!	!	!	!	!	!	!	!	!
8G\L	.	.	.	.	.	.	.	.	.	.	.	.	.	.	.	.	.	.	.	.	.	.	.	.	.	.	.
8c\	.	.	.	.	.	.	.	.	.	.	.	.	.	.	.	.	.	.	.	.	.	.	.	.	.	.	.
8E\	.	.	.	.	.	.	.	.	.	.	.	.	.	.	.	.	.	.	.	.	.	.	.	.	.	.	.
8G\J	.	.	.	.	.	.	.	.	.	.	.	.	.	.	.	.	.	.	.	.	.	.	.	.	.	.	.
!	!	!LO:LB:g=original	!	!	!	!	!	!	!	!	!	!	!	!LO:LB:g=original	!	!	!	!	!	!	!	!	!	!	!	!	!
=70	=70	=70	=70	=70	=70	=70	=70	=70	=70	=70	=70	=70	=70	=70	=70	=70	=70	=70	=70	=70	=70	=70	=70	=70	=70	=70	=70
!	!	!	!LO:MO:null:mod=!LO&colon;DY&colon;ed=brack	!	!	!	!	!LO:MO:mod=!LO&colon;TX&colon;i&colon;t=Tutti	!	!	!LO:MO:mod=!LO&colon;TX&colon;i&colon;t=Tutti	!	!LO:MO:null:mod=!LO&colon;DY&colon;ed=brack	!LO:MO:mod=!LO&colon;TX&colon;i&colon;t=Tutti	!	!LO:MO:null:mod=!LO&colon;DY&colon;ed=brack	!LO:MO:mod=!LO&colon;TX&colon;i&colon;t=Tutti	!	!LO:MO:null:mod=!LO&colon;DY&colon;ed=brack	!	!	!	!	!	!	!	!
!	!	!	!	!	!LO:DY:a:t=f&colon;	!	!LO:DY:a:t=for&colon;	!LO:TX:a:t=T.	!	!LO:DY:a:t=for&colon;	!LO:TX:a:t=T.	!	!	!LO:TX:a:t=T.	!	!	!LO:TX:a:t=T.	!	!	!	!	!	!	!LO:TX:t=P:problem=brak taktu/pauzy	!	!LO:TX:t=P:problem=brak taktu/pauzy	!
!	!	!	!LO:MO:null:mod=f	!	!	!	!	!	!	!	!	!	!LO:MO:null:mod=f	!	!	!LO:MO:null:mod=f	!	!	!LO:MO:null:mod=f	!	!	!	!	!LO:MO:mod=2c@	!	!LO:MO:mod=2c@	!
2C/	.	2c\	.	2c/	f	2c/	f	2C/	Et	f	2C/	Et	.	2c\	Et	.	2c/	Et	.	2c/	.	2c/	.	1ryy	.	1ryy	.
!	!	!	!	!	!	!	!	!	!	!	!	!	!	!	!	!	!	!	!	!	!	!	!	!LO:MO:null:mod=4e@	!	!LO:MO:null:mod=4e@	!
4E\	.	4e\	.	4e/	.	4e/	.	4E\	u-	.	4E/	u-	.	4e\	u-	.	4e/	u-	.	4e/	.	4e/	.	.	.	.	.
!	!	!	!	!	!	!	!	!	!	!	!	!	!	!	!	!	!	!	!	!	!	!	!	!LO:MO:null:mod=4g@	!	!LO:MO:null:mod=4g@	!
4G\	.	4g\	.	4g/	.	4g/	.	4G\	-nam	.	4G/	-nam	.	4g\	-nam	.	4g/	-nam	.	4g/	.	4g/	.	.	.	.	.
!	!	!	!	!	!	!	!	!	!	!	!	!	!	!	!	!	!	!	!	!	!	!	!	!LO:LB:g=original	!	!	!
=71	=71	=71	=71	=71	=71	=71	=71	=71	=71	=71	=71	=71	=71	=71	=71	=71	=71	=71	=71	=71	=71	=71	=71	=71	=71	=71	=71
!	!	!	!	!	!	!	!	!	!LO:MO:mod=san-	!	!	!	!	!	!LO:MO:mod=san-	!	!	!	!	!	!	!	!	!	!	!	!
4c\	.	4c/	.	8cc\L	.	8cc\L	.	4C/	Sanc-	.	4c\	ſan-	.	4g\	s(a)n(c)-	.	4cc\	san-	.	4cc\	.	4cc\	.	4e/	.	4cc\	.
.	.	.	.	16dd\L	.	16dd\L	.	.	.	.	.	.	.	.	.	.	.	.	.	.	.	.	.	.	.	.	.
.	.	.	.	16ee\JJ	.	16ee\JJ	.	.	.	.	.	.	.	.	.	.	.	.	.	.	.	.	.	.	.	.	.
!	!	!	!	!	!	!	!	!	!LO:MO:mod=-ctam	!	!	!	!	!	!LO:MO:mod=-ctam	!	!	!	!	!	!	!	!	!	!	!	!
4B\	.	4B/	.	4dd\	.	4dd\	.	4BB/	-tam	.	4B\	-ctam	.	4g\	-tam	.	4dd\	-ctam	.	4g/	.	4dd\	.	4g/	.	4dd\	.
8r	.	8r	.	8r	.	8r	.	8r	.	.	8r	.	.	8r	.	.	8r	.	.	8r	.	8r	.	8r	.	8r	.
*	*	*	*	*	*	*	*	*	*ij	*	*	*ij	*	*	*	*	*	*	*	*	*	*	*	*	*	*	*
!	!	!LO:TX:t=P:problem=mixed beam	!	!	!	!	!	!	!LO:MO:mod=san-	!	!	!	!	!	!LO:MO:mod=san-	!	!	!LO:MO:mod=san-	!	!	!	!	!	!	!	!	!
8c\L	.	8g\L	.	8ee\	.	8ee\	.	8c\	Sanc-	.	8c\	ſan-	.	8g\	s(a)n(c)-	.	8ee\	s(a)n(c)-	.	8g/L	.	8ee\L	.	8g/L	.	8ee\L	.
.	.	.	.	.	.	8qgg/	.	.	.	.	.	.	.	.	.	.	.	.	.	.	.	.	.	.	.	.	.
!	!	!	!	!	!	!	!	!	!LO:MO:mod=-ctam	!	!	!	!	!	!LO:MO:mod=-ctam	!	!	!LO:MO:mod=-ctam	!	!	!	!	!	!	!	!	!
8A\	.	8c/	.	8ff\L	.	8ff\L	.	8A\	-tam	.	8c\	-ctam	.	8f\	-tam	.	8ff\	-tam	.	8cc/	.	8ff\	.	8f/	.	8ff\	.
*	*	*	*	*	*	*	*	*	*Xij	*	*	*Xij	*	*	*	*	*	*	*	*	*	*	*	*	*	*	*
*	*	*	*	*	*	*	*	*	*	*	*custos:d	*	*	*	*	*	*custos:cc	*	*	*	*	*	*	*	*	*	*
!	!	!	!	!	!	!	!	!	!LO:MO:mod=ca-	!	!	!LO:MO:mod=ca-	!	!	!	!	!	!	!	!	!	!	!	!	!	!	!
8F\J	.	8a\J	.	16ee\L	.	16ee\L	.	8F\	Ca-	.	8d\	Ca-	.	8a\	ca-	.	8dd\	ca-	.	8cc/J	.	8dd\J	.	8a/J	.	8dd\J	.
*	*	*	*	*custos:cc	*	*	*	*	*	*	*	*	*	*	*	*	*	*	*	*	*	*	*	*	*	*	*
.	.	.	.	16dd\JJ	.	16dd\JJ	.	.	.	.	.	.	.	.	.	.	.	.	.	.	.	.	.	.	.	.	.
!	!	!	!	!LO:LB:g=original	!	!	!	!	!	!	!LO:LB:g=original	!	!	!	!	!	!LO:LB:g=original	!	!	!	!	!	!	!	!	!	!
=72	=72	=72	=72	=72	=72	=72	=72	=72	=72	=72	=72	=72	=72	=72	=72	=72	=72	=72	=72	=72	=72	=72	=72	=72	=72	=72	=72
.	.	.	.	.	.	8qcc/	.	.	.	.	.	.	.	.	.	.	.	.	.	.	.	.	.	.	.	.	.
8G\L	.	4g\	.	16cc\LL	.	8b\L	.	8G\	-tho-	.	8d\	-tho-	.	8g\	-to-	.	8cc\	-to-	.	4g/	.	4dd\	.	4d/	.	8cc\L	.
.	.	.	.	16b\	.	.	.	.	.	.	.	.	.	.	.	.	.	.	.	.	.	.	.	.	.	.	.
8F\	.	.	.	16a\	.	16a\L	.	8F\	-li-	.	8d\	-li-	.	8g\	-li-	.	8b\	-li-	.	.	.	.	.	.	.	8b\J	.
.	.	.	.	16b\JJ	.	16b\JJ	.	.	.	.	.	.	.	.	.	.	.	.	.	.	.	.	.	.	.	.	.
!	!	!LO:TX:a:t=g:mod=	!	!	!	!	!	!	!	!	!	!	!	!	!	!	!	!	!	!	!	!	!	!	!	!	!
8E\	.	8g\L	.	4cc\	.	4cc\	.	4E\	-cam	.	4e\	-cam	.	4g\	-cam	.	4cc\	-cam	.	4c/	.	4cc\	.	8g/L	.	4cc\	.
8D\J	.	8f\J	.	.	.	.	.	.	.	.	.	.	.	.	.	.	.	.	.	.	.	.	.	8f/J	.	.	.
*tremolo	*	*tremolo	*	*	*	*	*	*	*	*	*	*	*	*	*	*	*	*	*	*	*	*	*	*	*	*	*
8C/L	.	8e\L	.	2r	.	16cc\LL	.	2C/	et	.	2c\	et	.	2g\	et	.	2ee\	et	.	4e/	.	4cc\	.	4e/	.	2ee\	.
.	.	.	.	.	.	16ccc\	.	.	.	.	.	.	.	.	.	.	.	.	.	.	.	.	.	.	.	.	.
8C/	.	8e\	.	.	.	16bb\	.	.	.	.	.	.	.	.	.	.	.	.	.	.	.	.	.	.	.	.	.
.	.	.	.	.	.	16ccc\JJ	.	.	.	.	.	.	.	.	.	.	.	.	.	.	.	.	.	.	.	.	.
8C/	.	8e\	.	.	.	16ddd\LL	.	.	.	.	.	.	.	.	.	.	.	.	.	8e/L	.	8cc\L	.	4g/	.	.	.
.	.	.	.	.	.	16ccc\	.	.	.	.	.	.	.	.	.	.	.	.	.	.	.	.	.	.	.	.	.
8C/J	.	8e\J	.	.	.	16bb\	.	.	.	.	.	.	.	.	.	.	.	.	.	8e/J	.	8cc\J	.	.	.	.	.
.	.	.	.	.	.	16aa\JJ	.	.	.	.	.	.	.	.	.	.	.	.	.	.	.	.	.	.	.	.	.
=73	=73	=73	=73	=73	=73	=73	=73	=73	=73	=73	=73	=73	=73	=73	=73	=73	=73	=73	=73	=73	=73	=73	=73	=73	=73	=73	=73
8BB/L	.	8d\L	.	2r	.	8gg\L	.	4BB/	a-	.	4d\	a-	.	4g\	a-	.	4dd\	a-	.	4g/	.	4dd\	.	4g/	.	4dd\	.
8BB/	.	8d\	.	.	.	16aa\L	.	.	.	.	.	.	.	.	.	.	.	.	.	.	.	.	.	.	.	.	.
.	.	.	.	.	.	16gg\JJ	.	.	.	.	.	.	.	.	.	.	.	.	.	.	.	.	.	.	.	.	.
8BB/	.	8d\	.	.	.	16gg\LL	.	4BB/	-po-	.	4d\	-po-	.	4g\	-pos-	.	4dd\	-pos-	.	8g/L	.	8dd\L	.	4dd\	.	8gg\L	.
.	.	.	.	.	.	16ff\	.	.	.	.	.	.	.	.	.	.	.	.	.	.	.	.	.	.	.	.	.
8BB/J	.	8d\J	.	.	.	16ee\	.	.	.	.	.	.	.	.	.	.	.	.	.	8g/J	.	8dd\J	.	.	.	8ff\J	.
.	.	.	.	.	.	16dd\JJ	.	.	.	.	.	.	.	.	.	.	.	.	.	.	.	.	.	.	.	.	.
8C/L	.	8e\L	.	16ee\LL	.	4ee\	.	4.C/	-ſto-	.	4c\	-ſto-	.	4g\	-to-	.	4ee\	-to-	.	4cc\	.	4ee\	.	2cc\	.	4ee\	.
.	.	.	.	16cc\	.	.	.	.	.	.	.	.	.	.	.	.	.	.	.	.	.	.	.	.	.	.	.
8C/	.	8e\	.	16b\	.	.	.	.	.	.	.	.	.	.	.	.	.	.	.	.	.	.	.	.	.	.	.
.	.	.	.	16cc\JJ	.	.	.	.	.	.	.	.	.	.	.	.	.	.	.	.	.	.	.	.	.	.	.
8C/	.	8e\	.	16dd\LL	.	4r	.	.	.	.	4c\	-li-	.	4g\	-li-	.	4ee\	-li-	.	4r	.	4r	.	.	.	4ee\	.
.	.	.	.	16cc\	.	.	.	.	.	.	.	.	.	.	.	.	.	.	.	.	.	.	.	.	.	.	.
8C/J	.	8e\J	.	16b\	.	.	.	8C/	-li-	.	.	.	.	.	.	.	.	.	.	.	.	.	.	.	.	.	.
.	.	.	.	16a\JJ	.	.	.	.	.	.	.	.	.	.	.	.	.	.	.	.	.	.	.	.	.	.	.
=74	=74	=74	=74	=74	=74	=74	=74	=74	=74	=74	=74	=74	=74	=74	=74	=74	=74	=74	=74	=74	=74	=74	=74	=74	=74	=74	=74
8BB/L	.	8d\L	.	8g/L	.	2r	.	4BB/	-cam	.	4d\	-cam	.	4g\	-cam	.	4dd\	-cam	.	4g/	.	4dd\	.	4g/	.	4dd\	.
8BB/	.	8d\	.	16a/L	.	.	.	.	.	.	.	.	.	.	.	.	.	.	.	.	.	.	.	.	.	.	.
.	.	.	.	16g/JJ	.	.	.	.	.	.	.	.	.	.	.	.	.	.	.	.	.	.	.	.	.	.	.
8BB/	.	8d\	.	16g/LL	.	.	.	4BB/	Ec-	.	4d\	Ec-	.	4g\	Ec-	.	4dd\	Ec-	.	4r	.	4r	.	4dd\	.	8gg\L	.
.	.	.	.	16f/	.	.	.	.	.	.	.	.	.	.	.	.	.	.	.	.	.	.	.	.	.	.	.
8BB/J	.	8d\J	.	16e/	.	.	.	.	.	.	.	.	.	.	.	.	.	.	.	.	.	.	.	.	.	8ff\J	.
.	.	.	.	16d/JJ	.	.	.	.	.	.	.	.	.	.	.	.	.	.	.	.	.	.	.	.	.	.	.
8C/L	.	8e\L	.	4e/	.	16ee\LL	.	8.C/	-cle-	.	8.c\	-cle-	.	8.g\	-cle-	.	8.ee\	-cle-	.	4e/	.	4cc\	.	2cc\	.	2ee\	.
.	.	.	.	.	.	16ccc\	.	.	.	.	.	.	.	.	.	.	.	.	.	.	.	.	.	.	.	.	.
8C/	.	8e\	.	.	.	16bb\	.	.	.	.	.	.	.	.	.	.	.	.	.	.	.	.	.	.	.	.	.
.	.	.	.	.	.	16ccc\JJ	.	16C/	-ſi-	.	16c\	-ſi-	.	16g\	-si-	.	16ee\	-si-	.	.	.	.	.	.	.	.	.
8C/	.	8e\	.	4r	.	16ddd\LL	.	8C/	-am	.	8c\	-am	.	8g\	-am	.	8ee\	-am	.	8e/L	.	8cc\L	.	.	.	.	.
.	.	.	.	.	.	16ccc\	.	.	.	.	.	.	.	.	.	.	.	.	.	.	.	.	.	.	.	.	.
!	!	!	!	!	!	!	!	!LO:LB:g=original	!	!	!	!	!	!	!	!	!	!	!	!	!	!	!	!	!	!	!
8C/J	.	8e\J	.	.	.	16bb\	.	8C/	con-	.	8c\	con-	.	8g\	con-	.	8ee\	con-	.	8e/J	.	8cc\J	.	.	.	.	.
*	*	*	*	*	*	*custos:gg	*	*	*	*	*	*	*	*	*	*	*	*	*	*	*	*	*	*	*	*	*
.	.	.	.	.	.	16aa\JJ	.	.	.	.	.	.	.	.	.	.	.	.	.	.	.	.	.	.	.	.	.
!	!	!	!	!	!	!LO:LB:g=original	!	!	!	!	!	!	!	!	!	!	!	!	!	!	!	!	!	!	!	!	!
=75	=75	=75	=75	=75	=75	=75	=75	=75	=75	=75	=75	=75	=75	=75	=75	=75	=75	=75	=75	=75	=75	=75	=75	=75	=75	=75	=75
8BB/L	.	8d\L	.	2r	.	8gg\L	.	4BB/	-fi-	.	4d\	-fi-	.	4g\	-fi-	.	4dd\	-fi-	.	4g/	.	4dd\	.	4g/	.	4dd\	.
8BB/	.	8d\	.	.	.	16aa\L	.	.	.	.	.	.	.	.	.	.	.	.	.	.	.	.	.	.	.	.	.
.	.	.	.	.	.	16gg\JJ	.	.	.	.	.	.	.	.	.	.	.	.	.	.	.	.	.	.	.	.	.
8BB/	.	8d\	.	.	.	16gg\LL	.	8BB/	-te-	.	8d\	-te-	.	8g\	-te-	.	8dd\	-te-	.	8g/L	.	4dd\	.	4dd\	.	8gg\L	.
.	.	.	.	.	.	16ff\	.	.	.	.	.	.	.	.	.	.	.	.	.	.	.	.	.	.	.	.	.
8BB/J	.	8d\J	.	.	.	16ee\	.	8BB/	-or	.	8d\	-or	.	8g\	-or	.	8dd\	-or	.	8g/J	.	.	.	.	.	8ff\J	.
.	.	.	.	.	.	16dd\JJ	.	.	.	.	.	.	.	.	.	.	.	.	.	.	.	.	.	.	.	.	.
8C/L	.	8e\L	.	16ee\LL	.	4ee\	.	4C/	u-	.	4c\	u-	.	4g\	u-	.	4ee\	u-	.	4cc\	.	4ee\	.	2cc\	.	4ee\	.
.	.	.	.	16cc\	.	.	.	.	.	.	.	.	.	.	.	.	.	.	.	.	.	.	.	.	.	.	.
8C/	.	8e\	.	16b\	.	.	.	.	.	.	.	.	.	.	.	.	.	.	.	.	.	.	.	.	.	.	.
.	.	.	.	16cc\JJ	.	.	.	.	.	.	.	.	.	.	.	.	.	.	.	.	.	.	.	.	.	.	.
8C/	.	8e\	.	16dd\LL	.	4r	.	8C/	-num	.	8c\	-num	.	8g\	-num	.	8ee\	-num	.	4r	.	4r	.	.	.	4ee\	.
.	.	.	.	16cc\	.	.	.	.	.	.	.	.	.	.	.	.	.	.	.	.	.	.	.	.	.	.	.
!	!	!	!	!	!	!	!	!	!LO:MO:mod=ba-	!	!	!LO:MO:mod=ba-	!	!LO:LB:g=original	!LO:MO:mod=ba-	!	!	!LO:MO:mod=ba-	!	!	!	!	!	!	!	!	!
8C/J	.	8e\J	.	16b\	.	.	.	8C/	Bap-	.	8c\	Ba-	.	8g\	Ba-	.	8ee\	bap-	.	.	.	.	.	.	.	.	.
.	.	.	.	16a\JJ	.	.	.	.	.	.	.	.	.	.	.	.	.	.	.	.	.	.	.	.	.	.	.
!	!	!	!	!	!	!	!	!	!	!	!	!	!	!	!	!	!	!	!	!LO:LB:g=original	!	!LO:LB:g=original	!	!	!	!	!
=76	=76	=76	=76	=76	=76	=76	=76	=76	=76	=76	=76	=76	=76	=76	=76	=76	=76	=76	=76	=76	=76	=76	=76	=76	=76	=76	=76
!	!	!	!	!	!	!	!	!	!LO:MO:mod=-ptis-	!	!	!	!	!	!LO:MO:mod=-ptis-	!	!	!LO:MO:mod=-ptis-	!	!	!	!	!	!	!	!	!
8BB/L	.	8d\L	.	8g/L	.	2r	.	4BB/	-tiſ-	.	4d\	-ptiſ-	.	4g\	-pti-	.	4dd\	-tis-	.	4g/	.	4dd\	.	2g/	.	4dd\	.
8BB/	.	8d\	.	16a/L	.	.	.	.	.	.	.	.	.	.	.	.	.	.	.	.	.	.	.	.	.	.	.
.	.	.	.	16g/JJ	.	.	.	.	.	.	.	.	.	.	.	.	.	.	.	.	.	.	.	.	.	.	.
8BB/	.	8d\	.	16g/LL	.	.	.	4B\	-ma	.	4d\	-ma	.	4g\	-ma	.	4dd\	-ma	.	4r	.	4r	.	.	.	8gg\L	.
.	.	.	.	16f/	.	.	.	.	.	.	.	.	.	.	.	.	.	.	.	.	.	.	.	.	.	.	.
8BB/J	.	8d\J	.	16e/	.	.	.	.	.	.	.	.	.	.	.	.	.	.	.	.	.	.	.	.	.	8ff\J	.
.	.	.	.	16d/JJ	.	.	.	.	.	.	.	.	.	.	.	.	.	.	.	.	.	.	.	.	.	.	.
*Xtremolo	*	*Xtremolo	*	*	*	*	*	*	*	*	*	*	*	*	*	*	*	*	*	*	*	*	*	*	*	*	*
!LO:TX:t=P:problem=mixed beam	!	!	!	!LO:TX:t=P:problem=mixed beam	!	!	!	!	!	!	!	!	!	!	!	!	!	!	!	!	!	!	!	!	!	!	!
8C/L	.	8g\L	.	8e/L	.	16ee\LL	.	4c\	in	.	4e\	in	.	4g\	in	.	4cc\	in	.	4c/	.	4cc\	.	2cc\	.	4ee\	.
.	.	.	.	.	.	16cc\	.	.	.	.	.	.	.	.	.	.	.	.	.	.	.	.	.	.	.	.	.
8c\	.	8g\	.	8ee\J	.	16ee\	.	.	.	.	.	.	.	.	.	.	.	.	.	.	.	.	.	.	.	.	.
.	.	.	.	.	.	16cc\JJ	.	.	.	.	.	.	.	.	.	.	.	.	.	.	.	.	.	.	.	.	.
*	*	*	*	*	*	*	*	*	*	*	*	*	*	*	*	*	*custos:cc	*	*	*	*	*	*	*	*	*	*
8A\	.	8f\	.	16ff\LL	.	16ff\LL	.	4A\	re-	.	4f\	re-	.	4f\	re-	.	4cc\	re-	.	8c/L	.	8cc\L	.	.	.	4ff\	.
.	.	.	.	16cc\	.	16cc\	.	.	.	.	.	.	.	.	.	.	.	.	.	.	.	.	.	.	.	.	.
8A\J	.	8f\J	.	16ff\	.	16ff\	.	.	.	.	.	.	.	.	.	.	.	.	.	8c/J	.	8cc\J	.	.	.	.	.
.	.	.	.	16cc\JJ	.	16cc\JJ	.	.	.	.	.	.	.	.	.	.	.	.	.	.	.	.	.	.	.	.	.
!	!	!	!	!	!	!	!	!	!	!	!	!	!	!	!	!	!LO:LB:g=original	!	!	!	!	!	!	!	!	!	!
=77	=77	=77	=77	=77	=77	=77	=77	=77	=77	=77	=77	=77	=77	=77	=77	=77	=77	=77	=77	=77	=77	=77	=77	=77	=77	=77	=77
*	*	*tremolo	*	*	*	*	*	*	*	*	*	*	*	*	*	*	*	*	*	*	*	*	*	*	*	*	*
8E\L	.	8c/L	.	16gg\LL	.	16gg\LL	.	4E\	-miſ-	.	4c\	-miſ-	.	4g\	-miſ-	.	4cc\	-mis-	.	2c/	.	2cc\	.	2cc\	.	4gg\	.
.	.	.	.	16cc\	.	16cc\	.	.	.	.	.	.	.	.	.	.	.	.	.	.	.	.	.	.	.	.	.
8E\	.	8c/	.	16gg\	.	16gg\	.	.	.	.	.	.	.	.	.	.	.	.	.	.	.	.	.	.	.	.	.
.	.	.	.	16cc\JJ	.	16cc\JJ	.	.	.	.	.	.	.	.	.	.	.	.	.	.	.	.	.	.	.	.	.
8F\	.	8c/	.	16aa\LL	.	16aa\LL	.	4F\	-si-	.	4c\	-si-	.	4a\	-si-	.	4cc\	-si-	.	.	.	.	.	.	.	4aa\	.
.	.	.	.	16cc\	.	16cc\	.	.	.	.	.	.	.	.	.	.	.	.	.	.	.	.	.	.	.	.	.
*custos:c	*	*	*	*	*	*	*	*	*	*	*	*	*	*	*	*	*	*	*	*	*	*	*	*	*	*	*
8F\J	.	8c/J	.	16aa\	.	16aa\	.	.	.	.	.	.	.	.	.	.	.	.	.	.	.	.	.	.	.	.	.
.	.	.	.	16cc\JJ	.	16cc\JJ	.	.	.	.	.	.	.	.	.	.	.	.	.	.	.	.	.	.	.	.	.
!LO:LB:g=original	!	!	!	!	!	!	!	!	!	!	!LO:LB:g=original	!	!	!	!	!	!	!	!	!	!	!	!	!	!	!	!
8c\L	.	8c/L	.	16ee\LL	.	16ee\LL	.	4c\	-o-	.	4e\	-o-	.	4g\	-o-	.	4cc\	-o-	.	4c/	.	4cc\	.	4cc\	.	4ee\	.
.	.	.	.	16cc\	.	16cc\	.	.	.	.	.	.	.	.	.	.	.	.	.	.	.	.	.	.	.	.	.
8c\	.	8c/	.	16b\	.	16b\	.	.	.	.	.	.	.	.	.	.	.	.	.	.	.	.	.	.	.	.	.
.	.	.	.	16cc\JJ	.	16cc\JJ	.	.	.	.	.	.	.	.	.	.	.	.	.	.	.	.	.	.	.	.	.
8A\	.	8c/	.	16ff\LL	.	16ff\LL	.	4A\	-nem	.	4f\	-nem	.	4f\	-nem	.	4cc\	-nem	.	8c/L	.	8cc\L	.	4cc\	.	4ff\	.
.	.	.	.	16cc\	.	16cc\	.	.	.	.	.	.	.	.	.	.	.	.	.	.	.	.	.	.	.	.	.
8A\J	.	8c/J	.	16b\	.	16b\	.	.	.	.	.	.	.	.	.	.	.	.	.	8c/J	.	8cc\J	.	.	.	.	.
.	.	.	.	16cc\JJ	.	16cc\JJ	.	.	.	.	.	.	.	.	.	.	.	.	.	.	.	.	.	.	.	.	.
*	*	*Xtremolo	*	*	*	*	*	*	*	*	*	*	*	*	*	*	*	*	*	*	*	*	*	*	*	*	*
!	!	!	!	!LO:LB:g=original	!	!	!	!	!	!	!	!	!	!	!	!	!	!	!	!	!	!	!	!	!	!	!
=78	=78	=78	=78	=78	=78	=78	=78	=78	=78	=78	=78	=78	=78	=78	=78	=78	=78	=78	=78	=78	=78	=78	=78	=78	=78	=78	=78
8E\L	.	8g\L	.	16gg\LL	.	16gg\LL	.	4E\	pec-	.	4c\	pec-	.	4g\	pec-	.	4cc\	pec-	.	4c/	.	4cc\	.	2cc\	.	4gg\	.
.	.	.	.	16cc\	.	16cc\	.	.	.	.	.	.	.	.	.	.	.	.	.	.	.	.	.	.	.	.	.
8E\	.	8g\	.	16b\	.	16b\	.	.	.	.	.	.	.	.	.	.	.	.	.	.	.	.	.	.	.	.	.
.	.	.	.	16cc\JJ	.	16cc\JJ	.	.	.	.	.	.	.	.	.	.	.	.	.	.	.	.	.	.	.	.	.
8F\	.	8d\	.	16aa\LL	.	16aa\LL	.	4F\	-ca-	.	4A\	-ca-	.	4a\	-ca-	.	4cc\	-ca-	.	4r	.	4r	.	.	.	4aa\	.
.	.	.	.	16cc\	.	16cc\	.	.	.	.	.	.	.	.	.	.	.	.	.	.	.	.	.	.	.	.	.
8F\J	.	8d\J	.	16b\	.	16b\	.	.	.	.	.	.	.	.	.	.	.	.	.	.	.	.	.	.	.	.	.
.	.	.	.	16cc\JJ	.	16cc\JJ	.	.	.	.	.	.	.	.	.	.	.	.	.	.	.	.	.	.	.	.	.
*	*	*tremolo	*	*	*	*	*	*	*	*	*	*	*	*	*	*	*	*	*	*	*	*	*	*	*	*	*
8G\L	.	8d\L	.	16b\LL	.	16b\LL	.	2G\	-to-	.	2d\	-to-	.	2g\	-to-	.	2b\	-to-	.	8g/L	.	8dd\L	.	4b\	.	4gg\	.
.	.	.	.	16gg\	.	16gg\	.	.	.	.	.	.	.	.	.	.	.	.	.	.	.	.	.	.	.	.	.
8G\	.	8d\	.	16ff#X\	.	16ff#X\	.	.	.	.	.	.	.	.	.	.	.	.	.	16g/L	.	16dd\L	.	.	.	.	.
.	.	.	.	16gg\JJ	.	16gg\JJ	.	.	.	.	.	.	.	.	.	.	.	.	.	16g/JJ	.	16dd\JJ	.	.	.	.	.
8D\	.	8d\	.	16aa\LL	.	16aa\LL	.	.	.	.	.	.	.	.	.	.	.	.	.	8g/L	.	8dd\L	.	4b\	.	4gg\	.
.	.	.	.	16gg\	.	16gg\	.	.	.	.	.	.	.	.	.	.	.	.	.	.	.	.	.	.	.	.	.
*	*	*custos:d	*	*	*	*	*	*	*	*	*	*	*	*	*	*	*	*	*	*	*	*	*	*	*	*	*
!	!	!LO:TX:t=P:problem=custos d ale nastepny dzwiek to g	!	!	!	!	!	!	!	!	!	!	!	!	!	!	!	!	!	!	!	!	!	!	!	!	!
8BB\J	.	8d\J	.	16ff#X\	.	16ff#\	.	.	.	.	.	.	.	.	.	.	.	.	.	8g/J	.	8dd\J	.	.	.	.	.
.	.	.	.	16gg\JJ	.	16gg\JJ	.	.	.	.	.	.	.	.	.	.	.	.	.	.	.	.	.	.	.	.	.
*	*	*Xtremolo	*	*	*	*	*	*	*	*	*	*	*	*	*	*	*	*	*	*	*	*	*	*	*	*	*
!	!	!LO:LB:g=original	!	!	!	!	!	!	!	!	!	!	!	!	!	!	!	!	!	!	!	!	!	!	!	!	!
=79	=79	=79	=79	=79	=79	=79	=79	=79	=79	=79	=79	=79	=79	=79	=79	=79	=79	=79	=79	=79	=79	=79	=79	=79	=79	=79	=79
*	*	*	*	*	*	*	*	*	*	*	*	*	*	*	*^	*	*	*	*	*	*	*	*	*	*	*	*
!LO:TX:t=P:problem=mixed beam	!	!	!	!	!	!	!	!	!	!	!	!	!	!	!	!	!	!	!	!	!	!	!	!	!	!	!	!
8GG/L	.	8g\L	.	4g/	.	4g/	.	4G\	-rum	.	4d\	-rum	.	4g\	-rum	.	.	4b\	-rum	.	4g/	.	4g/	.	4b\	.	4gg\	.
8F\	.	8f\	.	.	.	.	.	.	.	.	.	.	.	.	.	.	.	.	.	.	.	.	.	.	.	.	.	.
!	!	!	!	!	!	!	!LO:DY:a:t=p&colon;	!	!	!	!	!	!	!	!	!	!	!	!	!LO:DY:a:t=pia&colon;	!	!	!	!	!	!	!	!
!	!	!	!	!	!	!	!LO:MO:null:mod=.	!	!	!	!	!	!	!	!	!	!	!	!	!LO:MO:null:mod=.	!	!	!	!	!	!	!	!
8E-X\	.	8e-X\	.	4r	.	4r	p	4r	.	.	4r	.	.	4r	.	.	.	4r	.	p	4r	.	4r	.	4r	.	4r	.
8D\J	.	8d\J	.	.	.	.	.	.	.	.	.	.	.	.	.	.	.	.	.	.	.	.	.	.	.	.	.	.
!	!	!	!	!	!	!	!LO:MO:null:mod=p	!	!	!	!	!	!	!	!	!	!	!	!	!LO:MO:null:mod=p	!	!	!	!	!	!	!	!
4C/	.	4c/	.	2r	.	4ee-X\	.	4r	.	.	4r	.	.	4r	.	.	.	4ee-X\	et	.	2r	.	2r	.	2r	.	2r	.
!	!	!	!	!	!	!	!	!	!	!LO:DY:a:t=p&colon;	!	!	!LO:DY:a:t=p&colon;:rj	!	!	!LO:MO:null:mod=.	!LO:DY:a:t=p&colon;:rj	!	!	!	!	!	!	!	!	!	!	!
4r	.	4r	.	.	.	4cc\	.	4C/	ex-	p	4G/	ex-	p	4e-X\	ex-	[[et]]	p	4cc\	ex-	.	.	.	.	.	.	.	.	.
*	*	*	*	*	*	*	*	*	*	*	*	*	*	*	*v	*v	*	*	*	*	*	*	*	*	*	*	*	*
!	!	!	!	!	!	!	!	!	!	!	!	!	!	!	!	!	!	!	!	!	!	!	!	!	!	!	!LO:LB:g=original
=80	=80	=80	=80	=80	=80	=80	=80	=80	=80	=80	=80	=80	=80	=80	=80	=80	=80	=80	=80	=80	=80	=80	=80	=80	=80	=80	=80
!	!LO:DY:a:t=p&colon;	!	!	!	!LO:DY:a:t=pia&colon;	!LO:TX:a:t=t:mod=	!	!	!	!	!	!	!	!LO:SIC:v:s=4d\	!	!	!	!	!	!	!LO:DY:a:t=p&colon;:rj	!	!LO:DY:a:t=p&colon;:rj	!	!	!LO:TX:a:t=7:mod=	!
!	!	!	!	!	!	!LO:SIC:s=4ccT	!	!	!	!	!	!	!	!	!	!	!	!	!	!	!	!	!	!	!	!	!
4G\	p	2r	.	2d/	p	4cc\	.	4G\	-pe-	.	4G/	-pe-	.	4e\	-spe-	.	4cc\	-pe-	.	4g/	p	4g/	p	00r	.	00r	.
!	!	!	!	!	!	!	!	!	!	!	!	!	!	!	!LO:MO:mod=-cto	!	!LO:SIC:v:s=4bn\	!	!	!	!	!	!	!	!	!	!
4F\	.	.	.	.	.	4bn\	.	4F\	-cto	.	4G/	-cto	.	4d\	-cto,	.	4b\	-cto	.	4r	.	4r	.	.	.	.	.
!	!	!	!LO:DY:a:t=pia&colon;:rj	!	!	!	!	!	!	!	!	!	!	!	!	!	!	!	!	!	!	!	!	!	!	!	!
4E-X\	.	4g\	p	2g/	.	2cc\	.	4E-X\	re-	.	4c\	re-	.	4g\	re-	.	4cc\	re-	.	2r	.	2r	.	.	.	.	.
4C/	.	4e-X\	.	.	.	.	.	4C/	-ſur-	.	4c\	-ſur-	.	4g\	-su-	.	4cc\	-su-	.	.	.	.	.	.	.	.	.
!	!	!	!	!	!	!LO:LB:g=original	!	!LO:LB:g=original	!	!	!	!	!	!	!	!	!	!	!	!	!	!	!	!	!	!	!
=81	=81	=81	=81	=81	=81	=81	=81	=81	=81	=81	=81	=81	=81	=81	=81	=81	=81	=81	=81	=81	=81	=81	=81	=81	=81	=81	=81
4BB/	.	8Bn/	.	8g/	.	8dd\	.	4BBn/	-re-	.	4Bn\	-re-	.	4g\	-re-	.	4dd\	-re-	.	4g/	.	4g/	.	.	.	.	.
.	.	4B/	.	4g/	.	4dd\	.	.	.	.	.	.	.	.	.	.	.	.	.	.	.	.	.	.	.	.	.
4G\	.	.	.	.	.	.	.	4G\	-cti-	.	4B\	-cti-	.	4g\	-xi-	.	4dd\	-xi-	.	4r	.	4r	.	.	.	.	.
.	.	4B/	.	4g/	.	4dd\	.	.	.	.	.	.	.	.	.	.	.	.	.	.	.	.	.	.	.	.	.
4Bn\	.	.	.	.	.	.	.	4B\	-o-	.	4B\	-o-	.	4g\	-o-	.	4dd\	-o-	.	2r	.	2r	.	.	.	.	.
.	.	4B/	.	4g/	.	4dd\	.	.	.	.	.	.	.	.	.	.	.	.	.	.	.	.	.	.	.	.	.
4G\	.	.	.	.	.	.	.	4G\	-nem	.	4B\	-nem	.	4g\	-nem	.	4dd\	-nem	.	.	.	.	.	.	.	.	.
.	.	8B/	.	[8g/	.	8dd\	.	.	.	.	.	.	.	.	.	.	.	.	.	.	.	.	.	.	.	.	.
=82	=82	=82	=82	=82	=82	=82	=82	=82	=82	=82	=82	=82	=82	=82	=82	=82	=82	=82	=82	=82	=82	=82	=82	=82	=82	=82	=82
4c\	.	8c/	.	8g/]	.	8ee-X\	.	4c\	mor-	.	4c\	mor-	.	4g\	mor-	.	4ee-X\	mor-	.	4c/	.	4cc\	.	.	.	.	.
.	.	4c/	.	4g/	.	4ee-\	.	.	.	.	.	.	.	.	.	.	.	.	.	.	.	.	.	.	.	.	.
4C/	.	.	.	.	.	.	.	4C/	-tu-	.	4c\	-tu-	.	4g\	-tu-	.	4ee-\	-tu-	.	4r	.	4r	.	.	.	.	.
.	.	4c/	.	4g/	.	4ee-\	.	.	.	.	.	.	.	.	.	.	.	.	.	.	.	.	.	.	.	.	.
4E-X/	.	.	.	.	.	.	.	4E-X/	-o-	.	2c\	-o-	.	2g\	-o-	.	2ee-\	-o-	.	2r	.	2r	.	.	.	.	.
.	.	4c/	.	4g/	.	4ee-\	.	.	.	.	.	.	.	.	.	.	.	.	.	.	.	.	.	.	.	.	.
4C/	.	.	.	.	.	.	.	4C/	.	.	.	.	.	.	.	.	.	.	.	.	.	.	.	.	.	.	.
.	.	8c/	.	[8g/	.	8ee-\	.	.	.	.	.	.	.	.	.	.	.	.	.	.	.	.	.	.	.	.	.
=83	=83	=83	=83	=83	=83	=83	=83	=83	=83	=83	=83	=83	=83	=83	=83	=83	=83	=83	=83	=83	=83	=83	=83	=83	=83	=83	=83
4G\	.	4B/	.	4g/]	.	4dd\	.	4G\	-rum	.	4B\	-rum	.	4g\	-rum-	.	4dd\	-rum	.	4g/	.	4g/	.	.	.	.	.
!	!	!	!	!	!	!	!	!	!	!	!	!	!	!LO:LB:g=original	!	!	!LO:LB:g=original	!	!	!	!	!	!	!	!	!	!
*	*	*	*	*	*	*	*	*	*	*	*	*	*	*	*	*	*	*^	*	*	*	*	*	*	*	*	*
!	!	!	!	!	!	!	!	!	!	!	!	!	!	!	!	!	!	!	!LO:MO:null:mod=.	!	!	!	!	!	!	!	!	!
4r	.	4r	.	4r	.	4dd\	.	4r	.	.	(4B\	re-	.	2g\	-re-	.	(4dd\	re-	[[et	.	4r	.	4r	.	.	.	.	.
!	!	!	!	!	!	!	!	!	!	!	!	!	!	!	!	!	!	!	!LO:MO:null:mod=.	!	!	!	!	!	!	!	!	!
4r	.	4r	.	4r	.	4gg\	.	4r	.	.	4G/)	.	.	.	.	.	(4gg\)	.	vi-	.	2r	.	2r	.	.	.	.	.
4Bn\	.	4B/	.	4g/	.	4ff\	.	(4Bn\	re-	.	4B\	-ſur-	.	4g\	-sur-	.	4ff\)	-sur-	.	.	.	.	.	.	.	.	.	.
=84	=84	=84	=84	=84	=84	=84	=84	=84	=84	=84	=84	=84	=84	=84	=84	=84	=84	=84	=84	=84	=84	=84	=84	=84	=84	=84	=84	=84
!	!	!	!	!	!	!	!	!	!	!	!	!	!	!	!	!	!	!	!LO:MO:null:mod=.	!	!	!	!	!	!	!	!	!
4c\	.	8c/	.	8g/	.	8ee-X\	.	4c\)	.	.	4c\	-re-	.	4g\	-re-	.	4ee-X\	-re-	-tam	.	4c/	.	4cc\	.	0r	.	0r	.
.	.	4c/	.	4g/	.	4ee-\	.	.	.	.	.	.	.	.	.	.	.	.	.	.	.	.	.	.	.	.	.	.
!	!	!	!	!	!	!	!	!	!	!	!	!	!	!	!	!	!	!	!LO:MO:null:mod=.	!	!	!	!	!	!	!	!	!
4G\	.	.	.	.	.	.	.	4G\	-ſur-	.	4c\	-cti-	.	4g\	-xi-	.	4ee-\	-(cti)-	ven-	.	4r	.	4r	.	.	.	.	.
.	.	4c/	.	4g/	.	4ee-\	.	.	.	.	.	.	.	.	.	.	.	.	.	.	.	.	.	.	.	.	.	.
!	!	!	!	!	!	!	!	!	!	!	!	!	!	!	!	!	!	!	!LO:MO:null:mod=.	!	!	!	!	!	!	!	!	!
4E-X\	.	.	.	.	.	.	.	4E-X\	-re-	.	4c\	-o-	.	4g\	-o-	.	4ee-\	-o-	-tu-	.	2r	.	2r	.	.	.	.	.
.	.	4c/	.	4g/	.	4ee-\	.	.	.	.	.	.	.	.	.	.	.	.	.	.	.	.	.	.	.	.	.	.
!	!	!	!	!	!	!	!	!	!	!	!	!	!	!	!	!	!	!	!LO:MO:null:mod=.	!	!	!	!	!	!	!	!	!
4C/	.	.	.	.	.	.	.	4C/	-cti-	.	4c\	-nem	.	4g\	-nem	.	4ee-\	-nem	-ri	.	.	.	.	.	.	.	.	.
.	.	8c/	.	[8g/	.	8ee-\	.	.	.	.	.	.	.	.	.	.	.	.	.	.	.	.	.	.	.	.	.	.
=85	=85	=85	=85	=85	=85	=85	=85	=85	=85	=85	=85	=85	=85	=85	=85	=85	=85	=85	=85	=85	=85	=85	=85	=85	=85	=85	=85	=85
!	!	!	!	!	!	!	!	!	!	!	!	!	!	!	!	!	!	!	!LO:MO:null:mod=.	!	!	!	!	!	!	!	!	!
4G\	.	4Bn/	.	8g/]	.	4dd\	.	4G\	-o-	.	(4BnX\	mor-	.	2g\	mor-	.	(4dd\	mor-	sae-	.	4g/	.	4g/	.	.	.	.	.
.	.	.	.	4g/	.	.	.	.	.	.	.	.	.	.	.	.	.	.	.	.	.	.	.	.	.	.	.	.
4r	.	4c/	.	.	.	4ee\	.	4C/	-nem	.	4c\)	.	.	.	.	.	4ee\)	.	.	.	4r	.	4r	.	.	.	.	.
.	.	.	.	4g/	.	.	.	.	.	.	.	.	.	.	.	.	.	.	.	.	.	.	.	.	.	.	.	.
!	!	!	!	!	!	!	!	!	!	!	!LO:LB:g=original	!	!	!	!	!	!	!	!LO:MO:null:mod=.	!	!	!	!	!	!	!	!	!
4r	.	4B/	.	.	.	4dd\	.	4G\	mor-	.	4B\	-tu-	.	2g\	-tu-	.	(4dd\	-tu-	-cul-	.	4g/	.	4g/	.	.	.	.	.
.	.	.	.	4g/	.	.	.	.	.	.	.	.	.	.	.	.	.	.	.	.	.	.	.	.	.	.	.	.
*custos:G	*	*	*	*	*	*	*	*	*	*	*	*	*	*	*	*	*	*	*	*	*	*	*	*	*	*	*	*
4C/	.	4c/	.	.	.	4ee\	.	4C/	-tu-	.	4c\	.	.	.	.	.	4ee\)	.	.	.	4r	.	4r	.	.	.	.	.
.	.	.	.	[8g/	.	.	.	.	.	.	.	.	.	.	.	.	.	.	.	.	.	.	.	.	.	.	.	.
!LO:LB:g=original	!	!	!	!	!	!	!	!	!	!	!	!	!	!	!	!	!	!	!	!	!	!	!	!	!	!	!	!
=86	=86	=86	=86	=86	=86	=86	=86	=86	=86	=86	=86	=86	=86	=86	=86	=86	=86	=86	=86	=86	=86	=86	=86	=86	=86	=86	=86	=86
!	!	!	!	!	!	!	!	!	!	!	!	!	!	!	!	!	!	!	!LO:MO:null:mod=.	!	!	!	!	!	!	!	!	!
4G\	.	4c/	.	4g/]	.	4ee\	.	4G\	-o-	.	4c\	-o-	.	4g\	-o-	.	(4ee\	-o-	-li]]	.	4g/	.	4g/	.	1r	.	1r	.
4GG/	.	4B/	.	4g/	.	4dd\	.	4GG/	-rum	.	4B\	-rum	.	4g\	-rum	.	4dd\)	-rum	.	.	4g/	.	4g/	.	.	.	.	.
!	!LO:MO:null:mod=f	!	!LO:DY:a:t=for&colon;	!	!	!	!	!	!	!	!	!	!	!	!	!	!	!	!	!	!	!	!	!	!	!	!	!
8G\L	.	8g\L	f	2r	.	2r	.	2r	.	.	2r	.	.	2r	.	.	2r	.	.	.	4r	.	2r	.	.	.	.	.
8F\	.	8f\	.	.	.	.	.	.	.	.	.	.	.	.	.	.	.	.	.	.	.	.	.	.	.	.	.	.
*	*	*	*	*	*	*	*	*	*	*	*	*	*	*	*	*	*	*	*	*	*custos:e	*	*	*	*	*	*	*
8En\	.	8en\	.	.	.	.	.	.	.	.	.	.	.	.	.	.	.	.	.	.	4r	.	.	.	.	.	.	.
8D\J	.	8d\J	.	.	.	.	.	.	.	.	.	.	.	.	.	.	.	.	.	.	.	.	.	.	.	.	.	.
*	*	*	*	*	*	*	*	*	*	*	*	*	*	*	*	*	*	*v	*v	*	*	*	*	*	*	*	*	*
!	!	!LO:LB:g=original	!	!LO:LB:g=original	!	!	!	!	!	!	!	!	!	!	!	!	!	!	!	!LO:LB:g=original	!	!LO:LB:g=original	!	!	!	!	!
=87	=87	=87	=87	=87	=87	=87	=87	=87	=87	=87	=87	=87	=87	=87	=87	=87	=87	=87	=87	=87	=87	=87	=87	=87	=87	=87	=87
*tremolo	*	*tremolo	*	*	*	*	*	*	*	*	*	*	*	*	*	*	*	*	*	*	*	*	*	*	*	*	*
!	!	!	!	!	!	!	!	!	!	!	!	!	!	!	!	!	!	!	!	!	!LO:MO:null:mod=!LO&colon;DY&colon;ed=brack	!	!LO:MO:null:mod=!LO&colon;DY&colon;ed=brack	!	!	!	!
!	!LO:DY:a:t=f&colon;	!	!	!	!	!	!	!	!	!	!	!	!	!	!	!	!	!	!	!	!	!	!	!	!	!	!
!	!LO:MO:null:mod=.	!	!	!	!	!	!LO:DY:a:t=for&colon;:rj	!	!	!LO:DY:a:t=f&colon;:rj	!	!	!LO:DY:a:t=for&colon;:rj	!	!	!LO:DY:a:t=f&colon;:rj	!	!	!LO:DY:a:t=f&colon;:rj	!	!LO:MO:null:mod=f	!	!LO:MO:null:mod=f	!	!	!	!
8C/L	f	8e\L	.	1r	.	16een\LL	f	2c\	Et	f	2c\	Et	f	2g\	Et	f	2een\	Et	f	4e/	.	8cc\L	.	2g/	.	2ee\	.
.	.	.	.	.	.	16ccc\	.	.	.	.	.	.	.	.	.	.	.	.	.	.	.	.	.	.	.	.	.
8C/	.	8e\	.	.	.	16bb\	.	.	.	.	.	.	.	.	.	.	.	.	.	.	.	16cc\L	.	.	.	.	.
.	.	.	.	.	.	16ccc\JJ	.	.	.	.	.	.	.	.	.	.	.	.	.	.	.	16cc\JJ	.	.	.	.	.
8C/	.	8e\	.	.	.	16ddd\LL	.	.	.	.	.	.	.	.	.	.	.	.	.	8e/L	.	8cc\L	.	.	.	.	.
.	.	.	.	.	.	16ccc\	.	.	.	.	.	.	.	.	.	.	.	.	.	.	.	.	.	.	.	.	.
8C/J	.	8e\J	.	.	.	16bb\	.	.	.	.	.	.	.	.	.	.	.	.	.	8e/J	.	8cc\J	.	.	.	.	.
.	.	.	.	.	.	16aa\JJ	.	.	.	.	.	.	.	.	.	.	.	.	.	.	.	.	.	.	.	.	.
!	!	!	!	!	!	!	!	!	!	!	!	!	!	!	!	!	!	!	!	!	!	!	!	!LO:LB:g=original	!	!	!
8BB/L	.	8d\L	.	.	.	8gg\L	.	2B\	vi-	.	2B\	vi-	.	2g\	vi-	.	2dd\	vi-	.	4g/	.	4dd\	.	4g/	.	4dd\	.
8BB/	.	8d\	.	.	.	16aa\L	.	.	.	.	.	.	.	.	.	.	.	.	.	.	.	.	.	.	.	.	.
.	.	.	.	.	.	16gg\JJ	.	.	.	.	.	.	.	.	.	.	.	.	.	.	.	.	.	.	.	.	.
8BB/	.	8d\	.	.	.	16gg\LL	.	.	.	.	.	.	.	.	.	.	.	.	.	4g/	.	8dd\L	.	8dd\L	.	8gg\L	.
.	.	.	.	.	.	16ff\	.	.	.	.	.	.	.	.	.	.	.	.	.	.	.	.	.	.	.	.	.
8BB/J	.	8d\J	.	.	.	16ee\	.	.	.	.	.	.	.	.	.	.	.	.	.	.	.	8dd\J	.	8b\J	.	8ff\J	.
.	.	.	.	.	.	16dd\JJ	.	.	.	.	.	.	.	.	.	.	.	.	.	.	.	.	.	.	.	.	.
!	!	!	!	!	!	!	!	!LO:LB:g=original	!	!	!	!	!	!	!	!	!	!	!	!	!	!	!	!	!	!	!
=88	=88	=88	=88	=88	=88	=88	=88	=88	=88	=88	=88	=88	=88	=88	=88	=88	=88	=88	=88	=88	=88	=88	=88	=88	=88	=88	=88
!	!	!	!	!	!LO:DY:a:t=for&colon;	!	!	!	!	!	!	!	!	!	!	!	!	!	!	!	!	!	!	!	!	!	!
8C/L	.	8e\L	.	16ee\LL	f	4ee\	.	4c\	-tam	.	4c\	-tam	.	4g\	-tam	.	4ee\	-tam	.	4cc\	.	4ee\	.	4cc\	.	4ee\	.
.	.	.	.	16cc\	.	.	.	.	.	.	.	.	.	.	.	.	.	.	.	.	.	.	.	.	.	.	.
8C/	.	8e\	.	16b\	.	.	.	.	.	.	.	.	.	.	.	.	.	.	.	.	.	.	.	.	.	.	.
.	.	.	.	16cc\JJ	.	.	.	.	.	.	.	.	.	.	.	.	.	.	.	.	.	.	.	.	.	.	.
8C/	.	8e\	.	16dd\LL	.	4r	.	4c\	ven-	.	4c\	ven-	.	4g\	ven-	.	4ee\	ven-	.	4r	.	4r	.	4g/	.	4ee\	.
.	.	.	.	16cc\	.	.	.	.	.	.	.	.	.	.	.	.	.	.	.	.	.	.	.	.	.	.	.
8C/J	.	8e\J	.	16b\	.	.	.	.	.	.	.	.	.	.	.	.	.	.	.	.	.	.	.	.	.	.	.
.	.	.	.	16a\JJ	.	.	.	.	.	.	.	.	.	.	.	.	.	.	.	.	.	.	.	.	.	.	.
8BB/L	.	8d\L	.	8g/L	.	2r	.	4B\	-tu-	.	4B\	-tu-	.	4g\	-tu-	.	4dd\	-tu-	.	4g/	.	4dd\	.	4g/	.	4dd\	.
8BB/	.	8d\	.	16a/L	.	.	.	.	.	.	.	.	.	.	.	.	.	.	.	.	.	.	.	.	.	.	.
.	.	.	.	16g/JJ	.	.	.	.	.	.	.	.	.	.	.	.	.	.	.	.	.	.	.	.	.	.	.
8BB/	.	8d\	.	16g/LL	.	.	.	4B\	-ri	.	4B\	-ri	.	4g\	-ri	.	4dd\	-ri	.	4r	.	4r	.	8dd\L	.	8gg\L	.
.	.	.	.	16f/	.	.	.	.	.	.	.	.	.	.	.	.	.	.	.	.	.	.	.	.	.	.	.
8BB/J	.	8d\J	.	16e/	.	.	.	.	.	.	.	.	.	.	.	.	.	.	.	.	.	.	.	8b\J	.	8ff\J	.
.	.	.	.	16d/JJ	.	.	.	.	.	.	.	.	.	.	.	.	.	.	.	.	.	.	.	.	.	.	.
=89	=89	=89	=89	=89	=89	=89	=89	=89	=89	=89	=89	=89	=89	=89	=89	=89	=89	=89	=89	=89	=89	=89	=89	=89	=89	=89	=89
!	!	!	!	!	!	!	!	!	!	!	!	!	!	!	!	!	!	!LO:MO:mod=sae-	!	!	!	!	!	!	!	!	!
8C/L	.	8e\L	.	4e/	.	16ee\LL	.	2c\	ſae-	.	2c\	ſae-	.	2g\	sae-	.	2ee\	Sae-	.	4e/	.	4cc\	.	4cc\	.	2ee\	.
.	.	.	.	.	.	16ccc\	.	.	.	.	.	.	.	.	.	.	.	.	.	.	.	.	.	.	.	.	.
8C/	.	8e\	.	.	.	16bb\	.	.	.	.	.	.	.	.	.	.	.	.	.	.	.	.	.	.	.	.	.
.	.	.	.	.	.	16ccc\JJ	.	.	.	.	.	.	.	.	.	.	.	.	.	.	.	.	.	.	.	.	.
8C/	.	8e\	.	4r	.	16ddd\LL	.	.	.	.	.	.	.	.	.	.	.	.	.	8e/L	.	8cc\L	.	4g/	.	.	.
.	.	.	.	.	.	16ccc\	.	.	.	.	.	.	.	.	.	.	.	.	.	.	.	.	.	.	.	.	.
8C/J	.	8e\J	.	.	.	16bb\	.	.	.	.	.	.	.	.	.	.	.	.	.	8e/J	.	8cc\J	.	.	.	.	.
.	.	.	.	.	.	16aa\JJ	.	.	.	.	.	.	.	.	.	.	.	.	.	.	.	.	.	.	.	.	.
*	*	*	*	*	*	*	*	*	*	*	*	*	*	*	*	*	*custos:ee	*	*	*	*	*	*	*	*	*	*
8BB/L	.	8d\L	.	2r	.	8gg\L	.	4B\	-cu-	.	2B\	-cu-	.	2g\	-cu-	.	2dd\	-cu-	.	4g/	.	4dd\	.	4g/	.	4dd\	.
8BB/	.	8d\	.	.	.	16aa\L	.	.	.	.	.	.	.	.	.	.	.	.	.	.	.	.	.	.	.	.	.
.	.	.	.	.	.	16gg\JJ	.	.	.	.	.	.	.	.	.	.	.	.	.	.	.	.	.	.	.	.	.
!	!	!	!	!	!	!LO:LB:g=original	!	!	!	!	!	!	!	!	!	!	!	!	!	!	!	!	!	!	!	!	!
8BB/	.	8d\	.	.	.	16gg\LL	.	4B\	-li	.	.	.	.	.	.	.	.	.	.	8g/L	.	8dd\L	.	8dd\L	.	8gg\L	.
.	.	.	.	.	.	16ff\	.	.	.	.	.	.	.	.	.	.	.	.	.	.	.	.	.	.	.	.	.
8BB/J	.	8d\J	.	.	.	16ee\	.	.	.	.	.	.	.	.	.	.	.	.	.	8g/J	.	8dd\J	.	8b\J	.	8ff\J	.
.	.	.	.	.	.	16dd\JJ	.	.	.	.	.	.	.	.	.	.	.	.	.	.	.	.	.	.	.	.	.
!	!	!	!	!	!	!	!	!	!	!	!	!	!	!	!	!	!LO:LB:g=original	!	!	!	!	!	!	!	!	!	!
=90	=90	=90	=90	=90	=90	=90	=90	=90	=90	=90	=90	=90	=90	=90	=90	=90	=90	=90	=90	=90	=90	=90	=90	=90	=90	=90	=90
8C/L	.	8e\L	.	16ee\LL	.	4ee\	.	2c\	a-	.	4c\	-li	.	4g\	-li	.	4ee\	-li	.	4cc\	.	4ee\	.	4cc\	.	2ee\	.
.	.	.	.	16cc\	.	.	.	.	.	.	.	.	.	.	.	.	.	.	.	.	.	.	.	.	.	.	.
8C/	.	8e\	.	16b\	.	.	.	.	.	.	.	.	.	.	.	.	.	.	.	.	.	.	.	.	.	.	.
.	.	.	.	16cc\JJ	.	.	.	.	.	.	.	.	.	.	.	.	.	.	.	.	.	.	.	.	.	.	.
8C/	.	8e\	.	16dd\LL	.	4r	.	.	.	.	4c\	ven-	.	4g\	ven-	.	4ee\	ven-	.	4r	.	4r	.	4g/	.	.	.
.	.	.	.	16cc\	.	.	.	.	.	.	.	.	.	.	.	.	.	.	.	.	.	.	.	.	.	.	.
8C/J	.	8e\J	.	16b\	.	.	.	.	.	.	.	.	.	.	.	.	.	.	.	.	.	.	.	.	.	.	.
.	.	.	.	16a\JJ	.	.	.	.	.	.	.	.	.	.	.	.	.	.	.	.	.	.	.	.	.	.	.
8BB/L	.	8d\L	.	8g/L	.	2r	.	2B\	-men	.	4B\	-tu-	.	4g\	-tu-	.	4dd\	-tu-	.	4g/	.	4dd\	.	8g/L	.	4dd\	.
8BB/	.	8d\	.	16a/L	.	.	.	.	.	.	.	.	.	.	.	.	.	.	.	.	.	.	.	8b/	.	.	.
.	.	.	.	16g/JJ	.	.	.	.	.	.	.	.	.	.	.	.	.	.	.	.	.	.	.	.	.	.	.
8BB/	.	8d\	.	16g/LL	.	.	.	.	.	.	4B\	-ri	.	4g\	-ri	.	4dd\	-ri	.	4r	.	4r	.	8dd/	.	8gg\L	.
.	.	.	.	16f/	.	.	.	.	.	.	.	.	.	.	.	.	.	.	.	.	.	.	.	.	.	.	.
8BB/J	.	8d\J	.	16e/	.	.	.	.	.	.	.	.	.	.	.	.	.	.	.	.	.	.	.	8b/J	.	8ff\J	.
.	.	.	.	16d/JJ	.	.	.	.	.	.	.	.	.	.	.	.	.	.	.	.	.	.	.	.	.	.	.
*Xtremolo	*	*	*	*	*	*	*	*	*	*	*	*	*	*	*	*	*	*	*	*	*	*	*	*	*	*	*
=91	=91	=91	=91	=91	=91	=91	=91	=91	=91	=91	=91	=91	=91	=91	=91	=91	=91	=91	=91	=91	=91	=91	=91	=91	=91	=91	=91
*	*	*	*	*	*	*	*	*	*	*	*	*	*	*custos:f	*	*	*	*	*	*	*	*	*	*	*	*	*
!LO:TX:t=P:problem=mixed beam	!	!	!	!LO:TX:t=P:problem=mixed beam	!	!	!	!	!	!	!	!	!	!	!LO:MO:mod=sae-	!	!	!	!	!	!	!	!	!	!	!	!
8C/L	.	8g\L	.	16e/LL	.	16ee\LL	.	2c\	ven-	.	2c\	ſae-	.	2g\	Sae-	.	2ee\	sae-	.	2c/	.	2cc\	.	2cc\	.	4ee/	.
.	.	.	.	16cc\	.	16ee\	.	.	.	.	.	.	.	.	.	.	.	.	.	.	.	.	.	.	.	.	.
8c\	.	8g\	.	16cc\	.	16ee\	.	.	.	.	.	.	.	.	.	.	.	.	.	.	.	.	.	.	.	.	.
.	.	.	.	16cc\JJ	.	16ee\JJ	.	.	.	.	.	.	.	.	.	.	.	.	.	.	.	.	.	.	.	.	.
8c\	.	8g\	.	16cc\LL	.	16ee\LL	.	.	.	.	.	.	.	.	.	.	.	.	.	.	.	.	.	.	.	8cc/L	.
.	.	.	.	16cc\	.	16ee\	.	.	.	.	.	.	.	.	.	.	.	.	.	.	.	.	.	.	.	.	.
8c\J	.	8g\J	.	16cc\	.	16ee\	.	.	.	.	.	.	.	.	.	.	.	.	.	.	.	.	.	.	.	8ee/J	.
.	.	.	.	16cc\JJ	.	16ee\JJ	.	.	.	.	.	.	.	.	.	.	.	.	.	.	.	.	.	.	.	.	.
!	!	!	!	!	!	!	!	!	!	!	!	!	!	!LO:LB:g=original	!	!	!	!	!	!	!	!	!	!	!	!	!
*tremolo	*	*	*	*tremolo	*	*	*	*	*	*	*	*	*	*	*	*	*	*	*	*	*	*	*	*	*	*	*
8A\L	.	8f\L	.	16cc\LL	.	16ff\LL	.	4A\	-tu-	.	2c\	-cu-	.	4f\	-cu-	.	2cc\	-cu-	.	4c/	.	4cc\	.	2cc\	.	4ff/	.
.	.	.	.	16cc\	.	16ff\	.	.	.	.	.	.	.	.	.	.	.	.	.	.	.	.	.	.	.	.	.
8A\	.	8f\	.	16cc\	.	16ff\	.	.	.	.	.	.	.	.	.	.	.	.	.	.	.	.	.	.	.	.	.
.	.	.	.	16cc\	.	16ff\JJ	.	.	.	.	.	.	.	.	.	.	.	.	.	.	.	.	.	.	.	.	.
8A\	.	8f\	.	16cc\	.	16ff\LL	.	4A\	-ru	.	.	.	.	4f\	-li	.	.	.	.	4c/	.	4cc\	.	.	.	8cc/L	.
.	.	.	.	16cc\	.	16ff\	.	.	.	.	.	.	.	.	.	.	.	.	.	.	.	.	.	.	.	.	.
8A\J	.	8f\J	.	16cc\	.	16ff\	.	.	.	.	.	.	.	.	.	.	.	.	.	.	.	.	.	.	.	8ff/J	.
.	.	.	.	16cc\JJ	.	16ff\JJ	.	.	.	.	.	.	.	.	.	.	.	.	.	.	.	.	.	.	.	.	.
=92	=92	=92	=92	=92	=92	=92	=92	=92	=92	=92	=92	=92	=92	=92	=92	=92	=92	=92	=92	=92	=92	=92	=92	=92	=92	=92	=92
!	!	!	!	!	!	!	!	!	!	!	!	!	!	!	!	!	!LO:SIC:v:s=2cc	!	!	!	!	!	!	!	!	!	!
8E\L	.	8e\L	.	16cc\LL	.	16gg\LL	.	2E\	ſae-	.	2c\	-li	.	2g\	a-	.	2dd\	-li	.	4c/	.	4cc\	.	2cc\	.	4gg\	.
.	.	.	.	16cc\	.	16gg\	.	.	.	.	.	.	.	.	.	.	.	.	.	.	.	.	.	.	.	.	.
8E\	.	8e\	.	16cc\	.	16gg\	.	.	.	.	.	.	.	.	.	.	.	.	.	.	.	.	.	.	.	.	.
.	.	.	.	16cc\	.	16gg\JJ	.	.	.	.	.	.	.	.	.	.	.	.	.	.	.	.	.	.	.	.	.
8E\	.	8e\	.	16cc\	.	16gg\LL	.	.	.	.	.	.	.	.	.	.	.	.	.	8c/L	.	8cc\L	.	.	.	8cc\L	.
.	.	.	.	16cc\	.	16gg\	.	.	.	.	.	.	.	.	.	.	.	.	.	.	.	.	.	.	.	.	.
8E\J	.	8e\J	.	16cc\	.	16gg\	.	.	.	.	.	.	.	.	.	.	.	.	.	8c/J	.	8cc\J	.	.	.	8gg\J	.
.	.	.	.	16cc\JJ	.	16gg\JJ	.	.	.	.	.	.	.	.	.	.	.	.	.	.	.	.	.	.	.	.	.
8F\L	.	8f\L	.	16cc\LL	.	16aa\LL	.	4F\	-cu-	.	2f\	a-	.	2a\	-men	.	4cc\	a-	.	4c/	.	4cc\	.	4cc\	.	4aa\	.
.	.	.	.	16cc\	.	16aa\	.	.	.	.	.	.	.	.	.	.	.	.	.	.	.	.	.	.	.	.	.
8F\	.	8f\	.	16cc\	.	16aa\	.	.	.	.	.	.	.	.	.	.	.	.	.	.	.	.	.	.	.	.	.
.	.	.	.	16cc\	.	16aa\JJ	.	.	.	.	.	.	.	.	.	.	.	.	.	.	.	.	.	.	.	.	.
8F\	.	8f\	.	16cc\	.	16ff\LL	.	4F\	-li	.	.	.	.	.	.	.	4cc\	-men	.	4r	.	4r	.	4cc\	.	4ff\	.
.	.	.	.	16cc\	.	16ff\	.	.	.	.	.	.	.	.	.	.	.	.	.	.	.	.	.	.	.	.	.
8F\J	.	8f\J	.	16cc\	.	16ff\	.	.	.	.	.	.	.	.	.	.	.	.	.	.	.	.	.	.	.	.	.
.	.	.	.	16cc\JJ	.	16ff\JJ	.	.	.	.	.	.	.	.	.	.	.	.	.	.	.	.	.	.	.	.	.
=93	=93	=93	=93	=93	=93	=93	=93	=93	=93	=93	=93	=93	=93	=93	=93	=93	=93	=93	=93	=93	=93	=93	=93	=93	=93	=93	=93
8G\L	.	8g\L	.	16cc\LL	.	16ee\LL	.	1G	a-	.	2e\	.	.	1g	a-	.	(2cc\	a-	.	4cc\	.	4ee\	.	2cc\	.	2ee\	.
.	.	.	.	16cc\	.	16ee\	.	.	.	.	.	.	.	.	.	.	.	.	.	.	.	.	.	.	.	.	.
8G\	.	8g\	.	16cc\	.	16ee\	.	.	.	.	.	.	.	.	.	.	.	.	.	.	.	.	.	.	.	.	.
.	.	.	.	16cc\	.	16ee\JJ	.	.	.	.	.	.	.	.	.	.	.	.	.	.	.	.	.	.	.	.	.
8G\	.	8g\	.	16cc\	.	16ee\LL	.	.	.	.	.	.	.	.	.	.	.	.	.	8cc\L	.	8ee\L	.	.	.	.	.
.	.	.	.	16cc\	.	16ee\	.	.	.	.	.	.	.	.	.	.	.	.	.	.	.	.	.	.	.	.	.
8G\J	.	8g\J	.	16cc\	.	16ee\	.	.	.	.	.	.	.	.	.	.	.	.	.	8cc\J	.	8ee\J	.	.	.	.	.
.	.	.	.	16cc\JJ	.	16ee\JJ	.	.	.	.	.	.	.	.	.	.	.	.	.	.	.	.	.	.	.	.	.
8GG/L	.	8G/L	.	16b\LL	.	16dd\LL	.	.	.	.	2d\	.	.	.	.	.	2b\)	.	.	4g/	.	4dd\	.	2b\	.	2dd\	.
.	.	.	.	16b\	.	16dd\	.	.	.	.	.	.	.	.	.	.	.	.	.	.	.	.	.	.	.	.	.
8GG/	.	8G/	.	16b\	.	16dd\	.	.	.	.	.	.	.	.	.	.	.	.	.	.	.	.	.	.	.	.	.
.	.	.	.	16b\	.	16dd\JJ	.	.	.	.	.	.	.	.	.	.	.	.	.	.	.	.	.	.	.	.	.
8GG/	.	8G/	.	16b\	.	16dd\LL	.	.	.	.	.	.	.	.	.	.	.	.	.	4g/	.	4dd\	.	.	.	.	.
.	.	.	.	16b\	.	16dd\	.	.	.	.	.	.	.	.	.	.	.	.	.	.	.	.	.	.	.	.	.
8GG/J	.	8G/J	.	16b\	.	16dd\	.	.	.	.	.	.	.	.	.	.	.	.	.	.	.	.	.	.	.	.	.
*	*	*	*	*	*	*custos:ee	*	*	*	*	*	*	*	*	*	*	*	*	*	*	*	*	*	*	*	*	*
.	.	.	.	16b\JJ	.	16dd\JJ	.	.	.	.	.	.	.	.	.	.	.	.	.	.	.	.	.	.	.	.	.
*Xtremolo	*	*Xtremolo	*	*Xtremolo	*	*	*	*	*	*	*	*	*	*	*	*	*	*	*	*	*	*	*	*	*	*	*
!	!	!	!	!	!	!LO:LB:g=original	!	!	!	!	!	!	!	!	!	!	!	!	!	!	!	!	!	!	!	!	!
=94	=94	=94	=94	=94	=94	=94	=94	=94	=94	=94	=94	=94	=94	=94	=94	=94	=94	=94	=94	=94	=94	=94	=94	=94	=94	=94	=94
!LO:TX:t=P:problem=mixed beam	!	!LO:TX:t=P:problem=mixed beam	!	!	!	!	!	!	!	!	!	!	!	!	!	!	!	!	!	!	!	!	!	!	!	!	!
8C\L	.	8c/L	.	16cc\LL	.	8ee\	.	4c\	-men	.	4e\	-men	.	4g\	-men	.	4cc\	-men	.	4cc\	.	4ee\	.	2cc\	.	8ee\L	.
.	.	.	.	16ee\	.	.	.	.	.	.	.	.	.	.	.	.	.	.	.	.	.	.	.	.	.	.	.
8c\	.	8g\	.	16ee\	.	4ccc\	.	.	.	.	.	.	.	.	.	.	.	.	.	.	.	.	.	.	.	8cc\	.
.	.	.	.	16ee\JJ	.	.	.	.	.	.	.	.	.	.	.	.	.	.	.	.	.	.	.	.	.	.	.
!	!	!	!	!LO:LB:g=original	!	!	!	!	!	!	!	!	!	!	!	!	!	!	!	!	!	!	!	!	!	!	!
8c\	.	8g\	.	16ee\LL	.	.	.	4c\	ven-	.	4c\	ven-	.	4g\	a-	.	4ee\	ven-	.	4r	.	4r	.	.	.	8cc\	.
.	.	.	.	16ee\	.	.	.	.	.	.	.	.	.	.	.	.	.	.	.	.	.	.	.	.	.	.	.
8c\J	.	8g\J	.	16ee\	.	4ccc\	.	.	.	.	.	.	.	.	.	.	.	.	.	.	.	.	.	.	.	8ee\J	.
.	.	.	.	16ee\JJ	.	.	.	.	.	.	.	.	.	.	.	.	.	.	.	.	.	.	.	.	.	.	.
!LO:LB:g=original	!	!	!	!	!	!	!	!	!	!	!	!	!	!	!	!	!	!	!	!	!	!	!	!	!	!	!
*tremolo	*	*tremolo	*	*tremolo	*	*	*	*	*	*	*	*	*	*	*	*	*	*	*	*	*	*	*	*	*	*	*
8A\L	.	8f\L	.	16ff\LL	.	.	.	4A\	-tu-	.	4c\	-tu-	.	4f\	-men	.	4ff\	-tu-	.	2c/	.	2cc\	.	4cc\	.	2ff\	.
.	.	.	.	16ff\	.	.	.	.	.	.	.	.	.	.	.	.	.	.	.	.	.	.	.	.	.	.	.
8A\	.	8f\	.	16ff\	.	4ccc\	.	.	.	.	.	.	.	.	.	.	.	.	.	.	.	.	.	.	.	.	.
.	.	.	.	16ff\	.	.	.	.	.	.	.	.	.	.	.	.	.	.	.	.	.	.	.	.	.	.	.
*	*	*	*	*	*	*	*	*custos:E	*	*	*	*	*	*	*	*	*	*	*	*	*	*	*	*	*	*	*
8A\	.	8f\	.	16ff\	.	.	.	4A\	-ri	.	4c\	-ri	.	4f\	a-	.	4ff\	-ri	.	.	.	.	.	4cc\	.	.	.
.	.	.	.	16ff\	.	.	.	.	.	.	.	.	.	.	.	.	.	.	.	.	.	.	.	.	.	.	.
8A\J	.	8f\J	.	16ff\	.	(8ccc\	.	.	.	.	.	.	.	.	.	.	.	.	.	.	.	.	.	.	.	.	.
.	.	.	.	16ff\JJ	.	.	.	.	.	.	.	.	.	.	.	.	.	.	.	.	.	.	.	.	.	.	.
!	!	!	!	!	!	!	!	!LO:LB:g=original	!	!	!LO:LB:g=original	!	!	!	!	!	!	!	!	!	!	!	!	!	!	!	!
=95	=95	=95	=95	=95	=95	=95	=95	=95	=95	=95	=95	=95	=95	=95	=95	=95	=95	=95	=95	=95	=95	=95	=95	=95	=95	=95	=95
8E\L	.	8e\L	.	16gg\LL	.	8aa\)	.	2E\	ſae-	.	2c\	ſae-	.	4e\	-men	.	2gg\	sae-	.	4c/	.	4cc\	.	4cc\	.	8gg\L	.
.	.	.	.	16gg\	.	.	.	.	.	.	.	.	.	.	.	.	.	.	.	.	.	.	.	.	.	.	.
8E\	.	8e\	.	16gg\	.	4ccc\	.	.	.	.	.	.	.	.	.	.	.	.	.	.	.	.	.	.	.	8cc\	.
.	.	.	.	16gg\	.	.	.	.	.	.	.	.	.	.	.	.	.	.	.	.	.	.	.	.	.	.	.
8E\	.	8e\	.	16gg\	.	.	.	.	.	.	.	.	.	8e\	a-	.	.	.	.	4c/	.	8cc\L	.	4cc\	.	8cc\	.
.	.	.	.	16gg\	.	.	.	.	.	.	.	.	.	.	.	.	.	.	.	.	.	.	.	.	.	.	.
8E\J	.	8e\J	.	16gg\	.	4ccc\	.	.	.	.	.	.	.	8e\	-men	.	.	.	.	.	.	8cc\J	.	.	.	8gg\J	.
.	.	.	.	16gg\JJ	.	.	.	.	.	.	.	.	.	.	.	.	.	.	.	.	.	.	.	.	.	.	.
*	*	*	*	*Xtremolo	*	*	*	*	*	*	*	*	*	*	*	*	*	*	*	*	*	*	*	*	*	*	*
8F\L	.	8f\L	.	16aa\LL	.	.	.	4F\	-cu-	.	4c\	-cu-	.	4f\	a-	.	4aa\	-cu-	.	4c/	.	4cc\	.	4cc\	.	2aa\	.
.	.	.	.	16aa\	.	.	.	.	.	.	.	.	.	.	.	.	.	.	.	.	.	.	.	.	.	.	.
8F\	.	8f\	.	16aa\	.	4ccc\	.	.	.	.	.	.	.	.	.	.	.	.	.	.	.	.	.	.	.	.	.
.	.	.	.	16aa\JJ	.	.	.	.	.	.	.	.	.	.	.	.	.	.	.	.	.	.	.	.	.	.	.
8F\	.	8f\	.	16dd\LL	.	.	.	4F\	-li	.	4c\	-li	.	4a\	-men	.	4dd\	-li	.	4r	.	4cc\	.	4cc\	.	.	.
.	.	.	.	16dd\	.	.	.	.	.	.	.	.	.	.	.	.	.	.	.	.	.	.	.	.	.	.	.
*	*	*custos:g	*	*	*	*	*	*	*	*	*	*	*	*	*	*	*	*	*	*	*	*	*	*	*	*	*
8F\J	.	8f\J	.	16dd\	.	8ccc\	.	.	.	.	.	.	.	.	.	.	.	.	.	.	.	.	.	.	.	.	.
.	.	.	.	16dd\JJ	.	.	.	.	.	.	.	.	.	.	.	.	.	.	.	.	.	.	.	.	.	.	.
!	!	!LO:LB:g=original	!	!	!	!	!	!	!	!	!	!	!	!	!	!	!	!	!	!	!	!	!	!	!	!	!
=96	=96	=96	=96	=96	=96	=96	=96	=96	=96	=96	=96	=96	=96	=96	=96	=96	=96	=96	=96	=96	=96	=96	=96	=96	=96	=96	=96
*	*	*	*	*tremolo	*	*	*	*	*	*	*	*	*	*	*	*	*	*	*	*	*	*	*	*	*	*	*
8G\L	.	8g\L	.	16ee\LL	.	16ccc\LL	.	1G	a-	.	(2c\	a-	.	1g	a-	.	(2ee\	a-	.	4cc\	.	4cc\	.	4cc\	.	4cc\	.
.	.	.	.	16ee\	.	16ccc\	.	.	.	.	.	.	.	.	.	.	.	.	.	.	.	.	.	.	.	.	.
8G\	.	8g\	.	16ee\	.	16ccc\	.	.	.	.	.	.	.	.	.	.	.	.	.	.	.	.	.	.	.	.	.
.	.	.	.	16ee\	.	16ccc\JJ	.	.	.	.	.	.	.	.	.	.	.	.	.	.	.	.	.	.	.	.	.
8G\	.	8g\	.	16ee\	.	16ccc\LL	.	.	.	.	.	.	.	.	.	.	.	.	.	4cc\	.	4ee\	.	4ee\	.	4ccc\	.
.	.	.	.	16ee\	.	16ccc\	.	.	.	.	.	.	.	.	.	.	.	.	.	.	.	.	.	.	.	.	.
8G\J	.	8g\J	.	16ee\	.	16ccc\	.	.	.	.	.	.	.	.	.	.	.	.	.	.	.	.	.	.	.	.	.
.	.	.	.	16ee\JJ	.	16ccc\JJ	.	.	.	.	.	.	.	.	.	.	.	.	.	.	.	.	.	.	.	.	.
8GG/L	.	8g\L	.	16dd\LL	.	16bb\LL	.	.	.	.	2B\)	.	.	.	.	.	2dd\)	.	.	2g/	.	2dd\	.	2dd\	.	2bb\	.
.	.	.	.	16dd\	.	16bb\	.	.	.	.	.	.	.	.	.	.	.	.	.	.	.	.	.	.	.	.	.
8GG/	.	8g\	.	16dd\	.	16bb\	.	.	.	.	.	.	.	.	.	.	.	.	.	.	.	.	.	.	.	.	.
.	.	.	.	16dd\	.	16bb\JJ	.	.	.	.	.	.	.	.	.	.	.	.	.	.	.	.	.	.	.	.	.
8GG/	.	8g\	.	16dd\	.	16bb\LL	.	.	.	.	.	.	.	.	.	.	.	.	.	.	.	.	.	.	.	.	.
.	.	.	.	16dd\	.	16bb\	.	.	.	.	.	.	.	.	.	.	.	.	.	.	.	.	.	.	.	.	.
8GG/J	.	8g\J	.	16dd\	.	16bb\	.	.	.	.	.	.	.	.	.	.	.	.	.	.	.	.	.	.	.	.	.
.	.	.	.	16dd\JJ	.	16bb\JJ	.	.	.	.	.	.	.	.	.	.	.	.	.	.	.	.	.	.	.	.	.
*Xtremolo	*	*Xtremolo	*	*Xtremolo	*	*	*	*	*	*	*	*	*	*	*	*	*	*	*	*	*	*	*	*	*	*	*
!	!	!	!	!	!	!	!	!	!	!	!	!	!	!	!	!	!	!	!	!	!	!LO:LB:g=original	!	!	!	!	!
=97	=97	=97	=97	=97	=97	=97	=97	=97	=97	=97	=97	=97	=97	=97	=97	=97	=97	=97	=97	=97	=97	=97	=97	=97	=97	=97	=97
4C/	.	4g\	.	4ee\	.	4ccc\	.	4c\	-men	.	4c\	-men	.	4g\	-men	.	4ee\	-men	.	4cc\	.	4ee\	.	4ee\	.	4ccc\	.
*	*	*	*	*	*	*	*	*	*ij	*	*	*	*	*	*	*	*	*	*	*	*	*	*	*	*	*	*
4GG/	.	4g\	.	4dd\	.	4bb\	.	4G\	a-	.	4B\	a-	.	4g\	a-	.	4dd\	a-	.	4g/	.	4dd\	.	4dd\	.	4bb\	.
!	!	!LO:TX:b:i:t=Sanctus.:mod=	!	!	!	!	!	!	!	!	!	!	!	!	!	!	!	!	!	!	!	!	!	!	!	!	!
4C/	.	4g\	.	4ee\	.	4ccc\	.	4C/	-men	.	4c\	-men.	.	4g\	-men	.	4ee\	-men	.	4cc\	.	4ee\	.	4ee\	.	4ccc\	.
*	*	*	*	*	*	*	*	*	*Xij	*	*	*	*	*	*	*	*	*	*	*	*	*	*	*	*	*	*
!	!	!	!	!	!	!LO:TX:b:i:t=Sequitur Sanct(us).:mod=	!	!	!	!	!	!	!	!	!	!	!	!	!	!	!	!	!	!	!	!	!
4r	.	4r	.	4r	.	4r	.	4r	.	.	4r	.	.	4r	.	.	4r	.	.	4r	.	4r	.	4r	.	4r	.
==	==	==	==	==	==	==	==	==	==	==	==	==	==	==	==	==	==	==	==	==	==	==	==	==	==	==	==
*-	*-	*-	*-	*-	*-	*-	*-	*-	*-	*-	*-	*-	*-	*-	*-	*-	*-	*-	*-	*-	*-	*-	*-	*-	*-	*-	*-
!!!system-decoration: [(s1,s2)][(s3,s4)][(s5,s6,s7,s8)][(s9,s10,s11,s12)]
!!!RDF**kern: < = below
!!!RDF**kern: > = above
!!!ENC: Andrzej Gręziak
!!!END: 2020-09-18
!!!ENC: Marta Chmielewska
!!!END: 2022-02-02
!!!RDF**kern: @ = marked note, color=grey
!!!ENC-modern: Andrzej Borzym
!!!END-modern: 2022-11-23
!!!YEC: Copyright 2022 Narodowy Instytut Fryderyka Chopina (https://polishscores.org)
!!!YEM: License CC-BY-4.0 (https://creativecommons.org/licenses/by/4.0)
